P3
200 200
255
109 0 146 136 0 119 123 0 132 96 0 159 187 0 68 50 0 205 46 0 209 114 0 141 163 0 92 109 0 146 114 0 141 93 0 162 175 0 80 136 0 119 181 0 74 139 0 116 129 0 126 89 0 166 154 0 101 109 0 146 116 0 139 66 0 189 96 0 159 180 0 75 96 0 159 96 0 159 92 0 163 105 0 150 99 0 156 130 0 125 98 0 157 170 0 85 77 0 178 120 0 135 115 0 140 197 0 58 90 0 165 128 0 127 148 0 107 152 0 103 179 0 76 145 0 110 41 0 214 143 0 112 170 0 85 108 0 147 137 0 118 107 0 148 124 0 131 102 0 153 225 0 30 81 0 174 130 0 125 46 0 209 102 0 153 134 0 121 107 0 148 165 0 90 156 0 99 109 0 146 147 0 108 145 0 110 173 0 82 112 0 143 63 0 192 73 0 182 148 0 107 177 0 78 168 0 87 169 0 86 106 0 149 70 0 185 124 0 131 108 0 147 202 0 53 122 0 133 109 0 146 202 0 53 128 0 127 150 0 105 161 0 94 60 0 195 113 0 142 96 0 159 132 0 123 70 0 185 54 0 201 139 0 116 90 0 165 120 0 135 35 0 220 184 0 71 86 0 169 117 0 138 131 0 124 164 0 91 158 0 97 140 0 115 107 0 148 87 0 168 90 0 165 93 0 162 145 0 110 158 0 97 179 0 76 113 0 142 94 0 161 136 0 119 97 0 158 183 0 72 203 0 52 52 0 203 109 0 146 133 0 122 91 0 164 54 0 201 89 0 166 141 0 114 109 0 146 109 0 146 69 0 186 109 0 146 179 0 76 67 0 188 162 0 93 80 0 175 109 0 146 102 0 153 136 0 119 19 0 236 79 0 176 136 0 119 162 0 93 140 0 115 110 0 145 197 0 58 96 0 159 100 0 155 148 0 107 102 0 153 168 0 87 165 0 90 160 0 95 46 0 209 87 0 168 115 0 140 48 0 207 159 0 96 69 0 186 138 0 117 141 0 114 179 0 76 89 0 166 85 0 170 92 0 163 157 0 98 68 0 187 90 0 165 113 0 142 88 0 167 83 0 172 145 0 110 107 0 148 212 0 43 98 0 157 134 0 121 93 0 162 151 0 104 136 0 119 89 0 166 117 0 138 105 0 150 130 0 125 130 0 125 54 0 201 34 0 221 136 0 119 57 0 198 90 0 165 79 0 176 163 0 92 136 0 119 75 0 180 170 0 85 168 0 87 130 0 125 157 0 98 96 0 159 59 0 196 153 0 102 48 0 207 63 0 192 85 0 170 161 0 94 141 0 114 108 0 147 150 0 105 110 0 145 99 0 156 155 0 100 
131 0 124 131 0 124 124 0 131 118 0 137 129 0 126 94 0 161 89 0 166 112 0 143 129 0 126 120 0 135 119 0 136 120 0 135 142 0 113 141 0 114 149 0 106 137 0 118 128 0 127 117 0 138 128 0 127 117 0 138 112 0 143 100 0 155 111 0 144 131 0 124 113 0 142 107 0 148 106 0 149 109 0 146 111 0 144 120 0 135 118 0 137 131 0 124 113 0 142 121 0 134 127 0 128 145 0 110 124 0 131 130 0 125 139 0 116 144 0 111 148 0 107 133 0 122 107 0 148 129 0 126 139 0 116 126 0 129 128 0 127 121 0 134 124 0 131 126 0 129 150 0 105 118 0 137 116 0 139 96 0 159 110 0 145 123 0 132 124 0 131 140 0 115 140 0 115 129 0 126 136 0 119 138 0 117 139 0 116 117 0 138 99 0 156 105 0 150 131 0 124 147 0 108 148 0 107 142 0 113 120 0 135 108 0 147 120 0 135 127 0 128 150 0 105 135 0 120 133 0 122 153 0 102 139 0 116 138 0 117 133 0 122 105 0 150 110 0 145 108 0 147 113 0 142 97 0 158 94 0 161 114 0 141 107 0 148 110 0 145 97 0 158 129 0 126 114 0 141 121 0 134 130 0 125 142 0 113 140 0 115 131 0 124 117 0 138 107 0 148 107 0 148 114 0 141 133 0 122 143 0 112 146 0 109 127 0 128 119 0 136 127 0 128 126 0 129 149 0 106 149 0 106 110 0 145 114 0 141 117 0 138 103 0 152 92 0 163 103 0 152 119 0 136 114 0 141 110 0 145 103 0 152 116 0 139 133 0 122 112 0 143 126 0 129 109 0 146 111 0 144 109 0 146 110 0 145 83 0 172 98 0 157 122 0 133 135 0 120 132 0 123 128 0 127 144 0 111 121 0 134 119 0 136 131 0 124 127 0 128 143 0 112 144 0 111 133 0 122 99 0 156 102 0 153 107 0 148 97 0 158 121 0 134 110 0 145 127 0 128 135 0 120 140 0 115 114 0 141 107 0 148 109 0 146 122 0 133 101 0 154 103 0 152 108 0 147 104 0 151 107 0 148 126 0 129 128 0 127 150 0 105 126 0 129 126 0 129 119 0 136 131 0 124 127 0 128 114 0 141 117 0 138 116 0 139 120 0 135 113 0 142 89 0 166 82 0 173 104 0 151 91 0 164 99 0 156 105 0 150 130 0 125 127 0 128 117 0 138 141 0 114 144 0 111 134 0 121 132 0 123 111 0 144 99 0 156 114 0 141 90 0 165 91 0 164 105 0 150 129 0 126 129 0 126 123 0 132 129 0 126 119 0 136 118 0 137 142 0 113 
157 0 98 134 0 121 125 0 130 120 0 135 119 0 136 108 0 147 106 0 149 114 0 141 121 0 134 121 0 134 122 0 133 126 0 129 133 0 122 136 0 119 137 0 118 133 0 122 128 0 127 123 0 132 123 0 132 119 0 136 115 0 140 112 0 143 115 0 140 121 0 134 117 0 138 114 0 141 113 0 142 115 0 140 117 0 138 121 0 134 122 0 133 125 0 130 122 0 133 124 0 131 128 0 127 133 0 122 129 0 126 131 0 124 134 0 121 137 0 118 137 0 118 131 0 124 124 0 131 128 0 127 131 0 124 128 0 127 127 0 128 125 0 130 126 0 129 128 0 127 132 0 123 124 0 131 119 0 136 113 0 142 117 0 138 122 0 133 126 0 129 132 0 123 133 0 122 131 0 124 131 0 124 131 0 124 128 0 127 119 0 136 113 0 142 115 0 140 126 0 129 134 0 121 136 0 119 133 0 122 125 0 130 120 0 135 124 0 131 129 0 126 136 0 119 134 0 121 135 0 120 139 0 116 136 0 119 133 0 122 127 0 128 117 0 138 115 0 140 114 0 141 114 0 141 110 0 145 110 0 145 115 0 140 115 0 140 115 0 140 113 0 142 121 0 134 120 0 135 123 0 132 127 0 128 132 0 123 132 0 123 127 0 128 121 0 134 117 0 138 117 0 138 122 0 133 130 0 125 135 0 120 136 0 119 130 0 125 127 0 128 129 0 126 131 0 124 137 0 118 136 0 119 124 0 131 120 0 135 118 0 137 112 0 143 108 0 147 111 0 144 117 0 138 116 0 139 115 0 140 115 0 140 119 0 136 124 0 131 120 0 135 122 0 133 117 0 138 116 0 139 114 0 141 111 0 144 104 0 151 109 0 146 118 0 137 125 0 130 127 0 128 127 0 128 131 0 124 126 0 129 125 0 130 129 0 126 130 0 125 135 0 120 135 0 120 128 0 127 116 0 139 113 0 142 113 0 142 113 0 142 119 0 136 120 0 135 126 0 129 130 0 125 131 0 124 122 0 133 118 0 137 117 0 138 118 0 137 113 0 142 112 0 143 113 0 142 113 0 142 116 0 139 123 0 132 128 0 127 134 0 121 129 0 126 127 0 128 125 0 130 128 0 127 126 0 129 122 0 133 122 0 133 121 0 134 120 0 135 114 0 141 105 0 150 101 0 154 106 0 149 104 0 151 108 0 147 114 0 141 123 0 132 125 0 130 125 0 130 132 0 123 134 0 121 131 0 124 127 0 128 118 0 137 112 0 143 112 0 143 106 0 149 106 0 149 113 0 142 122 0 133 125 0 130 124 0 131 124 0 131 120 0 135 112 0 143 77 0 178 
123 0 132 124 0 131 122 0 133 120 0 135 117 0 138 113 0 142 113 0 142 116 0 139 119 0 136 121 0 134 123 0 132 126 0 129 129 0 126 131 0 124 131 0 124 130 0 125 127 0 128 124 0 131 122 0 133 120 0 135 118 0 137 117 0 138 118 0 137 120 0 135 119 0 136 118 0 137 118 0 137 119 0 136 120 0 135 122 0 133 123 0 132 125 0 130 124 0 131 125 0 130 127 0 128 129 0 126 129 0 126 130 0 125 132 0 123 133 0 122 133 0 122 131 0 124 128 0 127 129 0 126 129 0 126 128 0 127 127 0 128 127 0 128 127 0 128 127 0 128 128 0 127 125 0 130 122 0 133 120 0 135 121 0 134 123 0 132 126 0 129 129 0 126 129 0 126 129 0 126 128 0 127 127 0 128 125 0 130 121 0 134 118 0 137 119 0 136 123 0 132 128 0 127 130 0 125 129 0 126 126 0 129 125 0 130 126 0 129 129 0 126 132 0 123 132 0 123 133 0 122 134 0 121 132 0 123 130 0 125 126 0 129 122 0 133 120 0 135 119 0 136 119 0 136 119 0 136 119 0 136 121 0 134 121 0 134 120 0 135 119 0 136 121 0 134 122 0 133 123 0 132 125 0 130 127 0 128 128 0 127 126 0 129 124 0 131 122 0 133 123 0 132 125 0 130 129 0 126 132 0 123 132 0 123 131 0 124 130 0 125 130 0 125 132 0 123 134 0 121 133 0 122 128 0 127 125 0 130 122 0 133 119 0 136 117 0 138 117 0 138 119 0 136 119 0 136 120 0 135 120 0 135 122 0 133 123 0 132 123 0 132 123 0 132 121 0 134 120 0 135 118 0 137 116 0 139 113 0 142 114 0 141 118 0 137 121 0 134 123 0 132 125 0 130 126 0 129 126 0 129 127 0 128 129 0 126 130 0 125 132 0 123 131 0 124 128 0 127 123 0 132 120 0 135 120 0 135 120 0 135 123 0 132 125 0 130 128 0 127 130 0 125 129 0 126 126 0 129 123 0 132 122 0 133 121 0 134 119 0 136 118 0 137 118 0 137 118 0 137 120 0 135 124 0 131 126 0 129 129 0 126 128 0 127 128 0 127 127 0 128 128 0 127 128 0 127 126 0 129 126 0 129 124 0 131 123 0 132 119 0 136 114 0 141 112 0 143 112 0 143 112 0 143 114 0 141 118 0 137 122 0 133 124 0 131 126 0 129 129 0 126 130 0 125 129 0 126 126 0 129 122 0 133 119 0 136 117 0 138 115 0 140 115 0 140 118 0 137 122 0 133 124 0 131 124 0 131 124 0 131 125 0 130 134 0 121 181 0 74 
114 0 141 118 0 137 120 0 135 119 0 136 118 0 137 116 0 139 116 0 139 117 0 138 119 0 136 121 0 134 123 0 132 125 0 130 126 0 129 127 0 128 128 0 127 127 0 128 125 0 130 124 0 131 122 0 133 121 0 134 120 0 135 120 0 135 120 0 135 120 0 135 120 0 135 120 0 135 121 0 134 121 0 134 122 0 133 123 0 132 124 0 131 125 0 130 125 0 130 126 0 129 127 0 128 128 0 127 128 0 127 129 0 126 130 0 125 131 0 124 132 0 123 131 0 124 129 0 126 129 0 126 129 0 126 128 0 127 127 0 128 127 0 128 127 0 128 127 0 128 126 0 129 125 0 130 123 0 132 122 0 133 123 0 132 124 0 131 125 0 130 127 0 128 127 0 128 127 0 128 126 0 129 125 0 130 123 0 132 121 0 134 120 0 135 120 0 135 122 0 133 125 0 130 127 0 128 127 0 128 127 0 128 127 0 128 128 0 127 129 0 126 130 0 125 131 0 124 131 0 124 131 0 124 130 0 125 129 0 126 126 0 129 124 0 131 123 0 132 123 0 132 124 0 131 124 0 131 125 0 130 125 0 130 125 0 130 124 0 131 123 0 132 123 0 132 123 0 132 124 0 131 125 0 130 126 0 129 126 0 129 126 0 129 125 0 130 125 0 130 126 0 129 127 0 128 129 0 126 131 0 124 131 0 124 131 0 124 131 0 124 131 0 124 132 0 123 133 0 122 132 0 123 130 0 125 128 0 127 126 0 129 124 0 131 122 0 133 122 0 133 122 0 133 122 0 133 122 0 133 123 0 132 123 0 132 124 0 131 124 0 131 124 0 131 123 0 132 122 0 133 121 0 134 119 0 136 118 0 137 118 0 137 119 0 136 120 0 135 122 0 133 123 0 132 125 0 130 126 0 129 127 0 128 129 0 126 130 0 125 131 0 124 131 0 124 129 0 126 127 0 128 125 0 130 124 0 131 125 0 130 126 0 129 127 0 128 129 0 126 130 0 125 130 0 125 129 0 126 127 0 128 126 0 129 124 0 131 123 0 132 122 0 133 121 0 134 121 0 134 122 0 133 124 0 131 126 0 129 127 0 128 127 0 128 128 0 127 128 0 127 129 0 126 129 0 126 129 0 126 129 0 126 128 0 127 126 0 129 124 0 131 121 0 134 119 0 136 118 0 137 118 0 137 119 0 136 121 0 134 123 0 132 124 0 131 126 0 129 127 0 128 128 0 127 128 0 127 127 0 128 125 0 130 123 0 132 122 0 133 121 0 134 121 0 134 122 0 133 123 0 132 124 0 131 124 0 131 124 0 131 122 0 133 116 0 139 87 0 168 
90 0 165 114 0 141 120 0 135 120 0 135 119 0 136 118 0 137 118 0 137 118 0 137 120 0 135 121 0 134 122 0 133 123 0 132 124 0 131 125 0 130 125 0 130 124 0 131 124 0 131 123 0 132 122 0 133 121 0 134 121 0 134 121 0 134 121 0 134 121 0 134 121 0 134 121 0 134 122 0 133 122 0 133 123 0 132 124 0 131 124 0 131 124 0 131 125 0 130 125 0 130 126 0 129 127 0 128 128 0 127 129 0 126 130 0 125 131 0 124 131 0 124 131 0 124 130 0 125 129 0 126 128 0 127 128 0 127 127 0 128 127 0 128 126 0 129 126 0 129 125 0 130 124 0 131 123 0 132 123 0 132 123 0 132 123 0 132 124 0 131 125 0 130 125 0 130 125 0 130 125 0 130 124 0 131 123 0 132 122 0 133 121 0 134 121 0 134 122 0 133 124 0 131 126 0 129 127 0 128 128 0 127 128 0 127 129 0 126 129 0 126 130 0 125 130 0 125 130 0 125 130 0 125 129 0 126 128 0 127 127 0 128 126 0 129 125 0 130 126 0 129 127 0 128 128 0 127 129 0 126 129 0 126 128 0 127 127 0 128 125 0 130 125 0 130 124 0 131 124 0 131 125 0 130 125 0 130 126 0 129 126 0 129 126 0 129 126 0 129 127 0 128 128 0 127 129 0 126 130 0 125 131 0 124 131 0 124 131 0 124 132 0 123 133 0 122 133 0 122 133 0 122 132 0 123 130 0 125 128 0 127 127 0 128 125 0 130 124 0 131 124 0 131 124 0 131 124 0 131 124 0 131 124 0 131 125 0 130 125 0 130 125 0 130 125 0 130 124 0 131 123 0 132 122 0 133 121 0 134 120 0 135 120 0 135 120 0 135 121 0 134 123 0 132 124 0 131 126 0 129 128 0 127 130 0 125 131 0 124 132 0 123 131 0 124 130 0 125 129 0 126 128 0 127 128 0 127 128 0 127 129 0 126 130 0 125 131 0 124 131 0 124 131 0 124 131 0 124 129 0 126 128 0 127 127 0 128 125 0 130 124 0 131 124 0 131 124 0 131 124 0 131 124 0 131 125 0 130 126 0 129 127 0 128 127 0 128 128 0 127 129 0 126 130 0 125 130 0 125 130 0 125 130 0 125 129 0 126 127 0 128 125 0 130 124 0 131 123 0 132 122 0 133 122 0 133 123 0 132 124 0 131 125 0 130 126 0 129 127 0 128 127 0 128 127 0 128 127 0 128 127 0 128 126 0 129 125 0 130 124 0 131 124 0 131 124 0 131 125 0 130 125 0 130 125 0 130 124 0 131 122 0 133 122 0 133 130 0 125 
145 0 110 129 0 126 125 0 130 122 0 133 121 0 134 120 0 135 119 0 136 119 0 136 120 0 135 121 0 134 121 0 134 122 0 133 122 0 133 122 0 133 122 0 133 122 0 133 122 0 133 122 0 133 122 0 133 122 0 133 121 0 134 121 0 134 121 0 134 122 0 133 122 0 133 122 0 133 122 0 133 123 0 132 123 0 132 123 0 132 123 0 132 124 0 131 124 0 131 124 0 131 125 0 130 126 0 129 128 0 127 129 0 126 130 0 125 131 0 124 131 0 124 131 0 124 130 0 125 129 0 126 128 0 127 127 0 128 126 0 129 126 0 129 126 0 129 125 0 130 125 0 130 124 0 131 123 0 132 123 0 132 122 0 133 123 0 132 123 0 132 124 0 131 124 0 131 124 0 131 124 0 131 124 0 131 123 0 132 122 0 133 122 0 133 122 0 133 123 0 132 124 0 131 126 0 129 127 0 128 128 0 127 129 0 126 129 0 126 130 0 125 130 0 125 130 0 125 130 0 125 129 0 126 129 0 126 128 0 127 127 0 128 127 0 128 127 0 128 128 0 127 129 0 126 130 0 125 131 0 124 131 0 124 130 0 125 129 0 126 127 0 128 126 0 129 126 0 129 125 0 130 125 0 130 126 0 129 126 0 129 126 0 129 127 0 128 127 0 128 128 0 127 129 0 126 130 0 125 130 0 125 131 0 124 131 0 124 132 0 123 132 0 123 133 0 122 133 0 122 133 0 122 132 0 123 131 0 124 130 0 125 128 0 127 127 0 128 126 0 129 125 0 130 125 0 130 125 0 130 125 0 130 125 0 130 125 0 130 125 0 130 125 0 130 125 0 130 125 0 130 125 0 130 124 0 131 123 0 132 122 0 133 121 0 134 121 0 134 122 0 133 123 0 132 125 0 130 127 0 128 129 0 126 130 0 125 132 0 123 132 0 123 132 0 123 132 0 123 131 0 124 130 0 125 130 0 125 130 0 125 130 0 125 131 0 124 132 0 123 132 0 123 132 0 123 132 0 123 131 0 124 130 0 125 128 0 127 127 0 128 126 0 129 125 0 130 125 0 130 125 0 130 125 0 130 125 0 130 125 0 130 126 0 129 127 0 128 127 0 128 129 0 126 130 0 125 131 0 124 131 0 124 131 0 124 131 0 124 130 0 125 128 0 127 127 0 128 126 0 129 125 0 130 125 0 130 124 0 131 125 0 130 125 0 130 126 0 129 126 0 129 127 0 128 127 0 128 128 0 127 128 0 127 128 0 127 127 0 128 126 0 129 126 0 129 126 0 129 126 0 129 125 0 130 125 0 130 124 0 131 122 0 133 118 0 137 108 0 147 
144 0 111 133 0 122 127 0 128 125 0 130 123 0 132 122 0 133 121 0 134 121 0 134 121 0 134 121 0 134 121 0 134 121 0 134 121 0 134 121 0 134 121 0 134 121 0 134 121 0 134 121 0 134 121 0 134 121 0 134 122 0 133 122 0 133 122 0 133 122 0 133 122 0 133 122 0 133 122 0 133 122 0 133 122 0 133 123 0 132 123 0 132 123 0 132 123 0 132 124 0 131 125 0 130 126 0 129 128 0 127 129 0 126 131 0 124 131 0 124 132 0 123 131 0 124 130 0 125 129 0 126 128 0 127 126 0 129 126 0 129 125 0 130 125 0 130 124 0 131 124 0 131 123 0 132 122 0 133 122 0 133 122 0 133 122 0 133 122 0 133 123 0 132 123 0 132 123 0 132 123 0 132 123 0 132 123 0 132 123 0 132 123 0 132 123 0 132 123 0 132 124 0 131 126 0 129 127 0 128 129 0 126 130 0 125 130 0 125 130 0 125 130 0 125 130 0 125 129 0 126 129 0 126 128 0 127 128 0 127 127 0 128 127 0 128 128 0 127 129 0 126 130 0 125 132 0 123 132 0 123 132 0 123 131 0 124 130 0 125 128 0 127 127 0 128 127 0 128 126 0 129 126 0 129 126 0 129 126 0 129 127 0 128 127 0 128 128 0 127 129 0 126 129 0 126 130 0 125 130 0 125 131 0 124 131 0 124 131 0 124 132 0 123 132 0 123 132 0 123 132 0 123 132 0 123 131 0 124 129 0 126 128 0 127 127 0 128 126 0 129 125 0 130 125 0 130 125 0 130 125 0 130 125 0 130 125 0 130 125 0 130 125 0 130 126 0 129 126 0 129 126 0 129 126 0 129 124 0 131 123 0 132 122 0 133 122 0 133 122 0 133 124 0 131 125 0 130 127 0 128 129 0 126 131 0 124 132 0 123 133 0 122 133 0 122 133 0 122 132 0 123 132 0 123 131 0 124 131 0 124 132 0 123 132 0 123 133 0 122 133 0 122 133 0 122 132 0 123 131 0 124 130 0 125 129 0 126 128 0 127 127 0 128 126 0 129 126 0 129 125 0 130 125 0 130 125 0 130 125 0 130 125 0 130 126 0 129 127 0 128 128 0 127 129 0 126 130 0 125 131 0 124 132 0 123 132 0 123 131 0 124 130 0 125 129 0 126 128 0 127 127 0 128 126 0 129 126 0 129 126 0 129 126 0 129 126 0 129 126 0 129 127 0 128 128 0 127 128 0 127 128 0 127 128 0 127 128 0 127 127 0 128 127 0 128 126 0 129 126 0 129 125 0 130 125 0 130 124 0 131 122 0 133 120 0 135 113 0 142 
154 0 101 131 0 124 128 0 127 126 0 129 125 0 130 124 0 131 123 0 132 122 0 133 122 0 133 121 0 134 121 0 134 120 0 135 120 0 135 120 0 135 120 0 135 120 0 135 120 0 135 120 0 135 121 0 134 121 0 134 122 0 133 122 0 133 122 0 133 122 0 133 122 0 133 121 0 134 121 0 134 121 0 134 122 0 133 122 0 133 122 0 133 123 0 132 123 0 132 124 0 131 125 0 130 126 0 129 128 0 127 129 0 126 131 0 124 132 0 123 132 0 123 131 0 124 130 0 125 129 0 126 127 0 128 126 0 129 125 0 130 124 0 131 124 0 131 123 0 132 123 0 132 122 0 133 122 0 133 122 0 133 122 0 133 122 0 133 122 0 133 123 0 132 123 0 132 123 0 132 123 0 132 123 0 132 123 0 132 123 0 132 123 0 132 123 0 132 124 0 131 125 0 130 126 0 129 128 0 127 129 0 126 130 0 125 130 0 125 130 0 125 130 0 125 130 0 125 129 0 126 129 0 126 128 0 127 127 0 128 127 0 128 127 0 128 128 0 127 129 0 126 131 0 124 132 0 123 133 0 122 133 0 122 132 0 123 130 0 125 129 0 126 128 0 127 128 0 127 127 0 128 127 0 128 127 0 128 127 0 128 127 0 128 127 0 128 128 0 127 129 0 126 129 0 126 130 0 125 130 0 125 130 0 125 131 0 124 131 0 124 131 0 124 131 0 124 131 0 124 131 0 124 130 0 125 129 0 126 128 0 127 127 0 128 126 0 129 126 0 129 125 0 130 125 0 130 125 0 130 125 0 130 125 0 130 125 0 130 125 0 130 126 0 129 127 0 128 127 0 128 127 0 128 127 0 128 126 0 129 125 0 130 124 0 131 123 0 132 124 0 131 124 0 131 126 0 129 128 0 127 130 0 125 132 0 123 133 0 122 134 0 121 134 0 121 133 0 122 133 0 122 132 0 123 132 0 123 132 0 123 133 0 122 133 0 122 133 0 122 133 0 122 133 0 122 132 0 123 131 0 124 130 0 125 129 0 126 128 0 127 127 0 128 126 0 129 126 0 129 125 0 130 125 0 130 124 0 131 124 0 131 124 0 131 125 0 130 126 0 129 127 0 128 128 0 127 129 0 126 130 0 125 131 0 124 132 0 123 131 0 124 131 0 124 130 0 125 130 0 125 129 0 126 128 0 127 127 0 128 127 0 128 127 0 128 127 0 128 127 0 128 127 0 128 128 0 127 128 0 127 128 0 127 128 0 127 128 0 127 127 0 128 126 0 129 126 0 129 125 0 130 125 0 130 124 0 131 123 0 132 123 0 132 127 0 128 156 0 99 
45 0 210 111 0 144 126 0 129 128 0 127 127 0 128 126 0 129 125 0 130 124 0 131 123 0 132 122 0 133 121 0 134 120 0 135 120 0 135 120 0 135 119 0 136 120 0 135 120 0 135 120 0 135 121 0 134 121 0 134 122 0 133 122 0 133 122 0 133 122 0 133 121 0 134 121 0 134 121 0 134 121 0 134 121 0 134 121 0 134 122 0 133 123 0 132 123 0 132 124 0 131 125 0 130 127 0 128 128 0 127 130 0 125 131 0 124 131 0 124 131 0 124 131 0 124 130 0 125 128 0 127 126 0 129 125 0 130 124 0 131 123 0 132 123 0 132 122 0 133 122 0 133 122 0 133 122 0 133 122 0 133 123 0 132 123 0 132 123 0 132 123 0 132 124 0 131 124 0 131 124 0 131 124 0 131 124 0 131 124 0 131 124 0 131 124 0 131 124 0 131 125 0 130 126 0 129 128 0 127 129 0 126 130 0 125 130 0 125 130 0 125 130 0 125 129 0 126 129 0 126 128 0 127 127 0 128 127 0 128 127 0 128 127 0 128 128 0 127 129 0 126 130 0 125 132 0 123 132 0 123 132 0 123 132 0 123 131 0 124 130 0 125 129 0 126 128 0 127 128 0 127 127 0 128 127 0 128 127 0 128 127 0 128 128 0 127 128 0 127 129 0 126 129 0 126 130 0 125 130 0 125 130 0 125 130 0 125 129 0 126 129 0 126 129 0 126 129 0 126 129 0 126 129 0 126 128 0 127 127 0 128 126 0 129 125 0 130 125 0 130 124 0 131 124 0 131 124 0 131 124 0 131 125 0 130 125 0 130 126 0 129 127 0 128 128 0 127 128 0 127 129 0 126 129 0 126 128 0 127 127 0 128 126 0 129 125 0 130 125 0 130 125 0 130 127 0 128 128 0 127 130 0 125 132 0 123 133 0 122 134 0 121 134 0 121 134 0 121 133 0 122 133 0 122 133 0 122 133 0 122 133 0 122 133 0 122 133 0 122 133 0 122 132 0 123 131 0 124 130 0 125 129 0 126 128 0 127 127 0 128 126 0 129 126 0 129 125 0 130 125 0 130 124 0 131 124 0 131 124 0 131 124 0 131 124 0 131 125 0 130 126 0 129 127 0 128 128 0 127 129 0 126 130 0 125 131 0 124 131 0 124 131 0 124 131 0 124 130 0 125 130 0 125 129 0 126 129 0 126 128 0 127 128 0 127 127 0 128 127 0 128 128 0 127 128 0 127 128 0 127 128 0 127 128 0 127 128 0 127 127 0 128 126 0 129 125 0 130 124 0 131 124 0 131 123 0 132 122 0 133 119 0 136 110 0 145 71 0 184 
152 0 103 142 0 113 137 0 118 133 0 122 131 0 124 129 0 126 127 0 128 125 0 130 124 0 131 123 0 132 122 0 133 121 0 134 121 0 134 120 0 135 120 0 135 120 0 135 120 0 135 121 0 134 121 0 134 122 0 133 122 0 133 122 0 133 122 0 133 121 0 134 121 0 134 121 0 134 120 0 135 120 0 135 121 0 134 121 0 134 122 0 133 123 0 132 124 0 131 125 0 130 126 0 129 127 0 128 129 0 126 130 0 125 131 0 124 131 0 124 131 0 124 130 0 125 129 0 126 128 0 127 126 0 129 125 0 130 124 0 131 123 0 132 122 0 133 122 0 133 122 0 133 122 0 133 123 0 132 123 0 132 124 0 131 124 0 131 125 0 130 125 0 130 125 0 130 125 0 130 124 0 131 124 0 131 124 0 131 124 0 131 124 0 131 124 0 131 124 0 131 125 0 130 127 0 128 128 0 127 129 0 126 130 0 125 130 0 125 130 0 125 130 0 125 129 0 126 128 0 127 127 0 128 127 0 128 126 0 129 126 0 129 127 0 128 127 0 128 128 0 127 130 0 125 131 0 124 131 0 124 131 0 124 131 0 124 130 0 125 130 0 125 129 0 126 128 0 127 128 0 127 128 0 127 128 0 127 128 0 127 128 0 127 128 0 127 128 0 127 129 0 126 129 0 126 130 0 125 130 0 125 129 0 126 129 0 126 128 0 127 128 0 127 128 0 127 128 0 127 127 0 128 127 0 128 126 0 129 126 0 129 125 0 130 125 0 130 124 0 131 124 0 131 124 0 131 124 0 131 124 0 131 125 0 130 125 0 130 126 0 129 127 0 128 129 0 126 130 0 125 130 0 125 130 0 125 129 0 126 128 0 127 127 0 128 126 0 129 126 0 129 126 0 129 127 0 128 129 0 126 130 0 125 132 0 123 133 0 122 133 0 122 134 0 121 133 0 122 133 0 122 133 0 122 133 0 122 133 0 122 133 0 122 133 0 122 133 0 122 132 0 123 131 0 124 130 0 125 129 0 126 128 0 127 127 0 128 126 0 129 125 0 130 125 0 130 124 0 131 124 0 131 123 0 132 123 0 132 123 0 132 123 0 132 123 0 132 124 0 131 125 0 130 126 0 129 128 0 127 129 0 126 130 0 125 131 0 124 131 0 124 132 0 123 131 0 124 131 0 124 131 0 124 130 0 125 130 0 125 129 0 126 128 0 127 128 0 127 128 0 127 128 0 127 128 0 127 128 0 127 128 0 127 128 0 127 127 0 128 126 0 129 125 0 130 124 0 131 123 0 132 123 0 132 122 0 133 121 0 134 120 0 135 122 0 133 140 0 115 
222 0 33 168 0 87 147 0 108 138 0 117 134 0 121 131 0 124 128 0 127 127 0 128 125 0 130 124 0 131 123 0 132 122 0 133 122 0 133 121 0 134 121 0 134 121 0 134 121 0 134 122 0 133 122 0 133 122 0 133 122 0 133 122 0 133 122 0 133 122 0 133 121 0 134 121 0 134 120 0 135 120 0 135 121 0 134 121 0 134 123 0 132 124 0 131 125 0 130 126 0 129 127 0 128 128 0 127 129 0 126 130 0 125 131 0 124 131 0 124 131 0 124 130 0 125 129 0 126 127 0 128 126 0 129 125 0 130 124 0 131 123 0 132 122 0 133 122 0 133 122 0 133 123 0 132 124 0 131 125 0 130 125 0 130 126 0 129 127 0 128 127 0 128 126 0 129 126 0 129 125 0 130 125 0 130 124 0 131 124 0 131 124 0 131 124 0 131 125 0 130 125 0 130 127 0 128 128 0 127 129 0 126 130 0 125 130 0 125 130 0 125 129 0 126 128 0 127 128 0 127 127 0 128 126 0 129 126 0 129 126 0 129 126 0 129 127 0 128 128 0 127 128 0 127 129 0 126 130 0 125 130 0 125 130 0 125 129 0 126 129 0 126 129 0 126 128 0 127 128 0 127 128 0 127 128 0 127 128 0 127 128 0 127 128 0 127 129 0 126 129 0 126 130 0 125 130 0 125 129 0 126 128 0 127 128 0 127 127 0 128 126 0 129 126 0 129 126 0 129 126 0 129 126 0 129 125 0 130 125 0 130 124 0 131 124 0 131 124 0 131 124 0 131 124 0 131 124 0 131 124 0 131 125 0 130 126 0 129 127 0 128 128 0 127 129 0 126 130 0 125 131 0 124 131 0 124 131 0 124 129 0 126 128 0 127 127 0 128 127 0 128 127 0 128 127 0 128 128 0 127 130 0 125 131 0 124 132 0 123 133 0 122 133 0 122 133 0 122 133 0 122 133 0 122 133 0 122 134 0 121 134 0 121 133 0 122 133 0 122 132 0 123 131 0 124 129 0 126 128 0 127 126 0 129 125 0 130 124 0 131 124 0 131 123 0 132 123 0 132 123 0 132 123 0 132 123 0 132 123 0 132 123 0 132 124 0 131 124 0 131 125 0 130 126 0 129 128 0 127 129 0 126 130 0 125 131 0 124 132 0 123 132 0 123 132 0 123 132 0 123 131 0 124 131 0 124 130 0 125 130 0 125 129 0 126 129 0 126 128 0 127 129 0 126 129 0 126 129 0 126 128 0 127 128 0 127 127 0 128 125 0 130 124 0 131 123 0 132 122 0 133 122 0 133 121 0 134 121 0 134 119 0 136 117 0 138 106 0 149 
199 0 56 160 0 95 145 0 110 138 0 117 134 0 121 132 0 123 129 0 126 127 0 128 126 0 129 124 0 131 124 0 131 123 0 132 123 0 132 123 0 132 123 0 132 123 0 132 123 0 132 123 0 132 123 0 132 123 0 132 123 0 132 123 0 132 122 0 133 122 0 133 121 0 134 121 0 134 121 0 134 121 0 134 121 0 134 122 0 133 123 0 132 125 0 130 126 0 129 128 0 127 129 0 126 129 0 126 130 0 125 131 0 124 131 0 124 131 0 124 131 0 124 130 0 125 129 0 126 128 0 127 126 0 129 125 0 130 124 0 131 123 0 132 122 0 133 122 0 133 123 0 132 123 0 132 124 0 131 126 0 129 127 0 128 128 0 127 128 0 127 128 0 127 128 0 127 127 0 128 126 0 129 125 0 130 124 0 131 124 0 131 124 0 131 124 0 131 124 0 131 125 0 130 126 0 129 127 0 128 129 0 126 129 0 126 130 0 125 129 0 126 129 0 126 128 0 127 127 0 128 126 0 129 125 0 130 125 0 130 125 0 130 126 0 129 126 0 129 127 0 128 127 0 128 128 0 127 128 0 127 128 0 127 128 0 127 129 0 126 129 0 126 129 0 126 128 0 127 128 0 127 128 0 127 128 0 127 129 0 126 129 0 126 129 0 126 130 0 125 130 0 125 130 0 125 130 0 125 129 0 126 128 0 127 127 0 128 126 0 129 125 0 130 125 0 130 125 0 130 126 0 129 126 0 129 125 0 130 125 0 130 125 0 130 124 0 131 124 0 131 124 0 131 123 0 132 124 0 131 124 0 131 125 0 130 126 0 129 127 0 128 128 0 127 130 0 125 131 0 124 131 0 124 132 0 123 131 0 124 130 0 125 129 0 126 128 0 127 127 0 128 127 0 128 127 0 128 128 0 127 129 0 126 130 0 125 131 0 124 132 0 123 132 0 123 133 0 122 133 0 122 133 0 122 133 0 122 134 0 121 134 0 121 133 0 122 133 0 122 132 0 123 130 0 125 128 0 127 127 0 128 125 0 130 124 0 131 123 0 132 122 0 133 122 0 133 122 0 133 122 0 133 123 0 132 123 0 132 123 0 132 124 0 131 124 0 131 125 0 130 126 0 129 127 0 128 128 0 127 130 0 125 131 0 124 132 0 123 132 0 123 132 0 123 132 0 123 132 0 123 132 0 123 131 0 124 130 0 125 130 0 125 129 0 126 129 0 126 129 0 126 129 0 126 129 0 126 129 0 126 129 0 126 128 0 127 126 0 129 125 0 130 124 0 131 123 0 132 122 0 133 121 0 134 121 0 134 120 0 135 120 0 135 121 0 134 136 0 119 
93 0 162 129 0 126 136 0 119 136 0 119 134 0 121 132 0 123 129 0 126 127 0 128 126 0 129 125 0 130 124 0 131 124 0 131 124 0 131 124 0 131 124 0 131 124 0 131 124 0 131 124 0 131 123 0 132 123 0 132 123 0 132 123 0 132 123 0 132 122 0 133 122 0 133 121 0 134 121 0 134 121 0 134 122 0 133 123 0 132 125 0 130 126 0 129 128 0 127 129 0 126 130 0 125 131 0 124 131 0 124 132 0 123 132 0 123 132 0 123 132 0 123 131 0 124 130 0 125 129 0 126 127 0 128 126 0 129 125 0 130 124 0 131 123 0 132 123 0 132 123 0 132 124 0 131 125 0 130 126 0 129 128 0 127 129 0 126 129 0 126 129 0 126 129 0 126 128 0 127 127 0 128 125 0 130 124 0 131 123 0 132 123 0 132 123 0 132 124 0 131 124 0 131 125 0 130 127 0 128 128 0 127 129 0 126 129 0 126 129 0 126 128 0 127 127 0 128 126 0 129 125 0 130 125 0 130 124 0 131 125 0 130 125 0 130 125 0 130 126 0 129 126 0 129 126 0 129 126 0 129 127 0 128 127 0 128 127 0 128 128 0 127 128 0 127 129 0 126 129 0 126 129 0 126 129 0 126 129 0 126 130 0 125 130 0 125 130 0 125 130 0 125 130 0 125 130 0 125 129 0 126 127 0 128 126 0 129 125 0 130 125 0 130 125 0 130 125 0 130 126 0 129 126 0 129 126 0 129 126 0 129 125 0 130 125 0 130 124 0 131 124 0 131 124 0 131 124 0 131 124 0 131 125 0 130 126 0 129 127 0 128 128 0 127 129 0 126 130 0 125 131 0 124 131 0 124 131 0 124 130 0 125 129 0 126 129 0 126 128 0 127 127 0 128 127 0 128 128 0 127 128 0 127 129 0 126 130 0 125 131 0 124 131 0 124 132 0 123 132 0 123 133 0 122 133 0 122 134 0 121 134 0 121 133 0 122 133 0 122 132 0 123 130 0 125 128 0 127 126 0 129 124 0 131 123 0 132 122 0 133 122 0 133 122 0 133 122 0 133 122 0 133 123 0 132 123 0 132 124 0 131 125 0 130 125 0 130 126 0 129 127 0 128 128 0 127 130 0 125 131 0 124 132 0 123 132 0 123 133 0 122 133 0 122 133 0 122 132 0 123 132 0 123 131 0 124 130 0 125 130 0 125 129 0 126 129 0 126 129 0 126 129 0 126 129 0 126 129 0 126 128 0 127 127 0 128 126 0 129 125 0 130 123 0 132 122 0 133 122 0 133 121 0 134 121 0 134 121 0 134 119 0 136 111 0 144 67 0 188 
106 0 149 126 0 129 133 0 122 134 0 121 133 0 122 131 0 124 129 0 126 127 0 128 126 0 129 125 0 130 125 0 130 125 0 130 125 0 130 125 0 130 125 0 130 125 0 130 125 0 130 124 0 131 124 0 131 124 0 131 124 0 131 124 0 131 123 0 132 123 0 132 122 0 133 122 0 133 121 0 134 122 0 133 122 0 133 124 0 131 125 0 130 127 0 128 129 0 126 130 0 125 131 0 124 132 0 123 133 0 122 133 0 122 133 0 122 133 0 122 133 0 122 132 0 123 131 0 124 130 0 125 129 0 126 127 0 128 126 0 129 125 0 130 124 0 131 124 0 131 124 0 131 125 0 130 126 0 129 127 0 128 128 0 127 129 0 126 130 0 125 130 0 125 129 0 126 128 0 127 126 0 129 125 0 130 124 0 131 123 0 132 122 0 133 122 0 133 123 0 132 123 0 132 124 0 131 125 0 130 127 0 128 127 0 128 128 0 127 128 0 127 127 0 128 126 0 129 125 0 130 124 0 131 124 0 131 124 0 131 124 0 131 124 0 131 124 0 131 124 0 131 124 0 131 124 0 131 125 0 130 125 0 130 126 0 129 126 0 129 127 0 128 128 0 127 129 0 126 129 0 126 129 0 126 130 0 125 130 0 125 131 0 124 131 0 124 131 0 124 131 0 124 131 0 124 130 0 125 129 0 126 127 0 128 126 0 129 125 0 130 125 0 130 125 0 130 126 0 129 127 0 128 127 0 128 128 0 127 127 0 128 127 0 128 126 0 129 125 0 130 124 0 131 124 0 131 124 0 131 124 0 131 124 0 131 125 0 130 126 0 129 128 0 127 129 0 126 130 0 125 130 0 125 131 0 124 130 0 125 130 0 125 129 0 126 128 0 127 128 0 127 127 0 128 127 0 128 127 0 128 128 0 127 128 0 127 129 0 126 130 0 125 130 0 125 131 0 124 131 0 124 132 0 123 133 0 122 133 0 122 133 0 122 133 0 122 133 0 122 132 0 123 130 0 125 129 0 126 127 0 128 125 0 130 124 0 131 123 0 132 122 0 133 122 0 133 123 0 132 123 0 132 124 0 131 125 0 130 125 0 130 126 0 129 127 0 128 127 0 128 129 0 126 130 0 125 131 0 124 132 0 123 133 0 122 133 0 122 133 0 122 133 0 122 133 0 122 132 0 123 131 0 124 131 0 124 130 0 125 129 0 126 129 0 126 129 0 126 129 0 126 129 0 126 129 0 126 129 0 126 128 0 127 127 0 128 126 0 129 124 0 131 123 0 132 122 0 133 121 0 134 121 0 134 122 0 133 123 0 132 125 0 130 136 0 119 192 0 63 
142 0 113 138 0 117 137 0 118 135 0 120 132 0 123 130 0 125 128 0 127 126 0 129 125 0 130 124 0 131 124 0 131 125 0 130 126 0 129 126 0 129 127 0 128 126 0 129 126 0 129 125 0 130 124 0 131 124 0 131 124 0 131 124 0 131 124 0 131 123 0 132 123 0 132 122 0 133 122 0 133 122 0 133 123 0 132 124 0 131 126 0 129 128 0 127 130 0 125 131 0 124 132 0 123 133 0 122 134 0 121 134 0 121 134 0 121 134 0 121 134 0 121 133 0 122 133 0 122 131 0 124 130 0 125 129 0 126 127 0 128 126 0 129 125 0 130 125 0 130 125 0 130 126 0 129 127 0 128 128 0 127 128 0 127 129 0 126 129 0 126 129 0 126 128 0 127 127 0 128 126 0 129 124 0 131 123 0 132 122 0 133 122 0 133 121 0 134 122 0 133 122 0 133 123 0 132 124 0 131 125 0 130 126 0 129 126 0 129 126 0 129 126 0 129 125 0 130 124 0 131 123 0 132 123 0 132 123 0 132 123 0 132 123 0 132 123 0 132 123 0 132 123 0 132 123 0 132 123 0 132 124 0 131 124 0 131 126 0 129 127 0 128 128 0 127 129 0 126 129 0 126 130 0 125 131 0 124 131 0 124 132 0 123 132 0 123 132 0 123 132 0 123 131 0 124 130 0 125 129 0 126 127 0 128 126 0 129 125 0 130 125 0 130 126 0 129 127 0 128 128 0 127 129 0 126 129 0 126 129 0 126 129 0 126 128 0 127 126 0 129 125 0 130 124 0 131 124 0 131 124 0 131 124 0 131 125 0 130 126 0 129 127 0 128 128 0 127 129 0 126 129 0 126 129 0 126 129 0 126 129 0 126 129 0 126 128 0 127 127 0 128 127 0 128 127 0 128 127 0 128 127 0 128 128 0 127 128 0 127 129 0 126 129 0 126 129 0 126 130 0 125 131 0 124 131 0 124 132 0 123 133 0 122 133 0 122 133 0 122 132 0 123 131 0 124 130 0 125 128 0 127 126 0 129 125 0 130 124 0 131 124 0 131 124 0 131 124 0 131 125 0 130 125 0 130 126 0 129 126 0 129 127 0 128 128 0 127 129 0 126 130 0 125 131 0 124 132 0 123 133 0 122 134 0 121 134 0 121 134 0 121 133 0 122 132 0 123 132 0 123 131 0 124 130 0 125 130 0 125 129 0 126 129 0 126 129 0 126 129 0 126 129 0 126 129 0 126 128 0 127 127 0 128 126 0 129 124 0 131 123 0 132 122 0 133 121 0 134 121 0 134 122 0 133 122 0 133 123 0 132 123 0 132 115 0 140 73 0 182 
139 0 116 146 0 109 141 0 114 136 0 119 132 0 123 129 0 126 127 0 128 125 0 130 124 0 131 124 0 131 124 0 131 125 0 130 126 0 129 127 0 128 127 0 128 127 0 128 126 0 129 125 0 130 125 0 130 124 0 131 124 0 131 124 0 131 124 0 131 123 0 132 123 0 132 122 0 133 122 0 133 122 0 133 123 0 132 125 0 130 127 0 128 128 0 127 130 0 125 132 0 123 133 0 122 134 0 121 134 0 121 135 0 120 135 0 120 135 0 120 135 0 120 135 0 120 134 0 121 132 0 123 131 0 124 129 0 126 128 0 127 127 0 128 126 0 129 126 0 129 126 0 129 127 0 128 127 0 128 128 0 127 128 0 127 128 0 127 128 0 127 128 0 127 127 0 128 126 0 129 125 0 130 123 0 132 122 0 133 121 0 134 121 0 134 120 0 135 121 0 134 121 0 134 122 0 133 123 0 132 123 0 132 124 0 131 125 0 130 125 0 130 124 0 131 124 0 131 123 0 132 122 0 133 122 0 133 122 0 133 122 0 133 122 0 133 122 0 133 122 0 133 122 0 133 121 0 134 122 0 133 122 0 133 123 0 132 125 0 130 126 0 129 128 0 127 129 0 126 130 0 125 131 0 124 131 0 124 132 0 123 133 0 122 133 0 122 133 0 122 132 0 123 131 0 124 130 0 125 129 0 126 127 0 128 126 0 129 125 0 130 126 0 129 127 0 128 128 0 127 129 0 126 130 0 125 131 0 124 131 0 124 131 0 124 129 0 126 128 0 127 126 0 129 125 0 130 124 0 131 124 0 131 124 0 131 125 0 130 126 0 129 127 0 128 127 0 128 128 0 127 128 0 127 128 0 127 128 0 127 128 0 127 128 0 127 127 0 128 127 0 128 126 0 129 126 0 129 126 0 129 127 0 128 127 0 128 127 0 128 127 0 128 127 0 128 128 0 127 128 0 127 129 0 126 130 0 125 131 0 124 132 0 123 132 0 123 133 0 122 132 0 123 132 0 123 131 0 124 129 0 126 128 0 127 127 0 128 126 0 129 126 0 129 126 0 129 126 0 129 126 0 129 127 0 128 127 0 128 127 0 128 128 0 127 129 0 126 129 0 126 130 0 125 132 0 123 133 0 122 134 0 121 134 0 121 134 0 121 134 0 121 133 0 122 132 0 123 131 0 124 130 0 125 130 0 125 129 0 126 129 0 126 129 0 126 129 0 126 129 0 126 129 0 126 128 0 127 127 0 128 126 0 129 124 0 131 123 0 132 122 0 133 121 0 134 121 0 134 121 0 134 122 0 133 124 0 131 126 0 129 129 0 126 130 0 125 119 0 136 
206 0 49 166 0 89 148 0 107 138 0 117 132 0 123 128 0 127 125 0 130 124 0 131 123 0 132 123 0 132 124 0 131 125 0 130 126 0 129 127 0 128 128 0 127 128 0 127 127 0 128 126 0 129 125 0 130 125 0 130 124 0 131 124 0 131 124 0 131 124 0 131 123 0 132 122 0 133 122 0 133 123 0 132 123 0 132 125 0 130 127 0 128 129 0 126 130 0 125 132 0 123 133 0 122 134 0 121 134 0 121 135 0 120 135 0 120 136 0 119 136 0 119 135 0 120 134 0 121 133 0 122 131 0 124 130 0 125 128 0 127 127 0 128 127 0 128 127 0 128 127 0 128 128 0 127 128 0 127 128 0 127 128 0 127 128 0 127 127 0 128 126 0 129 125 0 130 124 0 131 124 0 131 123 0 132 122 0 133 121 0 134 120 0 135 120 0 135 120 0 135 120 0 135 120 0 135 121 0 134 122 0 133 123 0 132 123 0 132 123 0 132 123 0 132 122 0 133 122 0 133 122 0 133 122 0 133 122 0 133 122 0 133 122 0 133 122 0 133 121 0 134 121 0 134 121 0 134 121 0 134 121 0 134 122 0 133 124 0 131 126 0 129 127 0 128 129 0 126 130 0 125 131 0 124 132 0 123 133 0 122 133 0 122 134 0 121 133 0 122 133 0 122 131 0 124 130 0 125 128 0 127 127 0 128 126 0 129 125 0 130 126 0 129 127 0 128 129 0 126 130 0 125 132 0 123 133 0 122 133 0 122 132 0 123 131 0 124 130 0 125 128 0 127 126 0 129 125 0 130 125 0 130 125 0 130 126 0 129 126 0 129 127 0 128 127 0 128 127 0 128 127 0 128 127 0 128 127 0 128 127 0 128 127 0 128 127 0 128 126 0 129 126 0 129 126 0 129 126 0 129 126 0 129 126 0 129 126 0 129 126 0 129 126 0 129 126 0 129 126 0 129 127 0 128 128 0 127 129 0 126 130 0 125 131 0 124 132 0 123 132 0 123 132 0 123 132 0 123 131 0 124 130 0 125 129 0 126 128 0 127 127 0 128 127 0 128 127 0 128 127 0 128 127 0 128 128 0 127 128 0 127 129 0 126 129 0 126 130 0 125 131 0 124 132 0 123 133 0 122 134 0 121 134 0 121 134 0 121 133 0 122 133 0 122 132 0 123 131 0 124 130 0 125 129 0 126 129 0 126 129 0 126 129 0 126 129 0 126 129 0 126 129 0 126 128 0 127 126 0 129 125 0 130 123 0 132 121 0 134 120 0 135 120 0 135 120 0 135 121 0 134 123 0 132 126 0 129 130 0 125 138 0 117 156 0 99 211 0 44 
194 0 61 164 0 91 147 0 108 137 0 118 131 0 124 127 0 128 125 0 130 123 0 132 122 0 133 122 0 133 123 0 132 125 0 130 126 0 129 128 0 127 129 0 126 129 0 126 128 0 127 127 0 128 126 0 129 125 0 130 125 0 130 124 0 131 124 0 131 124 0 131 123 0 132 123 0 132 123 0 132 123 0 132 124 0 131 125 0 130 127 0 128 129 0 126 130 0 125 131 0 124 132 0 123 133 0 122 134 0 121 134 0 121 135 0 120 135 0 120 135 0 120 135 0 120 134 0 121 132 0 123 131 0 124 129 0 126 128 0 127 127 0 128 127 0 128 127 0 128 127 0 128 128 0 127 128 0 127 128 0 127 127 0 128 127 0 128 126 0 129 125 0 130 124 0 131 123 0 132 122 0 133 122 0 133 121 0 134 120 0 135 120 0 135 119 0 136 119 0 136 119 0 136 119 0 136 120 0 135 121 0 134 121 0 134 122 0 133 122 0 133 122 0 133 122 0 133 121 0 134 121 0 134 122 0 133 122 0 133 122 0 133 122 0 133 122 0 133 121 0 134 121 0 134 120 0 135 120 0 135 121 0 134 122 0 133 123 0 132 125 0 130 127 0 128 129 0 126 130 0 125 131 0 124 133 0 122 133 0 122 134 0 121 134 0 121 134 0 121 133 0 122 131 0 124 129 0 126 128 0 127 126 0 129 125 0 130 125 0 130 126 0 129 127 0 128 129 0 126 131 0 124 133 0 122 134 0 121 134 0 121 134 0 121 133 0 122 131 0 124 130 0 125 128 0 127 127 0 128 126 0 129 126 0 129 127 0 128 127 0 128 127 0 128 128 0 127 127 0 128 127 0 128 127 0 128 127 0 128 127 0 128 126 0 129 126 0 129 126 0 129 126 0 129 126 0 129 126 0 129 126 0 129 126 0 129 126 0 129 125 0 130 125 0 130 124 0 131 124 0 131 125 0 130 126 0 129 127 0 128 129 0 126 130 0 125 131 0 124 132 0 123 132 0 123 132 0 123 132 0 123 131 0 124 130 0 125 129 0 126 128 0 127 128 0 127 128 0 127 128 0 127 128 0 127 128 0 127 128 0 127 129 0 126 129 0 126 130 0 125 131 0 124 132 0 123 133 0 122 133 0 122 133 0 122 133 0 122 133 0 122 132 0 123 131 0 124 130 0 125 130 0 125 129 0 126 129 0 126 129 0 126 129 0 126 130 0 125 130 0 125 129 0 126 127 0 128 125 0 130 123 0 132 121 0 134 120 0 135 119 0 136 119 0 136 120 0 135 121 0 134 123 0 132 127 0 128 132 0 123 139 0 116 147 0 108 141 0 114 
171 0 84 149 0 106 140 0 115 134 0 121 129 0 126 126 0 129 124 0 131 123 0 132 122 0 133 122 0 133 123 0 132 124 0 131 126 0 129 128 0 127 129 0 126 129 0 126 129 0 126 128 0 127 127 0 128 126 0 129 125 0 130 125 0 130 124 0 131 124 0 131 123 0 132 123 0 132 123 0 132 124 0 131 125 0 130 126 0 129 127 0 128 129 0 126 130 0 125 131 0 124 132 0 123 132 0 123 133 0 122 133 0 122 134 0 121 134 0 121 134 0 121 134 0 121 133 0 122 131 0 124 130 0 125 128 0 127 127 0 128 126 0 129 126 0 129 126 0 129 127 0 128 128 0 127 128 0 127 128 0 127 127 0 128 125 0 130 124 0 131 123 0 132 122 0 133 122 0 133 121 0 134 121 0 134 121 0 134 120 0 135 120 0 135 119 0 136 118 0 137 118 0 137 119 0 136 119 0 136 120 0 135 120 0 135 121 0 134 121 0 134 121 0 134 121 0 134 121 0 134 122 0 133 122 0 133 122 0 133 123 0 132 123 0 132 123 0 132 122 0 133 121 0 134 120 0 135 120 0 135 120 0 135 121 0 134 123 0 132 125 0 130 127 0 128 128 0 127 130 0 125 132 0 123 133 0 122 134 0 121 134 0 121 134 0 121 134 0 121 132 0 123 130 0 125 129 0 126 127 0 128 126 0 129 125 0 130 125 0 130 126 0 129 127 0 128 129 0 126 131 0 124 133 0 122 135 0 120 136 0 119 136 0 119 135 0 120 133 0 122 131 0 124 130 0 125 128 0 127 128 0 127 128 0 127 128 0 127 128 0 127 128 0 127 128 0 127 128 0 127 127 0 128 127 0 128 126 0 129 126 0 129 126 0 129 126 0 129 126 0 129 126 0 129 126 0 129 127 0 128 127 0 128 126 0 129 126 0 129 125 0 130 124 0 131 123 0 132 123 0 132 123 0 132 124 0 131 126 0 129 127 0 128 129 0 126 130 0 125 131 0 124 132 0 123 132 0 123 132 0 123 131 0 124 130 0 125 130 0 125 129 0 126 128 0 127 128 0 127 128 0 127 128 0 127 128 0 127 128 0 127 128 0 127 129 0 126 130 0 125 130 0 125 131 0 124 132 0 123 133 0 122 133 0 122 133 0 122 133 0 122 132 0 123 131 0 124 130 0 125 130 0 125 129 0 126 129 0 126 129 0 126 130 0 125 130 0 125 130 0 125 129 0 126 127 0 128 125 0 130 122 0 133 120 0 135 119 0 136 118 0 137 119 0 136 120 0 135 122 0 133 124 0 131 127 0 128 132 0 123 139 0 116 150 0 105 175 0 80 
85 0 170 123 0 132 130 0 125 130 0 125 128 0 127 126 0 129 124 0 131 123 0 132 122 0 133 122 0 133 123 0 132 124 0 131 126 0 129 128 0 127 130 0 125 130 0 125 130 0 125 129 0 126 128 0 127 127 0 128 126 0 129 125 0 130 124 0 131 124 0 131 124 0 131 124 0 131 124 0 131 124 0 131 125 0 130 126 0 129 128 0 127 129 0 126 130 0 125 130 0 125 130 0 125 131 0 124 131 0 124 132 0 123 132 0 123 133 0 122 133 0 122 132 0 123 131 0 124 130 0 125 129 0 126 127 0 128 126 0 129 125 0 130 125 0 130 126 0 129 126 0 129 127 0 128 127 0 128 127 0 128 126 0 129 125 0 130 123 0 132 122 0 133 121 0 134 121 0 134 121 0 134 121 0 134 121 0 134 120 0 135 120 0 135 119 0 136 118 0 137 118 0 137 118 0 137 119 0 136 119 0 136 120 0 135 120 0 135 121 0 134 121 0 134 121 0 134 122 0 133 122 0 133 123 0 132 124 0 131 124 0 131 124 0 131 124 0 131 123 0 132 122 0 133 121 0 134 121 0 134 121 0 134 121 0 134 122 0 133 124 0 131 126 0 129 128 0 127 130 0 125 131 0 124 133 0 122 134 0 121 134 0 121 134 0 121 133 0 122 131 0 124 129 0 126 128 0 127 126 0 129 125 0 130 124 0 131 125 0 130 125 0 130 127 0 128 129 0 126 131 0 124 133 0 122 135 0 120 136 0 119 137 0 118 136 0 119 135 0 120 133 0 122 132 0 123 130 0 125 130 0 125 130 0 125 130 0 125 130 0 125 130 0 125 129 0 126 129 0 126 128 0 127 127 0 128 127 0 128 126 0 129 126 0 129 126 0 129 126 0 129 126 0 129 127 0 128 127 0 128 127 0 128 127 0 128 126 0 129 125 0 130 124 0 131 123 0 132 122 0 133 123 0 132 123 0 132 125 0 130 126 0 129 128 0 127 129 0 126 131 0 124 132 0 123 132 0 123 132 0 123 131 0 124 130 0 125 130 0 125 129 0 126 128 0 127 128 0 127 127 0 128 127 0 128 127 0 128 128 0 127 128 0 127 129 0 126 129 0 126 130 0 125 131 0 124 132 0 123 132 0 123 133 0 122 133 0 122 133 0 122 132 0 123 131 0 124 130 0 125 129 0 126 129 0 126 129 0 126 129 0 126 130 0 125 130 0 125 130 0 125 128 0 127 126 0 129 124 0 131 121 0 134 119 0 136 118 0 137 118 0 137 119 0 136 120 0 135 122 0 133 124 0 131 127 0 128 130 0 125 134 0 121 141 0 114 153 0 102 
131 0 124 129 0 126 130 0 125 129 0 126 127 0 128 126 0 129 124 0 131 123 0 132 122 0 133 122 0 133 123 0 132 124 0 131 126 0 129 128 0 127 130 0 125 131 0 124 131 0 124 130 0 125 129 0 126 127 0 128 126 0 129 125 0 130 124 0 131 124 0 131 124 0 131 124 0 131 125 0 130 125 0 130 126 0 129 127 0 128 128 0 127 128 0 127 129 0 126 129 0 126 129 0 126 129 0 126 129 0 126 130 0 125 130 0 125 131 0 124 131 0 124 130 0 125 130 0 125 129 0 126 127 0 128 126 0 129 125 0 130 124 0 131 124 0 131 124 0 131 125 0 130 126 0 129 126 0 129 126 0 129 125 0 130 124 0 131 123 0 132 122 0 133 121 0 134 121 0 134 121 0 134 121 0 134 121 0 134 120 0 135 120 0 135 119 0 136 118 0 137 118 0 137 118 0 137 118 0 137 119 0 136 119 0 136 120 0 135 121 0 134 121 0 134 122 0 133 123 0 132 124 0 131 125 0 130 126 0 129 126 0 129 126 0 129 126 0 129 125 0 130 124 0 131 122 0 133 121 0 134 121 0 134 121 0 134 122 0 133 124 0 131 125 0 130 127 0 128 129 0 126 130 0 125 132 0 123 133 0 122 133 0 122 133 0 122 132 0 123 130 0 125 128 0 127 126 0 129 125 0 130 124 0 131 124 0 131 124 0 131 125 0 130 126 0 129 128 0 127 130 0 125 132 0 123 135 0 120 136 0 119 137 0 118 137 0 118 136 0 119 135 0 120 133 0 122 132 0 123 132 0 123 132 0 123 132 0 123 132 0 123 131 0 124 131 0 124 130 0 125 129 0 126 128 0 127 127 0 128 126 0 129 126 0 129 126 0 129 126 0 129 126 0 129 127 0 128 127 0 128 127 0 128 127 0 128 126 0 129 125 0 130 124 0 131 123 0 132 122 0 133 122 0 133 123 0 132 124 0 131 126 0 129 127 0 128 129 0 126 130 0 125 131 0 124 131 0 124 131 0 124 131 0 124 130 0 125 129 0 126 129 0 126 128 0 127 127 0 128 127 0 128 127 0 128 127 0 128 127 0 128 128 0 127 128 0 127 129 0 126 130 0 125 131 0 124 132 0 123 132 0 123 133 0 122 133 0 122 133 0 122 132 0 123 131 0 124 130 0 125 129 0 126 129 0 126 128 0 127 129 0 126 129 0 126 129 0 126 129 0 126 128 0 127 126 0 129 123 0 132 121 0 134 119 0 136 118 0 137 118 0 137 119 0 136 120 0 135 122 0 133 124 0 131 126 0 129 127 0 128 128 0 127 125 0 130 107 0 148 
140 0 115 133 0 122 131 0 124 130 0 125 128 0 127 126 0 129 125 0 130 123 0 132 123 0 132 122 0 133 123 0 132 124 0 131 126 0 129 128 0 127 130 0 125 131 0 124 131 0 124 130 0 125 129 0 126 127 0 128 126 0 129 124 0 131 124 0 131 123 0 132 124 0 131 124 0 131 125 0 130 126 0 129 127 0 128 127 0 128 128 0 127 128 0 127 128 0 127 128 0 127 128 0 127 128 0 127 128 0 127 128 0 127 128 0 127 128 0 127 129 0 126 128 0 127 128 0 127 127 0 128 126 0 129 125 0 130 124 0 131 123 0 132 123 0 132 123 0 132 124 0 131 125 0 130 125 0 130 125 0 130 124 0 131 123 0 132 122 0 133 122 0 133 121 0 134 121 0 134 121 0 134 121 0 134 121 0 134 121 0 134 120 0 135 119 0 136 119 0 136 118 0 137 118 0 137 118 0 137 119 0 136 120 0 135 120 0 135 121 0 134 122 0 133 123 0 132 124 0 131 125 0 130 127 0 128 128 0 127 128 0 127 128 0 127 128 0 127 127 0 128 125 0 130 124 0 131 122 0 133 122 0 133 122 0 133 122 0 133 123 0 132 124 0 131 126 0 129 127 0 128 129 0 126 130 0 125 131 0 124 132 0 123 131 0 124 130 0 125 128 0 127 127 0 128 125 0 130 124 0 131 123 0 132 123 0 132 123 0 132 124 0 131 125 0 130 127 0 128 129 0 126 131 0 124 133 0 122 135 0 120 137 0 118 137 0 118 136 0 119 136 0 119 135 0 120 134 0 121 134 0 121 134 0 121 134 0 121 133 0 122 133 0 122 132 0 123 131 0 124 129 0 126 128 0 127 127 0 128 126 0 129 126 0 129 126 0 129 126 0 129 126 0 129 127 0 128 128 0 127 128 0 127 128 0 127 127 0 128 126 0 129 124 0 131 123 0 132 123 0 132 123 0 132 124 0 131 125 0 130 126 0 129 127 0 128 128 0 127 129 0 126 130 0 125 130 0 125 130 0 125 130 0 125 129 0 126 129 0 126 128 0 127 128 0 127 127 0 128 127 0 128 127 0 128 127 0 128 127 0 128 127 0 128 127 0 128 128 0 127 129 0 126 131 0 124 132 0 123 133 0 122 133 0 122 133 0 122 133 0 122 132 0 123 131 0 124 130 0 125 129 0 126 128 0 127 127 0 128 128 0 127 128 0 127 128 0 127 128 0 127 127 0 128 125 0 130 122 0 133 120 0 135 119 0 136 118 0 137 118 0 137 118 0 137 120 0 135 122 0 133 123 0 132 125 0 130 125 0 130 124 0 131 124 0 131 142 0 113 
108 0 147 131 0 124 133 0 122 131 0 124 129 0 126 127 0 128 125 0 130 124 0 131 123 0 132 123 0 132 123 0 132 124 0 131 126 0 129 128 0 127 130 0 125 131 0 124 131 0 124 131 0 124 129 0 126 127 0 128 125 0 130 124 0 131 123 0 132 123 0 132 123 0 132 124 0 131 125 0 130 126 0 129 127 0 128 127 0 128 127 0 128 127 0 128 127 0 128 127 0 128 127 0 128 126 0 129 126 0 129 126 0 129 126 0 129 126 0 129 127 0 128 127 0 128 127 0 128 126 0 129 125 0 130 124 0 131 123 0 132 123 0 132 122 0 133 123 0 132 123 0 132 124 0 131 124 0 131 125 0 130 124 0 131 123 0 132 123 0 132 122 0 133 122 0 133 122 0 133 122 0 133 122 0 133 122 0 133 121 0 134 121 0 134 120 0 135 119 0 136 119 0 136 119 0 136 119 0 136 119 0 136 120 0 135 121 0 134 122 0 133 123 0 132 124 0 131 126 0 129 127 0 128 128 0 127 129 0 126 130 0 125 130 0 125 129 0 126 128 0 127 127 0 128 125 0 130 123 0 132 122 0 133 122 0 133 122 0 133 122 0 133 123 0 132 124 0 131 126 0 129 127 0 128 129 0 126 130 0 125 130 0 125 130 0 125 128 0 127 127 0 128 125 0 130 123 0 132 123 0 132 122 0 133 122 0 133 122 0 133 123 0 132 124 0 131 125 0 130 127 0 128 129 0 126 132 0 123 134 0 121 135 0 120 136 0 119 136 0 119 136 0 119 135 0 120 135 0 120 135 0 120 135 0 120 135 0 120 135 0 120 134 0 121 133 0 122 131 0 124 130 0 125 129 0 126 127 0 128 126 0 129 126 0 129 126 0 129 126 0 129 126 0 129 127 0 128 128 0 127 128 0 127 128 0 127 128 0 127 127 0 128 125 0 130 124 0 131 124 0 131 124 0 131 125 0 130 126 0 129 127 0 128 127 0 128 128 0 127 128 0 127 129 0 126 129 0 126 128 0 127 128 0 127 128 0 127 128 0 127 128 0 127 127 0 128 127 0 128 127 0 128 127 0 128 126 0 129 126 0 129 126 0 129 127 0 128 128 0 127 129 0 126 130 0 125 132 0 123 133 0 122 134 0 121 134 0 121 133 0 122 132 0 123 131 0 124 129 0 126 128 0 127 127 0 128 126 0 129 126 0 129 126 0 129 126 0 129 126 0 129 125 0 130 124 0 131 122 0 133 120 0 135 119 0 136 118 0 137 118 0 137 118 0 137 120 0 135 121 0 134 122 0 133 123 0 132 122 0 133 118 0 137 106 0 149 67 0 188 
182 0 73 150 0 105 138 0 117 133 0 122 130 0 125 128 0 127 126 0 129 124 0 131 123 0 132 123 0 132 123 0 132 124 0 131 126 0 129 128 0 127 130 0 125 131 0 124 131 0 124 130 0 125 129 0 126 127 0 128 125 0 130 124 0 131 123 0 132 123 0 132 123 0 132 124 0 131 125 0 130 126 0 129 127 0 128 127 0 128 127 0 128 127 0 128 126 0 129 126 0 129 125 0 130 125 0 130 125 0 130 124 0 131 124 0 131 125 0 130 125 0 130 125 0 130 125 0 130 125 0 130 125 0 130 124 0 131 123 0 132 123 0 132 122 0 133 122 0 133 123 0 132 123 0 132 124 0 131 124 0 131 124 0 131 124 0 131 123 0 132 123 0 132 122 0 133 123 0 132 123 0 132 123 0 132 123 0 132 122 0 133 121 0 134 121 0 134 120 0 135 119 0 136 119 0 136 119 0 136 120 0 135 121 0 134 122 0 133 123 0 132 124 0 131 126 0 129 127 0 128 128 0 127 130 0 125 131 0 124 131 0 124 131 0 124 130 0 125 129 0 126 127 0 128 126 0 129 124 0 131 123 0 132 122 0 133 122 0 133 122 0 133 122 0 133 123 0 132 125 0 130 126 0 129 127 0 128 128 0 127 128 0 127 127 0 128 126 0 129 125 0 130 123 0 132 122 0 133 122 0 133 121 0 134 121 0 134 121 0 134 122 0 133 122 0 133 123 0 132 125 0 130 127 0 128 129 0 126 131 0 124 133 0 122 134 0 121 135 0 120 135 0 120 135 0 120 136 0 119 136 0 119 136 0 119 136 0 119 136 0 119 135 0 120 134 0 121 132 0 123 131 0 124 129 0 126 127 0 128 126 0 129 126 0 129 125 0 130 126 0 129 126 0 129 127 0 128 128 0 127 129 0 126 129 0 126 128 0 127 127 0 128 126 0 129 125 0 130 125 0 130 125 0 130 126 0 129 127 0 128 127 0 128 127 0 128 128 0 127 128 0 127 127 0 128 127 0 128 127 0 128 127 0 128 127 0 128 127 0 128 127 0 128 127 0 128 127 0 128 127 0 128 126 0 129 126 0 129 126 0 129 126 0 129 126 0 129 127 0 128 128 0 127 130 0 125 132 0 123 133 0 122 134 0 121 134 0 121 134 0 121 133 0 122 131 0 124 129 0 126 127 0 128 126 0 129 125 0 130 124 0 131 125 0 130 125 0 130 125 0 130 124 0 131 123 0 132 122 0 133 120 0 135 119 0 136 118 0 137 118 0 137 118 0 137 119 0 136 120 0 135 122 0 133 122 0 133 122 0 133 120 0 135 113 0 142 88 0 167 
175 0 80 147 0 108 136 0 119 132 0 123 129 0 126 127 0 128 126 0 129 124 0 131 123 0 132 123 0 132 123 0 132 124 0 131 126 0 129 128 0 127 129 0 126 130 0 125 131 0 124 130 0 125 129 0 126 127 0 128 125 0 130 124 0 131 123 0 132 123 0 132 124 0 131 125 0 130 126 0 129 126 0 129 127 0 128 127 0 128 126 0 129 126 0 129 126 0 129 125 0 130 125 0 130 124 0 131 124 0 131 123 0 132 123 0 132 123 0 132 124 0 131 124 0 131 125 0 130 125 0 130 125 0 130 125 0 130 124 0 131 123 0 132 123 0 132 123 0 132 123 0 132 123 0 132 124 0 131 124 0 131 124 0 131 124 0 131 123 0 132 123 0 132 123 0 132 124 0 131 124 0 131 124 0 131 124 0 131 123 0 132 123 0 132 122 0 133 121 0 134 120 0 135 120 0 135 120 0 135 120 0 135 121 0 134 122 0 133 124 0 131 126 0 129 127 0 128 128 0 127 129 0 126 130 0 125 131 0 124 132 0 123 131 0 124 131 0 124 129 0 126 128 0 127 126 0 129 125 0 130 123 0 132 122 0 133 122 0 133 122 0 133 122 0 133 123 0 132 124 0 131 125 0 130 126 0 129 127 0 128 127 0 128 126 0 129 124 0 131 123 0 132 122 0 133 121 0 134 121 0 134 121 0 134 121 0 134 120 0 135 120 0 135 120 0 135 121 0 134 123 0 132 124 0 131 126 0 129 129 0 126 131 0 124 132 0 123 133 0 122 134 0 121 135 0 120 135 0 120 136 0 119 136 0 119 136 0 119 136 0 119 135 0 120 134 0 121 133 0 122 131 0 124 129 0 126 128 0 127 126 0 129 126 0 129 125 0 130 126 0 129 127 0 128 128 0 127 129 0 126 129 0 126 130 0 125 129 0 126 128 0 127 127 0 128 126 0 129 126 0 129 126 0 129 127 0 128 127 0 128 128 0 127 128 0 127 127 0 128 127 0 128 127 0 128 126 0 129 126 0 129 126 0 129 126 0 129 126 0 129 126 0 129 126 0 129 126 0 129 126 0 129 126 0 129 126 0 129 125 0 130 125 0 130 125 0 130 126 0 129 128 0 127 130 0 125 132 0 123 133 0 122 134 0 121 135 0 120 134 0 121 133 0 122 131 0 124 129 0 126 126 0 129 125 0 130 123 0 132 123 0 132 123 0 132 123 0 132 123 0 132 123 0 132 123 0 132 122 0 133 121 0 134 120 0 135 119 0 136 118 0 137 119 0 136 119 0 136 120 0 135 121 0 134 122 0 133 123 0 132 126 0 129 138 0 117 175 0 80 
119 0 136 128 0 127 129 0 126 128 0 127 127 0 128 126 0 129 125 0 130 124 0 131 123 0 132 123 0 132 123 0 132 124 0 131 125 0 130 127 0 128 129 0 126 130 0 125 130 0 125 130 0 125 129 0 126 127 0 128 126 0 129 125 0 130 124 0 131 124 0 131 125 0 130 125 0 130 126 0 129 126 0 129 126 0 129 126 0 129 126 0 129 125 0 130 125 0 130 125 0 130 124 0 131 124 0 131 123 0 132 123 0 132 122 0 133 123 0 132 123 0 132 124 0 131 125 0 130 125 0 130 125 0 130 125 0 130 125 0 130 124 0 131 124 0 131 123 0 132 124 0 131 124 0 131 124 0 131 125 0 130 125 0 130 124 0 131 124 0 131 124 0 131 124 0 131 125 0 130 125 0 130 125 0 130 125 0 130 125 0 130 124 0 131 123 0 132 122 0 133 121 0 134 120 0 135 120 0 135 121 0 134 122 0 133 123 0 132 125 0 130 126 0 129 127 0 128 128 0 127 129 0 126 130 0 125 131 0 124 131 0 124 131 0 124 130 0 125 129 0 126 128 0 127 126 0 129 125 0 130 124 0 131 123 0 132 122 0 133 122 0 133 122 0 133 122 0 133 123 0 132 124 0 131 125 0 130 126 0 129 125 0 130 124 0 131 123 0 132 122 0 133 121 0 134 120 0 135 120 0 135 120 0 135 120 0 135 120 0 135 119 0 136 119 0 136 120 0 135 121 0 134 122 0 133 124 0 131 126 0 129 128 0 127 130 0 125 132 0 123 133 0 122 134 0 121 135 0 120 136 0 119 136 0 119 136 0 119 136 0 119 136 0 119 135 0 120 133 0 122 132 0 123 130 0 125 128 0 127 127 0 128 126 0 129 126 0 129 127 0 128 127 0 128 129 0 126 130 0 125 130 0 125 131 0 124 130 0 125 129 0 126 128 0 127 127 0 128 127 0 128 127 0 128 127 0 128 128 0 127 128 0 127 127 0 128 127 0 128 127 0 128 126 0 129 126 0 129 126 0 129 126 0 129 126 0 129 125 0 130 125 0 130 125 0 130 125 0 130 125 0 130 125 0 130 125 0 130 125 0 130 125 0 130 125 0 130 125 0 130 127 0 128 129 0 126 131 0 124 133 0 122 134 0 121 134 0 121 134 0 121 132 0 123 131 0 124 128 0 127 126 0 129 124 0 131 122 0 133 121 0 134 121 0 134 121 0 134 122 0 133 122 0 133 122 0 133 122 0 133 121 0 134 121 0 134 120 0 135 119 0 136 119 0 136 119 0 136 120 0 135 120 0 135 121 0 134 121 0 134 124 0 131 135 0 120 179 0 76 
118 0 137 118 0 137 121 0 134 124 0 131 125 0 130 125 0 130 125 0 130 124 0 131 123 0 132 123 0 132 123 0 132 124 0 131 126 0 129 127 0 128 129 0 126 130 0 125 130 0 125 130 0 125 129 0 126 128 0 127 127 0 128 126 0 129 126 0 129 126 0 129 126 0 129 127 0 128 127 0 128 127 0 128 126 0 129 126 0 129 125 0 130 125 0 130 124 0 131 124 0 131 124 0 131 123 0 132 123 0 132 122 0 133 122 0 133 122 0 133 123 0 132 124 0 131 125 0 130 125 0 130 126 0 129 126 0 129 126 0 129 125 0 130 125 0 130 125 0 130 125 0 130 125 0 130 125 0 130 125 0 130 125 0 130 125 0 130 125 0 130 125 0 130 125 0 130 125 0 130 126 0 129 126 0 129 126 0 129 126 0 129 125 0 130 124 0 131 122 0 133 121 0 134 121 0 134 120 0 135 121 0 134 122 0 133 123 0 132 125 0 130 126 0 129 127 0 128 128 0 127 129 0 126 129 0 126 130 0 125 130 0 125 130 0 125 129 0 126 128 0 127 127 0 128 126 0 129 125 0 130 125 0 130 124 0 131 123 0 132 122 0 133 122 0 133 122 0 133 123 0 132 124 0 131 125 0 130 125 0 130 124 0 131 123 0 132 122 0 133 121 0 134 120 0 135 120 0 135 120 0 135 120 0 135 120 0 135 120 0 135 119 0 136 119 0 136 119 0 136 119 0 136 120 0 135 122 0 133 124 0 131 126 0 129 128 0 127 130 0 125 132 0 123 133 0 122 135 0 120 135 0 120 136 0 119 136 0 119 136 0 119 136 0 119 135 0 120 134 0 121 132 0 123 131 0 124 129 0 126 128 0 127 127 0 128 127 0 128 128 0 127 129 0 126 130 0 125 131 0 124 131 0 124 131 0 124 131 0 124 130 0 125 128 0 127 127 0 128 127 0 128 127 0 128 127 0 128 127 0 128 127 0 128 127 0 128 127 0 128 126 0 129 126 0 129 126 0 129 126 0 129 126 0 129 126 0 129 126 0 129 125 0 130 125 0 130 125 0 130 125 0 130 125 0 130 125 0 130 124 0 131 124 0 131 124 0 131 125 0 130 126 0 129 128 0 127 130 0 125 132 0 123 133 0 122 133 0 122 133 0 122 132 0 123 130 0 125 128 0 127 125 0 130 123 0 132 121 0 134 120 0 135 120 0 135 120 0 135 121 0 134 121 0 134 122 0 133 122 0 133 122 0 133 122 0 133 121 0 134 121 0 134 120 0 135 120 0 135 120 0 135 120 0 135 119 0 136 117 0 138 112 0 143 100 0 155 55 0 200 
68 0 187 103 0 152 115 0 140 120 0 135 123 0 132 124 0 131 124 0 131 124 0 131 124 0 131 123 0 132 124 0 131 124 0 131 126 0 129 127 0 128 129 0 126 130 0 125 130 0 125 130 0 125 130 0 125 129 0 126 128 0 127 128 0 127 128 0 127 128 0 127 128 0 127 128 0 127 128 0 127 127 0 128 126 0 129 126 0 129 125 0 130 124 0 131 124 0 131 124 0 131 124 0 131 123 0 132 123 0 132 123 0 132 123 0 132 123 0 132 123 0 132 124 0 131 125 0 130 126 0 129 127 0 128 127 0 128 127 0 128 127 0 128 126 0 129 126 0 129 126 0 129 126 0 129 126 0 129 126 0 129 126 0 129 126 0 129 126 0 129 125 0 130 126 0 129 126 0 129 126 0 129 127 0 128 127 0 128 126 0 129 125 0 130 124 0 131 123 0 132 122 0 133 121 0 134 121 0 134 121 0 134 122 0 133 123 0 132 125 0 130 126 0 129 127 0 128 128 0 127 128 0 127 128 0 127 128 0 127 129 0 126 129 0 126 128 0 127 128 0 127 127 0 128 127 0 128 126 0 129 125 0 130 125 0 130 124 0 131 123 0 132 123 0 132 123 0 132 123 0 132 124 0 131 124 0 131 125 0 130 124 0 131 123 0 132 122 0 133 121 0 134 121 0 134 121 0 134 121 0 134 121 0 134 121 0 134 120 0 135 119 0 136 119 0 136 118 0 137 118 0 137 119 0 136 120 0 135 122 0 133 124 0 131 127 0 128 129 0 126 131 0 124 133 0 122 134 0 121 135 0 120 135 0 120 136 0 119 136 0 119 135 0 120 135 0 120 134 0 121 133 0 122 131 0 124 130 0 125 129 0 126 129 0 126 129 0 126 129 0 126 130 0 125 131 0 124 132 0 123 133 0 122 132 0 123 131 0 124 130 0 125 128 0 127 127 0 128 127 0 128 127 0 128 127 0 128 127 0 128 127 0 128 127 0 128 126 0 129 126 0 129 127 0 128 127 0 128 127 0 128 127 0 128 127 0 128 126 0 129 126 0 129 125 0 130 125 0 130 125 0 130 125 0 130 125 0 130 124 0 131 124 0 131 123 0 132 124 0 131 125 0 130 127 0 128 128 0 127 130 0 125 132 0 123 132 0 123 132 0 123 131 0 124 130 0 125 127 0 128 125 0 130 123 0 132 121 0 134 120 0 135 119 0 136 120 0 135 120 0 135 121 0 134 122 0 133 122 0 133 123 0 132 123 0 132 123 0 132 123 0 132 122 0 133 122 0 133 121 0 134 120 0 135 118 0 137 115 0 140 108 0 147 96 0 159 74 0 181 
127 0 128 113 0 142 116 0 139 120 0 135 122 0 133 123 0 132 124 0 131 124 0 131 124 0 131 124 0 131 124 0 131 125 0 130 126 0 129 127 0 128 129 0 126 129 0 126 130 0 125 130 0 125 130 0 125 130 0 125 130 0 125 130 0 125 130 0 125 130 0 125 130 0 125 130 0 125 129 0 126 128 0 127 127 0 128 125 0 130 124 0 131 124 0 131 123 0 132 123 0 132 123 0 132 124 0 131 124 0 131 124 0 131 124 0 131 124 0 131 124 0 131 125 0 130 126 0 129 127 0 128 127 0 128 128 0 127 128 0 127 128 0 127 128 0 127 128 0 127 128 0 127 128 0 127 128 0 127 128 0 127 127 0 128 127 0 128 126 0 129 126 0 129 126 0 129 126 0 129 127 0 128 127 0 128 127 0 128 126 0 129 125 0 130 124 0 131 123 0 132 122 0 133 121 0 134 121 0 134 121 0 134 122 0 133 123 0 132 125 0 130 126 0 129 127 0 128 127 0 128 127 0 128 127 0 128 127 0 128 127 0 128 128 0 127 128 0 127 128 0 127 127 0 128 127 0 128 127 0 128 126 0 129 126 0 129 125 0 130 124 0 131 123 0 132 123 0 132 123 0 132 124 0 131 124 0 131 124 0 131 124 0 131 123 0 132 122 0 133 122 0 133 122 0 133 122 0 133 122 0 133 122 0 133 122 0 133 121 0 134 120 0 135 120 0 135 119 0 136 119 0 136 119 0 136 120 0 135 122 0 133 124 0 131 126 0 129 128 0 127 131 0 124 132 0 123 134 0 121 134 0 121 135 0 120 135 0 120 135 0 120 135 0 120 134 0 121 134 0 121 133 0 122 132 0 123 131 0 124 130 0 125 130 0 125 130 0 125 131 0 124 132 0 123 132 0 123 133 0 122 133 0 122 132 0 123 131 0 124 129 0 126 128 0 127 127 0 128 126 0 129 126 0 129 126 0 129 126 0 129 126 0 129 126 0 129 126 0 129 126 0 129 127 0 128 127 0 128 128 0 127 128 0 127 128 0 127 128 0 127 127 0 128 127 0 128 126 0 129 126 0 129 126 0 129 125 0 130 125 0 130 124 0 131 123 0 132 123 0 132 124 0 131 125 0 130 127 0 128 129 0 126 130 0 125 131 0 124 131 0 124 130 0 125 129 0 126 127 0 128 125 0 130 123 0 132 121 0 134 120 0 135 119 0 136 119 0 136 120 0 135 121 0 134 122 0 133 123 0 132 124 0 131 125 0 130 125 0 130 125 0 130 124 0 131 123 0 132 122 0 133 121 0 134 118 0 137 115 0 140 109 0 146 101 0 154 95 0 160 
57 0 198 107 0 148 118 0 137 121 0 134 123 0 132 124 0 131 124 0 131 125 0 130 125 0 130 125 0 130 125 0 130 126 0 129 127 0 128 127 0 128 128 0 127 129 0 126 130 0 125 130 0 125 131 0 124 131 0 124 131 0 124 131 0 124 132 0 123 132 0 123 132 0 123 131 0 124 130 0 125 129 0 126 127 0 128 125 0 130 124 0 131 123 0 132 123 0 132 123 0 132 123 0 132 124 0 131 124 0 131 125 0 130 125 0 130 126 0 129 126 0 129 126 0 129 127 0 128 128 0 127 128 0 127 129 0 126 129 0 126 129 0 126 129 0 126 129 0 126 129 0 126 129 0 126 129 0 126 129 0 126 128 0 127 128 0 127 127 0 128 127 0 128 127 0 128 127 0 128 127 0 128 127 0 128 127 0 128 126 0 129 125 0 130 124 0 131 122 0 133 121 0 134 121 0 134 121 0 134 121 0 134 122 0 133 124 0 131 125 0 130 126 0 129 126 0 129 126 0 129 126 0 129 126 0 129 126 0 129 126 0 129 127 0 128 127 0 128 127 0 128 128 0 127 128 0 127 128 0 127 128 0 127 127 0 128 126 0 129 125 0 130 124 0 131 123 0 132 123 0 132 124 0 131 124 0 131 124 0 131 124 0 131 123 0 132 123 0 132 123 0 132 123 0 132 123 0 132 124 0 131 124 0 131 124 0 131 123 0 132 122 0 133 121 0 134 120 0 135 120 0 135 120 0 135 120 0 135 122 0 133 124 0 131 126 0 129 128 0 127 130 0 125 132 0 123 133 0 122 134 0 121 134 0 121 134 0 121 134 0 121 134 0 121 133 0 122 133 0 122 132 0 123 132 0 123 131 0 124 131 0 124 130 0 125 131 0 124 131 0 124 132 0 123 133 0 122 133 0 122 133 0 122 132 0 123 130 0 125 129 0 126 127 0 128 126 0 129 125 0 130 125 0 130 124 0 131 124 0 131 124 0 131 124 0 131 125 0 130 125 0 130 126 0 129 128 0 127 129 0 126 129 0 126 130 0 125 129 0 126 129 0 126 128 0 127 128 0 127 127 0 128 127 0 128 126 0 129 125 0 130 124 0 131 124 0 131 123 0 132 123 0 132 124 0 131 126 0 129 127 0 128 128 0 127 129 0 126 130 0 125 130 0 125 129 0 126 127 0 128 125 0 130 123 0 132 122 0 133 120 0 135 119 0 136 119 0 136 120 0 135 120 0 135 122 0 133 123 0 132 125 0 130 126 0 129 126 0 129 126 0 129 126 0 129 125 0 130 123 0 132 122 0 133 120 0 135 117 0 138 112 0 143 102 0 153 78 0 177 
167 0 88 138 0 117 128 0 127 125 0 130 124 0 131 125 0 130 125 0 130 126 0 129 126 0 129 126 0 129 127 0 128 127 0 128 127 0 128 127 0 128 128 0 127 129 0 126 129 0 126 130 0 125 131 0 124 131 0 124 132 0 123 132 0 123 133 0 122 133 0 122 133 0 122 132 0 123 131 0 124 129 0 126 127 0 128 125 0 130 124 0 131 123 0 132 122 0 133 123 0 132 123 0 132 124 0 131 125 0 130 126 0 129 127 0 128 127 0 128 128 0 127 128 0 127 129 0 126 129 0 126 129 0 126 129 0 126 130 0 125 130 0 125 129 0 126 129 0 126 129 0 126 129 0 126 129 0 126 129 0 126 129 0 126 129 0 126 128 0 127 128 0 127 128 0 127 128 0 127 128 0 127 127 0 128 127 0 128 126 0 129 125 0 130 123 0 132 122 0 133 121 0 134 121 0 134 121 0 134 122 0 133 123 0 132 124 0 131 125 0 130 126 0 129 126 0 129 126 0 129 126 0 129 126 0 129 126 0 129 126 0 129 126 0 129 127 0 128 127 0 128 128 0 127 128 0 127 128 0 127 128 0 127 128 0 127 127 0 128 126 0 129 125 0 130 124 0 131 124 0 131 124 0 131 124 0 131 124 0 131 124 0 131 123 0 132 123 0 132 124 0 131 124 0 131 125 0 130 126 0 129 126 0 129 126 0 129 125 0 130 124 0 131 122 0 133 121 0 134 121 0 134 121 0 134 121 0 134 123 0 132 124 0 131 126 0 129 128 0 127 130 0 125 132 0 123 132 0 123 133 0 122 133 0 122 133 0 122 132 0 123 132 0 123 132 0 123 132 0 123 131 0 124 131 0 124 131 0 124 130 0 125 130 0 125 131 0 124 131 0 124 132 0 123 133 0 122 133 0 122 132 0 123 131 0 124 129 0 126 127 0 128 126 0 129 125 0 130 124 0 131 123 0 132 123 0 132 123 0 132 122 0 133 123 0 132 123 0 132 124 0 131 126 0 129 128 0 127 129 0 126 130 0 125 131 0 124 131 0 124 130 0 125 130 0 125 129 0 126 129 0 126 128 0 127 128 0 127 127 0 128 125 0 130 124 0 131 123 0 132 123 0 132 123 0 132 125 0 130 126 0 129 127 0 128 128 0 127 129 0 126 129 0 126 129 0 126 128 0 127 126 0 129 125 0 130 123 0 132 121 0 134 120 0 135 120 0 135 120 0 135 121 0 134 122 0 133 123 0 132 125 0 130 126 0 129 127 0 128 127 0 128 127 0 128 126 0 129 124 0 131 123 0 132 122 0 133 121 0 134 120 0 135 119 0 136 107 0 148 
206 0 49 150 0 105 133 0 122 128 0 127 126 0 129 126 0 129 126 0 129 127 0 128 128 0 127 128 0 127 128 0 127 128 0 127 127 0 128 127 0 128 128 0 127 128 0 127 129 0 126 130 0 125 130 0 125 131 0 124 132 0 123 133 0 122 133 0 122 134 0 121 134 0 121 133 0 122 131 0 124 129 0 126 127 0 128 125 0 130 124 0 131 123 0 132 122 0 133 123 0 132 124 0 131 125 0 130 126 0 129 128 0 127 129 0 126 130 0 125 130 0 125 130 0 125 130 0 125 130 0 125 130 0 125 130 0 125 130 0 125 130 0 125 130 0 125 130 0 125 130 0 125 129 0 126 129 0 126 129 0 126 129 0 126 129 0 126 129 0 126 128 0 127 128 0 127 128 0 127 128 0 127 128 0 127 127 0 128 126 0 129 124 0 131 123 0 132 121 0 134 121 0 134 121 0 134 121 0 134 122 0 133 123 0 132 125 0 130 126 0 129 126 0 129 126 0 129 126 0 129 126 0 129 125 0 130 125 0 130 126 0 129 126 0 129 127 0 128 127 0 128 128 0 127 128 0 127 129 0 126 129 0 126 129 0 126 128 0 127 127 0 128 126 0 129 125 0 130 124 0 131 124 0 131 123 0 132 123 0 132 123 0 132 123 0 132 124 0 131 124 0 131 125 0 130 126 0 129 127 0 128 128 0 127 127 0 128 126 0 129 125 0 130 124 0 131 123 0 132 122 0 133 122 0 133 122 0 133 123 0 132 125 0 130 127 0 128 129 0 126 130 0 125 131 0 124 132 0 123 132 0 123 132 0 123 131 0 124 131 0 124 130 0 125 130 0 125 130 0 125 130 0 125 129 0 126 129 0 126 129 0 126 129 0 126 129 0 126 130 0 125 131 0 124 131 0 124 131 0 124 131 0 124 129 0 126 128 0 127 126 0 129 124 0 131 123 0 132 123 0 132 122 0 133 122 0 133 121 0 134 121 0 134 121 0 134 122 0 133 123 0 132 125 0 130 127 0 128 129 0 126 130 0 125 131 0 124 132 0 123 132 0 123 131 0 124 131 0 124 130 0 125 130 0 125 129 0 126 128 0 127 126 0 129 125 0 130 123 0 132 123 0 132 123 0 132 124 0 131 125 0 130 126 0 129 127 0 128 128 0 127 129 0 126 129 0 126 129 0 126 128 0 127 126 0 129 125 0 130 123 0 132 122 0 133 121 0 134 120 0 135 121 0 134 122 0 133 123 0 132 125 0 130 126 0 129 127 0 128 128 0 127 127 0 128 126 0 129 125 0 130 124 0 131 123 0 132 125 0 130 130 0 125 144 0 111 189 0 66 
92 0 163 124 0 131 127 0 128 127 0 128 126 0 129 127 0 128 128 0 127 128 0 127 129 0 126 129 0 126 129 0 126 128 0 127 128 0 127 127 0 128 127 0 128 128 0 127 128 0 127 129 0 126 130 0 125 131 0 124 131 0 124 132 0 123 133 0 122 134 0 121 134 0 121 133 0 122 131 0 124 129 0 126 127 0 128 125 0 130 124 0 131 123 0 132 123 0 132 123 0 132 124 0 131 126 0 129 128 0 127 129 0 126 131 0 124 132 0 123 132 0 123 132 0 123 132 0 123 132 0 123 132 0 123 132 0 123 131 0 124 131 0 124 130 0 125 130 0 125 129 0 126 129 0 126 129 0 126 129 0 126 129 0 126 129 0 126 129 0 126 129 0 126 129 0 126 129 0 126 128 0 127 128 0 127 127 0 128 125 0 130 124 0 131 122 0 133 121 0 134 121 0 134 121 0 134 122 0 133 123 0 132 124 0 131 126 0 129 126 0 129 127 0 128 127 0 128 126 0 129 126 0 129 126 0 129 126 0 129 126 0 129 126 0 129 127 0 128 127 0 128 128 0 127 129 0 126 129 0 126 130 0 125 129 0 126 129 0 126 128 0 127 127 0 128 125 0 130 124 0 131 124 0 131 123 0 132 123 0 132 123 0 132 123 0 132 124 0 131 125 0 130 126 0 129 127 0 128 128 0 127 128 0 127 128 0 127 127 0 128 126 0 129 124 0 131 123 0 132 122 0 133 122 0 133 123 0 132 124 0 131 126 0 129 127 0 128 129 0 126 130 0 125 131 0 124 131 0 124 131 0 124 131 0 124 130 0 125 129 0 126 129 0 126 128 0 127 128 0 127 128 0 127 127 0 128 127 0 128 127 0 128 127 0 128 128 0 127 128 0 127 129 0 126 130 0 125 130 0 125 129 0 126 128 0 127 126 0 129 125 0 130 123 0 132 123 0 132 122 0 133 121 0 134 120 0 135 120 0 135 120 0 135 120 0 135 121 0 134 122 0 133 124 0 131 126 0 129 128 0 127 130 0 125 131 0 124 132 0 123 132 0 123 132 0 123 132 0 123 131 0 124 131 0 124 130 0 125 129 0 126 127 0 128 125 0 130 123 0 132 123 0 132 122 0 133 123 0 132 124 0 131 125 0 130 127 0 128 128 0 127 129 0 126 129 0 126 129 0 126 129 0 126 128 0 127 126 0 129 125 0 130 123 0 132 122 0 133 121 0 134 121 0 134 122 0 133 123 0 132 125 0 130 126 0 129 127 0 128 128 0 127 127 0 128 126 0 129 125 0 130 124 0 131 124 0 131 125 0 130 130 0 125 140 0 115 158 0 97 
141 0 114 128 0 127 125 0 130 125 0 130 126 0 129 127 0 128 128 0 127 129 0 126 129 0 126 129 0 126 129 0 126 128 0 127 128 0 127 127 0 128 127 0 128 127 0 128 127 0 128 128 0 127 129 0 126 130 0 125 130 0 125 131 0 124 132 0 123 133 0 122 133 0 122 132 0 123 131 0 124 129 0 126 127 0 128 125 0 130 124 0 131 123 0 132 123 0 132 124 0 131 125 0 130 127 0 128 129 0 126 131 0 124 132 0 123 134 0 121 134 0 121 135 0 120 135 0 120 134 0 121 134 0 121 133 0 122 132 0 123 131 0 124 130 0 125 130 0 125 129 0 126 129 0 126 128 0 127 128 0 127 128 0 127 128 0 127 128 0 127 129 0 126 129 0 126 129 0 126 128 0 127 128 0 127 127 0 128 125 0 130 124 0 131 122 0 133 121 0 134 121 0 134 121 0 134 123 0 132 124 0 131 125 0 130 126 0 129 127 0 128 127 0 128 127 0 128 127 0 128 127 0 128 126 0 129 126 0 129 126 0 129 127 0 128 127 0 128 127 0 128 128 0 127 129 0 126 129 0 126 130 0 125 130 0 125 130 0 125 129 0 126 127 0 128 126 0 129 125 0 130 124 0 131 123 0 132 123 0 132 123 0 132 123 0 132 124 0 131 125 0 130 126 0 129 127 0 128 128 0 127 128 0 127 127 0 128 126 0 129 125 0 130 124 0 131 123 0 132 122 0 133 123 0 132 124 0 131 125 0 130 126 0 129 128 0 127 129 0 126 130 0 125 131 0 124 131 0 124 131 0 124 130 0 125 129 0 126 129 0 126 128 0 127 127 0 128 126 0 129 126 0 129 125 0 130 125 0 130 125 0 130 125 0 130 126 0 129 126 0 129 127 0 128 128 0 127 128 0 127 127 0 128 126 0 129 125 0 130 124 0 131 123 0 132 122 0 133 121 0 134 120 0 135 120 0 135 119 0 136 119 0 136 119 0 136 120 0 135 122 0 133 124 0 131 126 0 129 128 0 127 130 0 125 131 0 124 132 0 123 132 0 123 132 0 123 132 0 123 132 0 123 132 0 123 131 0 124 129 0 126 128 0 127 125 0 130 124 0 131 123 0 132 122 0 133 123 0 132 124 0 131 125 0 130 126 0 129 128 0 127 129 0 126 130 0 125 130 0 125 130 0 125 129 0 126 128 0 127 127 0 128 125 0 130 124 0 131 122 0 133 122 0 133 122 0 133 123 0 132 124 0 131 126 0 129 127 0 128 127 0 128 127 0 128 126 0 129 125 0 130 124 0 131 123 0 132 123 0 132 125 0 130 130 0 125 146 0 109 
122 0 133 119 0 136 121 0 134 123 0 132 125 0 130 127 0 128 129 0 126 129 0 126 130 0 125 130 0 125 129 0 126 128 0 127 127 0 128 127 0 128 126 0 129 127 0 128 127 0 128 127 0 128 128 0 127 128 0 127 129 0 126 130 0 125 131 0 124 132 0 123 132 0 123 132 0 123 130 0 125 129 0 126 127 0 128 126 0 129 125 0 130 124 0 131 124 0 131 125 0 130 126 0 129 128 0 127 130 0 125 132 0 123 134 0 121 135 0 120 136 0 119 136 0 119 136 0 119 136 0 119 135 0 120 134 0 121 133 0 122 132 0 123 131 0 124 130 0 125 129 0 126 128 0 127 128 0 127 127 0 128 128 0 127 128 0 127 128 0 127 128 0 127 128 0 127 128 0 127 128 0 127 128 0 127 127 0 128 125 0 130 124 0 131 122 0 133 122 0 133 122 0 133 122 0 133 123 0 132 125 0 130 126 0 129 127 0 128 128 0 127 128 0 127 128 0 127 127 0 128 127 0 128 127 0 128 127 0 128 127 0 128 127 0 128 127 0 128 127 0 128 128 0 127 129 0 126 129 0 126 130 0 125 130 0 125 130 0 125 129 0 126 128 0 127 126 0 129 125 0 130 124 0 131 124 0 131 123 0 132 123 0 132 124 0 131 125 0 130 126 0 129 126 0 129 127 0 128 127 0 128 127 0 128 126 0 129 125 0 130 124 0 131 123 0 132 122 0 133 122 0 133 123 0 132 124 0 131 125 0 130 127 0 128 129 0 126 130 0 125 131 0 124 131 0 124 131 0 124 131 0 124 130 0 125 129 0 126 128 0 127 127 0 128 126 0 129 125 0 130 124 0 131 124 0 131 123 0 132 123 0 132 124 0 131 124 0 131 125 0 130 125 0 130 126 0 129 126 0 129 126 0 129 125 0 130 124 0 131 123 0 132 122 0 133 122 0 133 121 0 134 120 0 135 120 0 135 119 0 136 119 0 136 119 0 136 120 0 135 122 0 133 123 0 132 125 0 130 127 0 128 129 0 126 130 0 125 131 0 124 132 0 123 132 0 123 132 0 123 132 0 123 132 0 123 131 0 124 130 0 125 128 0 127 126 0 129 124 0 131 123 0 132 122 0 133 123 0 132 124 0 131 125 0 130 126 0 129 128 0 127 129 0 126 130 0 125 131 0 124 131 0 124 131 0 124 130 0 125 128 0 127 127 0 128 125 0 130 124 0 131 123 0 132 123 0 132 123 0 132 124 0 131 125 0 130 126 0 129 127 0 128 127 0 128 126 0 129 125 0 130 123 0 132 122 0 133 120 0 135 117 0 138 109 0 146 76 0 179 
96 0 159 107 0 148 116 0 139 121 0 134 124 0 131 127 0 128 128 0 127 129 0 126 130 0 125 129 0 126 129 0 126 128 0 127 127 0 128 126 0 129 126 0 129 126 0 129 126 0 129 127 0 128 127 0 128 127 0 128 128 0 127 129 0 126 130 0 125 131 0 124 131 0 124 131 0 124 130 0 125 129 0 126 127 0 128 126 0 129 125 0 130 125 0 130 125 0 130 126 0 129 127 0 128 129 0 126 131 0 124 133 0 122 135 0 120 136 0 119 137 0 118 138 0 117 138 0 117 137 0 118 136 0 119 135 0 120 134 0 121 133 0 122 131 0 124 130 0 125 129 0 126 128 0 127 127 0 128 127 0 128 127 0 128 127 0 128 127 0 128 127 0 128 128 0 127 128 0 127 128 0 127 127 0 128 126 0 129 125 0 130 124 0 131 123 0 132 122 0 133 122 0 133 123 0 132 124 0 131 126 0 129 127 0 128 127 0 128 128 0 127 128 0 127 128 0 127 128 0 127 128 0 127 127 0 128 128 0 127 128 0 127 128 0 127 128 0 127 128 0 127 128 0 127 129 0 126 129 0 126 130 0 125 130 0 125 130 0 125 129 0 126 128 0 127 127 0 128 125 0 130 124 0 131 124 0 131 124 0 131 124 0 131 125 0 130 125 0 130 126 0 129 127 0 128 127 0 128 126 0 129 126 0 129 124 0 131 123 0 132 122 0 133 121 0 134 121 0 134 121 0 134 122 0 133 124 0 131 125 0 130 127 0 128 129 0 126 130 0 125 131 0 124 131 0 124 131 0 124 131 0 124 130 0 125 129 0 126 128 0 127 127 0 128 126 0 129 125 0 130 124 0 131 123 0 132 122 0 133 122 0 133 122 0 133 123 0 132 123 0 132 124 0 131 125 0 130 125 0 130 125 0 130 124 0 131 124 0 131 123 0 132 122 0 133 121 0 134 121 0 134 120 0 135 120 0 135 119 0 136 120 0 135 120 0 135 121 0 134 122 0 133 124 0 131 125 0 130 127 0 128 128 0 127 129 0 126 130 0 125 131 0 124 132 0 123 132 0 123 132 0 123 132 0 123 131 0 124 130 0 125 128 0 127 126 0 129 124 0 131 123 0 132 123 0 132 123 0 132 124 0 131 125 0 130 126 0 129 128 0 127 129 0 126 130 0 125 131 0 124 131 0 124 131 0 124 131 0 124 129 0 126 128 0 127 126 0 129 125 0 130 124 0 131 123 0 132 123 0 132 124 0 131 124 0 131 125 0 130 126 0 129 126 0 129 126 0 129 125 0 130 123 0 132 121 0 134 119 0 136 116 0 139 113 0 142 118 0 137 
43 0 212 97 0 158 113 0 142 120 0 135 123 0 132 126 0 129 128 0 127 129 0 126 129 0 126 129 0 126 128 0 127 128 0 127 127 0 128 126 0 129 126 0 129 126 0 129 126 0 129 127 0 128 127 0 128 127 0 128 127 0 128 128 0 127 129 0 126 130 0 125 130 0 125 130 0 125 130 0 125 129 0 126 128 0 127 126 0 129 126 0 129 125 0 130 125 0 130 126 0 129 127 0 128 129 0 126 131 0 124 133 0 122 135 0 120 137 0 118 138 0 117 138 0 117 138 0 117 138 0 117 137 0 118 136 0 119 134 0 121 133 0 122 132 0 123 130 0 125 129 0 126 128 0 127 128 0 127 127 0 128 127 0 128 127 0 128 127 0 128 127 0 128 127 0 128 127 0 128 127 0 128 126 0 129 126 0 129 125 0 130 124 0 131 123 0 132 123 0 132 123 0 132 124 0 131 125 0 130 126 0 129 127 0 128 127 0 128 128 0 127 128 0 127 128 0 127 128 0 127 128 0 127 128 0 127 128 0 127 128 0 127 128 0 127 128 0 127 128 0 127 128 0 127 129 0 126 129 0 126 130 0 125 130 0 125 130 0 125 129 0 126 128 0 127 126 0 129 125 0 130 125 0 130 124 0 131 125 0 130 125 0 130 126 0 129 126 0 129 127 0 128 127 0 128 127 0 128 126 0 129 124 0 131 123 0 132 121 0 134 120 0 135 120 0 135 120 0 135 120 0 135 122 0 133 123 0 132 125 0 130 127 0 128 129 0 126 130 0 125 130 0 125 131 0 124 131 0 124 131 0 124 130 0 125 130 0 125 129 0 126 127 0 128 126 0 129 125 0 130 124 0 131 123 0 132 122 0 133 122 0 133 122 0 133 122 0 133 123 0 132 123 0 132 124 0 131 125 0 130 124 0 131 124 0 131 123 0 132 122 0 133 122 0 133 121 0 134 121 0 134 120 0 135 120 0 135 120 0 135 120 0 135 121 0 134 122 0 133 123 0 132 124 0 131 125 0 130 127 0 128 128 0 127 129 0 126 130 0 125 131 0 124 131 0 124 132 0 123 132 0 123 131 0 124 131 0 124 129 0 126 128 0 127 126 0 129 124 0 131 124 0 131 123 0 132 124 0 131 124 0 131 125 0 130 126 0 129 127 0 128 128 0 127 129 0 126 130 0 125 131 0 124 131 0 124 131 0 124 130 0 125 129 0 126 127 0 128 126 0 129 125 0 130 124 0 131 124 0 131 124 0 131 124 0 131 125 0 130 125 0 130 125 0 130 125 0 130 124 0 131 123 0 132 121 0 134 118 0 137 114 0 141 110 0 145 109 0 146 
174 0 81 125 0 130 118 0 137 120 0 135 123 0 132 125 0 130 127 0 128 128 0 127 128 0 127 128 0 127 128 0 127 127 0 128 127 0 128 126 0 129 126 0 129 126 0 129 127 0 128 127 0 128 127 0 128 127 0 128 127 0 128 127 0 128 128 0 127 129 0 126 130 0 125 130 0 125 129 0 126 129 0 126 128 0 127 127 0 128 126 0 129 126 0 129 126 0 129 126 0 129 128 0 127 129 0 126 131 0 124 133 0 122 135 0 120 137 0 118 138 0 117 138 0 117 138 0 117 137 0 118 136 0 119 135 0 120 134 0 121 133 0 122 132 0 123 131 0 124 130 0 125 129 0 126 128 0 127 128 0 127 127 0 128 127 0 128 126 0 129 126 0 129 125 0 130 125 0 130 125 0 130 125 0 130 125 0 130 124 0 131 123 0 132 123 0 132 123 0 132 123 0 132 124 0 131 125 0 130 126 0 129 126 0 129 126 0 129 127 0 128 127 0 128 127 0 128 127 0 128 127 0 128 128 0 127 128 0 127 128 0 127 128 0 127 128 0 127 128 0 127 128 0 127 129 0 126 129 0 126 129 0 126 130 0 125 129 0 126 129 0 126 127 0 128 126 0 129 125 0 130 125 0 130 125 0 130 125 0 130 126 0 129 127 0 128 127 0 128 128 0 127 127 0 128 127 0 128 125 0 130 124 0 131 122 0 133 120 0 135 119 0 136 119 0 136 119 0 136 120 0 135 121 0 134 123 0 132 125 0 130 127 0 128 128 0 127 129 0 126 130 0 125 130 0 125 130 0 125 130 0 125 130 0 125 130 0 125 129 0 126 128 0 127 127 0 128 125 0 130 124 0 131 123 0 132 122 0 133 122 0 133 122 0 133 122 0 133 123 0 132 123 0 132 124 0 131 124 0 131 124 0 131 124 0 131 123 0 132 122 0 133 122 0 133 121 0 134 121 0 134 120 0 135 120 0 135 121 0 134 121 0 134 122 0 133 123 0 132 124 0 131 125 0 130 126 0 129 127 0 128 128 0 127 129 0 126 129 0 126 130 0 125 131 0 124 131 0 124 131 0 124 131 0 124 130 0 125 128 0 127 127 0 128 126 0 129 125 0 130 124 0 131 124 0 131 125 0 130 125 0 130 126 0 129 126 0 129 127 0 128 127 0 128 128 0 127 129 0 126 130 0 125 131 0 124 130 0 125 130 0 125 129 0 126 128 0 127 126 0 129 125 0 130 124 0 131 124 0 131 124 0 131 124 0 131 124 0 131 125 0 130 125 0 130 125 0 130 124 0 131 123 0 132 121 0 134 118 0 137 113 0 142 102 0 153 68 0 187 
93 0 162 109 0 146 115 0 140 119 0 136 122 0 133 125 0 130 126 0 129 127 0 128 128 0 127 128 0 127 127 0 128 127 0 128 126 0 129 126 0 129 126 0 129 126 0 129 127 0 128 127 0 128 127 0 128 127 0 128 127 0 128 128 0 127 128 0 127 129 0 126 130 0 125 130 0 125 130 0 125 129 0 126 128 0 127 128 0 127 127 0 128 126 0 129 126 0 129 126 0 129 127 0 128 129 0 126 131 0 124 133 0 122 134 0 121 136 0 119 137 0 118 137 0 118 137 0 118 136 0 119 135 0 120 135 0 120 134 0 121 133 0 122 132 0 123 131 0 124 131 0 124 130 0 125 129 0 126 128 0 127 128 0 127 127 0 128 125 0 130 125 0 130 124 0 131 124 0 131 124 0 131 124 0 131 124 0 131 123 0 132 123 0 132 123 0 132 123 0 132 123 0 132 124 0 131 125 0 130 125 0 130 125 0 130 125 0 130 125 0 130 125 0 130 126 0 129 126 0 129 127 0 128 128 0 127 128 0 127 128 0 127 128 0 127 128 0 127 128 0 127 128 0 127 128 0 127 129 0 126 129 0 126 129 0 126 129 0 126 128 0 127 127 0 128 126 0 129 125 0 130 125 0 130 125 0 130 126 0 129 127 0 128 128 0 127 128 0 127 128 0 127 128 0 127 127 0 128 125 0 130 123 0 132 121 0 134 120 0 135 119 0 136 119 0 136 119 0 136 120 0 135 121 0 134 123 0 132 125 0 130 126 0 129 128 0 127 128 0 127 129 0 126 129 0 126 130 0 125 130 0 125 130 0 125 130 0 125 129 0 126 128 0 127 127 0 128 126 0 129 125 0 130 124 0 131 123 0 132 122 0 133 122 0 133 122 0 133 123 0 132 123 0 132 124 0 131 124 0 131 124 0 131 124 0 131 123 0 132 122 0 133 122 0 133 121 0 134 121 0 134 121 0 134 121 0 134 121 0 134 122 0 133 123 0 132 124 0 131 125 0 130 126 0 129 127 0 128 127 0 128 128 0 127 128 0 127 129 0 126 130 0 125 130 0 125 130 0 125 130 0 125 130 0 125 129 0 126 127 0 128 126 0 129 125 0 130 125 0 130 125 0 130 125 0 130 125 0 130 126 0 129 126 0 129 126 0 129 126 0 129 127 0 128 127 0 128 128 0 127 129 0 126 130 0 125 130 0 125 129 0 126 129 0 126 128 0 127 127 0 128 126 0 129 125 0 130 124 0 131 124 0 131 124 0 131 124 0 131 124 0 131 124 0 131 124 0 131 123 0 132 123 0 132 121 0 134 119 0 136 117 0 138 118 0 137 145 0 110 
74 0 181 102 0 153 113 0 142 118 0 137 122 0 133 124 0 131 125 0 130 126 0 129 127 0 128 127 0 128 127 0 128 126 0 129 126 0 129 126 0 129 126 0 129 127 0 128 127 0 128 127 0 128 127 0 128 128 0 127 128 0 127 128 0 127 129 0 126 130 0 125 130 0 125 131 0 124 131 0 124 130 0 125 129 0 126 128 0 127 128 0 127 127 0 128 126 0 129 126 0 129 127 0 128 128 0 127 130 0 125 132 0 123 134 0 121 135 0 120 136 0 119 136 0 119 136 0 119 135 0 120 134 0 121 133 0 122 133 0 122 132 0 123 132 0 123 132 0 123 132 0 123 131 0 124 130 0 125 129 0 126 128 0 127 126 0 129 125 0 130 123 0 132 122 0 133 122 0 133 122 0 133 122 0 133 122 0 133 123 0 132 123 0 132 123 0 132 123 0 132 123 0 132 124 0 131 124 0 131 124 0 131 124 0 131 124 0 131 124 0 131 124 0 131 125 0 130 125 0 130 126 0 129 127 0 128 127 0 128 128 0 127 128 0 127 128 0 127 127 0 128 128 0 127 128 0 127 128 0 127 129 0 126 129 0 126 129 0 126 128 0 127 127 0 128 126 0 129 125 0 130 125 0 130 126 0 129 127 0 128 127 0 128 128 0 127 129 0 126 129 0 126 128 0 127 127 0 128 125 0 130 124 0 131 122 0 133 120 0 135 119 0 136 119 0 136 119 0 136 120 0 135 121 0 134 123 0 132 124 0 131 126 0 129 127 0 128 128 0 127 128 0 127 128 0 127 129 0 126 129 0 126 129 0 126 129 0 126 129 0 126 129 0 126 128 0 127 127 0 128 126 0 129 125 0 130 124 0 131 123 0 132 123 0 132 123 0 132 123 0 132 124 0 131 124 0 131 125 0 130 125 0 130 124 0 131 123 0 132 123 0 132 122 0 133 121 0 134 121 0 134 121 0 134 121 0 134 121 0 134 122 0 133 123 0 132 124 0 131 126 0 129 127 0 128 127 0 128 128 0 127 128 0 127 128 0 127 129 0 126 129 0 126 130 0 125 130 0 125 129 0 126 129 0 126 127 0 128 126 0 129 125 0 130 124 0 131 124 0 131 125 0 130 126 0 129 126 0 129 126 0 129 126 0 129 126 0 129 126 0 129 126 0 129 127 0 128 127 0 128 128 0 127 129 0 126 129 0 126 129 0 126 128 0 127 127 0 128 126 0 129 125 0 130 124 0 131 124 0 131 123 0 132 123 0 132 123 0 132 123 0 132 123 0 132 123 0 132 122 0 133 122 0 133 121 0 134 120 0 135 116 0 139 107 0 148 74 0 181 
132 0 123 113 0 142 114 0 141 118 0 137 121 0 134 123 0 132 125 0 130 126 0 129 126 0 129 127 0 128 126 0 129 126 0 129 126 0 129 126 0 129 126 0 129 126 0 129 127 0 128 127 0 128 128 0 127 128 0 127 129 0 126 129 0 126 130 0 125 131 0 124 131 0 124 132 0 123 132 0 123 131 0 124 131 0 124 130 0 125 129 0 126 128 0 127 127 0 128 126 0 129 127 0 128 128 0 127 129 0 126 131 0 124 133 0 122 135 0 120 135 0 120 135 0 120 135 0 120 134 0 121 133 0 122 132 0 123 132 0 123 132 0 123 132 0 123 132 0 123 132 0 123 131 0 124 131 0 124 130 0 125 128 0 127 126 0 129 124 0 131 122 0 133 121 0 134 121 0 134 121 0 134 121 0 134 122 0 133 122 0 133 122 0 133 123 0 132 123 0 132 123 0 132 124 0 131 124 0 131 124 0 131 124 0 131 123 0 132 123 0 132 123 0 132 123 0 132 124 0 131 125 0 130 126 0 129 127 0 128 127 0 128 127 0 128 127 0 128 127 0 128 127 0 128 127 0 128 128 0 127 128 0 127 129 0 126 128 0 127 128 0 127 127 0 128 126 0 129 126 0 129 126 0 129 126 0 129 127 0 128 127 0 128 128 0 127 129 0 126 129 0 126 128 0 127 127 0 128 126 0 129 124 0 131 123 0 132 121 0 134 121 0 134 120 0 135 120 0 135 121 0 134 122 0 133 123 0 132 124 0 131 125 0 130 126 0 129 127 0 128 127 0 128 128 0 127 128 0 127 128 0 127 129 0 126 129 0 126 129 0 126 128 0 127 128 0 127 127 0 128 126 0 129 125 0 130 125 0 130 124 0 131 124 0 131 124 0 131 124 0 131 124 0 131 125 0 130 125 0 130 125 0 130 125 0 130 124 0 131 123 0 132 123 0 132 122 0 133 121 0 134 121 0 134 121 0 134 122 0 133 122 0 133 124 0 131 125 0 130 126 0 129 127 0 128 128 0 127 128 0 127 128 0 127 128 0 127 129 0 126 129 0 126 129 0 126 129 0 126 129 0 126 128 0 127 126 0 129 125 0 130 124 0 131 123 0 132 124 0 131 125 0 130 126 0 129 126 0 129 126 0 129 126 0 129 126 0 129 125 0 130 125 0 130 126 0 129 127 0 128 128 0 127 128 0 127 128 0 127 128 0 127 127 0 128 126 0 129 125 0 130 124 0 131 124 0 131 123 0 132 122 0 133 122 0 133 122 0 133 122 0 133 122 0 133 122 0 133 122 0 133 122 0 133 122 0 133 122 0 133 121 0 134 118 0 137 104 0 151 
73 0 182 101 0 154 112 0 143 118 0 137 121 0 134 123 0 132 124 0 131 125 0 130 126 0 129 126 0 129 126 0 129 126 0 129 125 0 130 125 0 130 126 0 129 126 0 129 127 0 128 127 0 128 128 0 127 128 0 127 129 0 126 130 0 125 131 0 124 131 0 124 132 0 123 133 0 122 133 0 122 133 0 122 132 0 123 131 0 124 130 0 125 129 0 126 128 0 127 127 0 128 127 0 128 128 0 127 129 0 126 131 0 124 132 0 123 134 0 121 134 0 121 134 0 121 134 0 121 133 0 122 132 0 123 131 0 124 131 0 124 131 0 124 131 0 124 132 0 123 132 0 123 131 0 124 131 0 124 129 0 126 128 0 127 126 0 129 124 0 131 122 0 133 120 0 135 120 0 135 120 0 135 120 0 135 121 0 134 122 0 133 123 0 132 123 0 132 124 0 131 124 0 131 124 0 131 124 0 131 124 0 131 124 0 131 123 0 132 122 0 133 122 0 133 123 0 132 123 0 132 124 0 131 125 0 130 126 0 129 126 0 129 126 0 129 126 0 129 126 0 129 126 0 129 127 0 128 127 0 128 128 0 127 128 0 127 128 0 127 128 0 127 127 0 128 127 0 128 126 0 129 126 0 129 126 0 129 126 0 129 127 0 128 128 0 127 128 0 127 129 0 126 128 0 127 127 0 128 126 0 129 125 0 130 124 0 131 123 0 132 122 0 133 122 0 133 122 0 133 122 0 133 122 0 133 123 0 132 124 0 131 125 0 130 126 0 129 126 0 129 127 0 128 127 0 128 128 0 127 128 0 127 128 0 127 128 0 127 128 0 127 128 0 127 127 0 128 127 0 128 126 0 129 126 0 129 125 0 130 125 0 130 125 0 130 125 0 130 125 0 130 125 0 130 125 0 130 125 0 130 125 0 130 125 0 130 125 0 130 124 0 131 124 0 131 123 0 132 122 0 133 122 0 133 122 0 133 122 0 133 123 0 132 124 0 131 126 0 129 127 0 128 128 0 127 129 0 126 129 0 126 129 0 126 129 0 126 128 0 127 128 0 127 129 0 126 128 0 127 128 0 127 127 0 128 125 0 130 124 0 131 123 0 132 123 0 132 123 0 132 124 0 131 125 0 130 126 0 129 126 0 129 126 0 129 126 0 129 126 0 129 126 0 129 126 0 129 127 0 128 127 0 128 128 0 127 128 0 127 127 0 128 126 0 129 125 0 130 124 0 131 123 0 132 122 0 133 122 0 133 121 0 134 121 0 134 121 0 134 120 0 135 121 0 134 121 0 134 121 0 134 122 0 133 123 0 132 124 0 131 128 0 127 140 0 115 175 0 80 
101 0 154 107 0 148 114 0 141 119 0 136 122 0 133 123 0 132 124 0 131 125 0 130 126 0 129 126 0 129 126 0 129 125 0 130 125 0 130 125 0 130 125 0 130 126 0 129 126 0 129 127 0 128 128 0 127 128 0 127 129 0 126 130 0 125 131 0 124 132 0 123 133 0 122 134 0 121 134 0 121 134 0 121 133 0 122 132 0 123 131 0 124 130 0 125 129 0 126 128 0 127 127 0 128 128 0 127 129 0 126 130 0 125 132 0 123 133 0 122 134 0 121 133 0 122 132 0 123 131 0 124 130 0 125 130 0 125 130 0 125 130 0 125 131 0 124 131 0 124 131 0 124 131 0 124 130 0 125 129 0 126 127 0 128 125 0 130 123 0 132 121 0 134 120 0 135 119 0 136 120 0 135 120 0 135 122 0 133 123 0 132 123 0 132 124 0 131 125 0 130 125 0 130 125 0 130 125 0 130 125 0 130 124 0 131 123 0 132 122 0 133 122 0 133 122 0 133 123 0 132 124 0 131 124 0 131 125 0 130 125 0 130 125 0 130 125 0 130 125 0 130 125 0 130 126 0 129 127 0 128 128 0 127 128 0 127 129 0 126 128 0 127 128 0 127 127 0 128 126 0 129 126 0 129 126 0 129 126 0 129 127 0 128 128 0 127 128 0 127 128 0 127 128 0 127 127 0 128 126 0 129 125 0 130 124 0 131 124 0 131 123 0 132 123 0 132 123 0 132 123 0 132 123 0 132 123 0 132 124 0 131 125 0 130 126 0 129 127 0 128 127 0 128 127 0 128 128 0 127 128 0 127 128 0 127 128 0 127 127 0 128 127 0 128 127 0 128 126 0 129 126 0 129 126 0 129 125 0 130 125 0 130 125 0 130 125 0 130 125 0 130 125 0 130 125 0 130 126 0 129 126 0 129 126 0 129 126 0 129 125 0 130 125 0 130 124 0 131 124 0 131 123 0 132 123 0 132 123 0 132 124 0 131 125 0 130 127 0 128 128 0 127 129 0 126 130 0 125 130 0 125 129 0 126 129 0 126 129 0 126 128 0 127 128 0 127 128 0 127 128 0 127 127 0 128 125 0 130 123 0 132 122 0 133 122 0 133 123 0 132 124 0 131 125 0 130 126 0 129 126 0 129 127 0 128 126 0 129 126 0 129 126 0 129 126 0 129 127 0 128 127 0 128 127 0 128 127 0 128 126 0 129 125 0 130 124 0 131 123 0 132 122 0 133 121 0 134 120 0 135 120 0 135 119 0 136 119 0 136 120 0 135 120 0 135 120 0 135 121 0 134 121 0 134 123 0 132 125 0 130 129 0 126 137 0 118 165 0 90 
92 0 163 111 0 144 118 0 137 121 0 134 123 0 132 124 0 131 124 0 131 125 0 130 125 0 130 125 0 130 125 0 130 125 0 130 125 0 130 125 0 130 125 0 130 125 0 130 126 0 129 127 0 128 127 0 128 128 0 127 129 0 126 130 0 125 131 0 124 133 0 122 134 0 121 134 0 121 135 0 120 135 0 120 134 0 121 134 0 121 133 0 122 131 0 124 130 0 125 129 0 126 129 0 126 129 0 126 129 0 126 131 0 124 132 0 123 133 0 122 133 0 122 132 0 123 131 0 124 130 0 125 129 0 126 128 0 127 128 0 127 129 0 126 129 0 126 130 0 125 130 0 125 130 0 125 129 0 126 128 0 127 127 0 128 125 0 130 123 0 132 121 0 134 120 0 135 120 0 135 120 0 135 121 0 134 122 0 133 123 0 132 124 0 131 125 0 130 126 0 129 126 0 129 127 0 128 127 0 128 126 0 129 125 0 130 124 0 131 123 0 132 122 0 133 122 0 133 123 0 132 123 0 132 124 0 131 124 0 131 125 0 130 125 0 130 125 0 130 125 0 130 125 0 130 126 0 129 127 0 128 128 0 127 129 0 126 129 0 126 129 0 126 128 0 127 127 0 128 126 0 129 125 0 130 125 0 130 126 0 129 127 0 128 128 0 127 129 0 126 129 0 126 128 0 127 128 0 127 127 0 128 126 0 129 125 0 130 124 0 131 124 0 131 124 0 131 124 0 131 124 0 131 124 0 131 124 0 131 125 0 130 126 0 129 126 0 129 127 0 128 127 0 128 128 0 127 128 0 127 128 0 127 128 0 127 127 0 128 127 0 128 126 0 129 126 0 129 126 0 129 126 0 129 126 0 129 126 0 129 126 0 129 126 0 129 126 0 129 125 0 130 125 0 130 125 0 130 126 0 129 126 0 129 127 0 128 127 0 128 127 0 128 126 0 129 126 0 129 125 0 130 125 0 130 125 0 130 125 0 130 125 0 130 126 0 129 128 0 127 129 0 126 130 0 125 130 0 125 130 0 125 130 0 125 129 0 126 129 0 126 129 0 126 129 0 126 128 0 127 128 0 127 127 0 128 125 0 130 123 0 132 122 0 133 122 0 133 122 0 133 123 0 132 125 0 130 126 0 129 127 0 128 127 0 128 127 0 128 127 0 128 127 0 128 127 0 128 127 0 128 127 0 128 127 0 128 126 0 129 126 0 129 125 0 130 123 0 132 122 0 133 121 0 134 120 0 135 119 0 136 119 0 136 119 0 136 119 0 136 119 0 136 120 0 135 120 0 135 121 0 134 122 0 133 123 0 132 124 0 131 124 0 131 117 0 138 69 0 186 
141 0 114 128 0 127 124 0 131 123 0 132 124 0 131 124 0 131 125 0 130 125 0 130 125 0 130 125 0 130 125 0 130 124 0 131 124 0 131 124 0 131 125 0 130 125 0 130 126 0 129 126 0 129 127 0 128 128 0 127 129 0 126 130 0 125 132 0 123 133 0 122 134 0 121 135 0 120 135 0 120 135 0 120 135 0 120 135 0 120 134 0 121 133 0 122 132 0 123 131 0 124 130 0 125 130 0 125 130 0 125 131 0 124 132 0 123 132 0 123 132 0 123 131 0 124 129 0 126 128 0 127 127 0 128 127 0 128 127 0 128 128 0 127 128 0 127 128 0 127 128 0 127 128 0 127 128 0 127 127 0 128 126 0 129 124 0 131 123 0 132 121 0 134 120 0 135 120 0 135 121 0 134 122 0 133 123 0 132 124 0 131 125 0 130 126 0 129 127 0 128 127 0 128 128 0 127 128 0 127 128 0 127 127 0 128 125 0 130 124 0 131 123 0 132 123 0 132 123 0 132 123 0 132 124 0 131 124 0 131 124 0 131 124 0 131 124 0 131 125 0 130 125 0 130 126 0 129 127 0 128 128 0 127 129 0 126 129 0 126 129 0 126 128 0 127 127 0 128 126 0 129 125 0 130 125 0 130 126 0 129 127 0 128 128 0 127 129 0 126 129 0 126 129 0 126 128 0 127 127 0 128 126 0 129 125 0 130 125 0 130 125 0 130 125 0 130 125 0 130 125 0 130 125 0 130 125 0 130 126 0 129 126 0 129 127 0 128 127 0 128 128 0 127 128 0 127 128 0 127 128 0 127 127 0 128 127 0 128 126 0 129 126 0 129 126 0 129 125 0 130 125 0 130 125 0 130 126 0 129 126 0 129 126 0 129 126 0 129 125 0 130 125 0 130 125 0 130 126 0 129 126 0 129 127 0 128 127 0 128 128 0 127 128 0 127 127 0 128 127 0 128 127 0 128 126 0 129 126 0 129 127 0 128 128 0 127 129 0 126 130 0 125 131 0 124 131 0 124 131 0 124 131 0 124 130 0 125 130 0 125 129 0 126 129 0 126 129 0 126 128 0 127 127 0 128 125 0 130 123 0 132 122 0 133 121 0 134 122 0 133 123 0 132 124 0 131 126 0 129 127 0 128 128 0 127 129 0 126 129 0 126 129 0 126 128 0 127 128 0 127 127 0 128 127 0 128 126 0 129 125 0 130 124 0 131 123 0 132 122 0 133 120 0 135 119 0 136 119 0 136 119 0 136 119 0 136 119 0 136 120 0 135 120 0 135 121 0 134 121 0 134 122 0 133 124 0 131 125 0 130 128 0 127 135 0 120 163 0 92 
160 0 95 135 0 120 127 0 128 125 0 130 124 0 131 125 0 130 125 0 130 125 0 130 125 0 130 125 0 130 124 0 131 124 0 131 124 0 131 124 0 131 125 0 130 125 0 130 126 0 129 126 0 129 127 0 128 128 0 127 129 0 126 131 0 124 132 0 123 133 0 122 134 0 121 135 0 120 136 0 119 136 0 119 136 0 119 135 0 120 135 0 120 134 0 121 133 0 122 132 0 123 131 0 124 131 0 124 131 0 124 131 0 124 131 0 124 131 0 124 131 0 124 130 0 125 128 0 127 127 0 128 126 0 129 126 0 129 126 0 129 126 0 129 127 0 128 127 0 128 127 0 128 127 0 128 126 0 129 126 0 129 125 0 130 124 0 131 122 0 133 121 0 134 121 0 134 121 0 134 121 0 134 122 0 133 123 0 132 125 0 130 126 0 129 126 0 129 127 0 128 128 0 127 128 0 127 129 0 126 129 0 126 128 0 127 127 0 128 125 0 130 124 0 131 124 0 131 123 0 132 124 0 131 124 0 131 124 0 131 124 0 131 124 0 131 125 0 130 125 0 130 125 0 130 126 0 129 127 0 128 128 0 127 129 0 126 129 0 126 129 0 126 128 0 127 126 0 129 125 0 130 124 0 131 125 0 130 126 0 129 127 0 128 128 0 127 129 0 126 130 0 125 129 0 126 128 0 127 127 0 128 125 0 130 125 0 130 124 0 131 124 0 131 125 0 130 125 0 130 126 0 129 126 0 129 126 0 129 126 0 129 127 0 128 127 0 128 128 0 127 128 0 127 128 0 127 128 0 127 127 0 128 127 0 128 126 0 129 126 0 129 126 0 129 125 0 130 125 0 130 125 0 130 125 0 130 126 0 129 126 0 129 126 0 129 125 0 130 125 0 130 125 0 130 125 0 130 125 0 130 126 0 129 127 0 128 128 0 127 129 0 126 129 0 126 129 0 126 128 0 127 128 0 127 128 0 127 128 0 127 128 0 127 129 0 126 129 0 126 130 0 125 131 0 124 132 0 123 132 0 123 131 0 124 131 0 124 131 0 124 130 0 125 130 0 125 130 0 125 129 0 126 127 0 128 126 0 129 124 0 131 122 0 133 122 0 133 122 0 133 123 0 132 125 0 130 126 0 129 128 0 127 129 0 126 130 0 125 130 0 125 130 0 125 129 0 126 129 0 126 128 0 127 127 0 128 126 0 129 125 0 130 124 0 131 123 0 132 122 0 133 121 0 134 120 0 135 119 0 136 119 0 136 119 0 136 120 0 135 120 0 135 121 0 134 121 0 134 122 0 133 123 0 132 124 0 131 126 0 129 129 0 126 134 0 121 150 0 105 
131 0 124 125 0 130 123 0 132 124 0 131 124 0 131 125 0 130 125 0 130 125 0 130 125 0 130 125 0 130 124 0 131 124 0 131 124 0 131 124 0 131 125 0 130 125 0 130 126 0 129 126 0 129 127 0 128 128 0 127 129 0 126 131 0 124 132 0 123 134 0 121 135 0 120 136 0 119 136 0 119 136 0 119 136 0 119 136 0 119 135 0 120 134 0 121 133 0 122 132 0 123 132 0 123 131 0 124 131 0 124 131 0 124 131 0 124 131 0 124 130 0 125 129 0 126 127 0 128 126 0 129 125 0 130 125 0 130 125 0 130 126 0 129 126 0 129 126 0 129 126 0 129 125 0 130 125 0 130 125 0 130 124 0 131 123 0 132 122 0 133 121 0 134 121 0 134 121 0 134 121 0 134 122 0 133 123 0 132 124 0 131 125 0 130 126 0 129 127 0 128 128 0 127 129 0 126 129 0 126 129 0 126 129 0 126 128 0 127 126 0 129 125 0 130 124 0 131 124 0 131 124 0 131 124 0 131 124 0 131 124 0 131 124 0 131 124 0 131 125 0 130 126 0 129 127 0 128 128 0 127 128 0 127 129 0 126 129 0 126 128 0 127 127 0 128 126 0 129 125 0 130 124 0 131 124 0 131 125 0 130 127 0 128 129 0 126 130 0 125 130 0 125 129 0 126 128 0 127 126 0 129 125 0 130 124 0 131 123 0 132 124 0 131 124 0 131 125 0 130 126 0 129 126 0 129 126 0 129 126 0 129 126 0 129 127 0 128 127 0 128 127 0 128 127 0 128 127 0 128 127 0 128 126 0 129 126 0 129 126 0 129 126 0 129 125 0 130 125 0 130 125 0 130 125 0 130 125 0 130 125 0 130 125 0 130 125 0 130 124 0 131 124 0 131 124 0 131 125 0 130 126 0 129 127 0 128 128 0 127 129 0 126 129 0 126 130 0 125 129 0 126 129 0 126 129 0 126 128 0 127 129 0 126 129 0 126 130 0 125 131 0 124 132 0 123 132 0 123 132 0 123 132 0 123 132 0 123 132 0 123 131 0 124 131 0 124 130 0 125 129 0 126 128 0 127 126 0 129 124 0 131 123 0 132 122 0 133 123 0 132 124 0 131 125 0 130 127 0 128 129 0 126 131 0 124 132 0 123 132 0 123 131 0 124 131 0 124 129 0 126 128 0 127 127 0 128 126 0 129 125 0 130 124 0 131 123 0 132 122 0 133 121 0 134 121 0 134 120 0 135 120 0 135 121 0 134 121 0 134 121 0 134 122 0 133 122 0 133 123 0 132 124 0 131 125 0 130 126 0 129 127 0 128 123 0 132 108 0 147 
85 0 170 109 0 146 118 0 137 123 0 132 125 0 130 126 0 129 126 0 129 126 0 129 126 0 129 125 0 130 125 0 130 124 0 131 124 0 131 124 0 131 125 0 130 125 0 130 126 0 129 127 0 128 127 0 128 128 0 127 130 0 125 131 0 124 133 0 122 134 0 121 135 0 120 136 0 119 136 0 119 136 0 119 136 0 119 135 0 120 135 0 120 134 0 121 133 0 122 133 0 122 132 0 123 132 0 123 131 0 124 131 0 124 131 0 124 130 0 125 129 0 126 128 0 127 127 0 128 125 0 130 125 0 130 125 0 130 125 0 130 125 0 130 125 0 130 125 0 130 125 0 130 125 0 130 124 0 131 124 0 131 123 0 132 123 0 132 122 0 133 121 0 134 121 0 134 121 0 134 122 0 133 122 0 133 123 0 132 124 0 131 125 0 130 125 0 130 126 0 129 127 0 128 128 0 127 129 0 126 129 0 126 129 0 126 128 0 127 127 0 128 126 0 129 125 0 130 124 0 131 124 0 131 124 0 131 123 0 132 124 0 131 124 0 131 124 0 131 125 0 130 126 0 129 127 0 128 128 0 127 129 0 126 129 0 126 129 0 126 128 0 127 127 0 128 126 0 129 124 0 131 124 0 131 124 0 131 125 0 130 127 0 128 128 0 127 129 0 126 129 0 126 128 0 127 127 0 128 125 0 130 124 0 131 123 0 132 122 0 133 123 0 132 123 0 132 124 0 131 125 0 130 125 0 130 126 0 129 126 0 129 126 0 129 126 0 129 126 0 129 126 0 129 126 0 129 126 0 129 126 0 129 126 0 129 126 0 129 126 0 129 125 0 130 125 0 130 125 0 130 125 0 130 125 0 130 125 0 130 125 0 130 124 0 131 124 0 131 124 0 131 124 0 131 124 0 131 125 0 130 126 0 129 127 0 128 128 0 127 129 0 126 130 0 125 130 0 125 130 0 125 129 0 126 129 0 126 129 0 126 129 0 126 129 0 126 130 0 125 131 0 124 132 0 123 132 0 123 133 0 122 133 0 122 133 0 122 132 0 123 132 0 123 131 0 124 131 0 124 130 0 125 128 0 127 127 0 128 125 0 130 124 0 131 124 0 131 124 0 131 125 0 130 126 0 129 128 0 127 130 0 125 132 0 123 133 0 122 133 0 122 132 0 123 131 0 124 130 0 125 128 0 127 127 0 128 126 0 129 125 0 130 124 0 131 124 0 131 123 0 132 122 0 133 122 0 133 121 0 134 121 0 134 122 0 133 122 0 133 122 0 133 122 0 133 123 0 132 123 0 132 124 0 131 125 0 130 127 0 128 129 0 126 124 0 131 90 0 165 
68 0 187 106 0 149 119 0 136 124 0 131 126 0 129 127 0 128 127 0 128 127 0 128 126 0 129 126 0 129 125 0 130 124 0 131 124 0 131 124 0 131 125 0 130 125 0 130 126 0 129 126 0 129 127 0 128 128 0 127 130 0 125 131 0 124 133 0 122 134 0 121 135 0 120 136 0 119 136 0 119 136 0 119 135 0 120 135 0 120 134 0 121 133 0 122 133 0 122 132 0 123 132 0 123 131 0 124 131 0 124 131 0 124 131 0 124 130 0 125 129 0 126 128 0 127 126 0 129 125 0 130 125 0 130 124 0 131 125 0 130 125 0 130 125 0 130 125 0 130 124 0 131 124 0 131 124 0 131 123 0 132 123 0 132 122 0 133 122 0 133 121 0 134 121 0 134 121 0 134 122 0 133 122 0 133 123 0 132 123 0 132 124 0 131 124 0 131 125 0 130 126 0 129 127 0 128 128 0 127 129 0 126 129 0 126 128 0 127 127 0 128 126 0 129 125 0 130 124 0 131 123 0 132 123 0 132 122 0 133 122 0 133 123 0 132 123 0 132 124 0 131 125 0 130 127 0 128 128 0 127 128 0 127 129 0 126 129 0 126 128 0 127 127 0 128 126 0 129 124 0 131 124 0 131 124 0 131 125 0 130 127 0 128 128 0 127 129 0 126 129 0 126 128 0 127 126 0 129 124 0 131 122 0 133 121 0 134 121 0 134 121 0 134 122 0 133 123 0 132 124 0 131 125 0 130 125 0 130 125 0 130 125 0 130 125 0 130 125 0 130 125 0 130 125 0 130 125 0 130 125 0 130 125 0 130 125 0 130 125 0 130 125 0 130 125 0 130 125 0 130 125 0 130 125 0 130 124 0 131 124 0 131 123 0 132 123 0 132 123 0 132 123 0 132 123 0 132 124 0 131 125 0 130 127 0 128 128 0 127 129 0 126 129 0 126 129 0 126 129 0 126 129 0 126 128 0 127 128 0 127 129 0 126 129 0 126 130 0 125 131 0 124 132 0 123 133 0 122 133 0 122 133 0 122 133 0 122 133 0 122 132 0 123 131 0 124 131 0 124 130 0 125 129 0 126 127 0 128 126 0 129 125 0 130 125 0 130 125 0 130 126 0 129 128 0 127 129 0 126 131 0 124 132 0 123 133 0 122 133 0 122 133 0 122 131 0 124 130 0 125 128 0 127 127 0 128 126 0 129 125 0 130 125 0 130 124 0 131 124 0 131 123 0 132 123 0 132 122 0 133 122 0 133 123 0 132 123 0 132 123 0 132 122 0 133 122 0 133 123 0 132 124 0 131 126 0 129 130 0 125 136 0 119 155 0 100 232 0 23 
148 0 107 130 0 125 127 0 128 127 0 128 128 0 127 128 0 127 128 0 127 128 0 127 127 0 128 126 0 129 126 0 129 125 0 130 124 0 131 124 0 131 125 0 130 125 0 130 125 0 130 126 0 129 127 0 128 128 0 127 129 0 126 131 0 124 132 0 123 133 0 122 134 0 121 135 0 120 135 0 120 135 0 120 134 0 121 134 0 121 133 0 122 132 0 123 131 0 124 131 0 124 131 0 124 131 0 124 131 0 124 131 0 124 130 0 125 130 0 125 129 0 126 128 0 127 126 0 129 125 0 130 125 0 130 125 0 130 125 0 130 125 0 130 125 0 130 125 0 130 124 0 131 124 0 131 123 0 132 123 0 132 122 0 133 122 0 133 121 0 134 121 0 134 121 0 134 122 0 133 122 0 133 122 0 133 123 0 132 123 0 132 123 0 132 123 0 132 124 0 131 125 0 130 126 0 129 127 0 128 128 0 127 128 0 127 127 0 128 126 0 129 125 0 130 124 0 131 123 0 132 122 0 133 122 0 133 121 0 134 121 0 134 122 0 133 122 0 133 123 0 132 125 0 130 126 0 129 127 0 128 128 0 127 129 0 126 128 0 127 128 0 127 127 0 128 126 0 129 125 0 130 125 0 130 125 0 130 126 0 129 127 0 128 128 0 127 128 0 127 128 0 127 126 0 129 125 0 130 123 0 132 121 0 134 120 0 135 120 0 135 120 0 135 121 0 134 122 0 133 123 0 132 123 0 132 124 0 131 124 0 131 124 0 131 124 0 131 124 0 131 124 0 131 124 0 131 124 0 131 124 0 131 124 0 131 124 0 131 125 0 130 125 0 130 125 0 130 125 0 130 125 0 130 124 0 131 123 0 132 122 0 133 122 0 133 122 0 133 122 0 133 122 0 133 123 0 132 124 0 131 125 0 130 126 0 129 127 0 128 128 0 127 128 0 127 128 0 127 128 0 127 128 0 127 127 0 128 127 0 128 128 0 127 129 0 126 130 0 125 131 0 124 132 0 123 133 0 122 133 0 122 133 0 122 133 0 122 132 0 123 132 0 123 131 0 124 130 0 125 130 0 125 129 0 126 128 0 127 127 0 128 127 0 128 127 0 128 127 0 128 128 0 127 129 0 126 130 0 125 132 0 123 133 0 122 133 0 122 133 0 122 132 0 123 131 0 124 130 0 125 128 0 127 127 0 128 127 0 128 126 0 129 125 0 130 125 0 130 124 0 131 123 0 132 123 0 132 123 0 132 123 0 132 123 0 132 123 0 132 122 0 133 122 0 133 122 0 133 122 0 133 124 0 131 126 0 129 129 0 126 132 0 123 127 0 128 79 0 176 
151 0 104 137 0 118 132 0 123 131 0 124 131 0 124 130 0 125 130 0 125 129 0 126 128 0 127 127 0 128 126 0 129 125 0 130 124 0 131 124 0 131 124 0 131 124 0 131 124 0 131 125 0 130 126 0 129 127 0 128 128 0 127 130 0 125 131 0 124 133 0 122 134 0 121 135 0 120 135 0 120 134 0 121 133 0 122 132 0 123 131 0 124 130 0 125 130 0 125 130 0 125 130 0 125 130 0 125 130 0 125 130 0 125 130 0 125 129 0 126 128 0 127 128 0 127 127 0 128 126 0 129 125 0 130 125 0 130 125 0 130 125 0 130 125 0 130 125 0 130 125 0 130 124 0 131 124 0 131 123 0 132 122 0 133 122 0 133 122 0 133 122 0 133 122 0 133 122 0 133 123 0 132 123 0 132 123 0 132 123 0 132 123 0 132 123 0 132 123 0 132 124 0 131 125 0 130 126 0 129 127 0 128 127 0 128 127 0 128 126 0 129 125 0 130 124 0 131 123 0 132 122 0 133 121 0 134 120 0 135 120 0 135 121 0 134 121 0 134 123 0 132 124 0 131 126 0 129 127 0 128 128 0 127 128 0 127 128 0 127 128 0 127 127 0 128 127 0 128 126 0 129 126 0 129 126 0 129 126 0 129 127 0 128 128 0 127 128 0 127 127 0 128 126 0 129 124 0 131 122 0 133 121 0 134 120 0 135 119 0 136 120 0 135 120 0 135 121 0 134 122 0 133 122 0 133 123 0 132 123 0 132 123 0 132 123 0 132 123 0 132 123 0 132 123 0 132 122 0 133 122 0 133 123 0 132 123 0 132 124 0 131 125 0 130 125 0 130 125 0 130 124 0 131 123 0 132 122 0 133 121 0 134 120 0 135 120 0 135 121 0 134 121 0 134 122 0 133 123 0 132 124 0 131 126 0 129 126 0 129 127 0 128 127 0 128 127 0 128 127 0 128 126 0 129 126 0 129 126 0 129 127 0 128 128 0 127 129 0 126 131 0 124 132 0 123 133 0 122 133 0 122 133 0 122 132 0 123 132 0 123 131 0 124 130 0 125 130 0 125 129 0 126 129 0 126 129 0 126 129 0 126 129 0 126 129 0 126 129 0 126 130 0 125 131 0 124 132 0 123 132 0 123 133 0 122 133 0 122 132 0 123 131 0 124 130 0 125 129 0 126 128 0 127 128 0 127 127 0 128 126 0 129 126 0 129 125 0 130 124 0 131 123 0 132 123 0 132 123 0 132 122 0 133 122 0 133 122 0 133 122 0 133 121 0 134 121 0 134 121 0 134 123 0 132 126 0 129 129 0 126 135 0 120 143 0 112 160 0 95 
136 0 119 135 0 120 133 0 122 133 0 122 132 0 123 132 0 123 131 0 124 130 0 125 129 0 126 128 0 127 126 0 129 125 0 130 124 0 131 123 0 132 123 0 132 123 0 132 123 0 132 123 0 132 124 0 131 126 0 129 127 0 128 129 0 126 130 0 125 132 0 123 133 0 122 134 0 121 134 0 121 133 0 122 132 0 123 131 0 124 130 0 125 129 0 126 128 0 127 129 0 126 129 0 126 129 0 126 130 0 125 130 0 125 129 0 126 129 0 126 128 0 127 128 0 127 127 0 128 126 0 129 126 0 129 126 0 129 126 0 129 126 0 129 126 0 129 126 0 129 125 0 130 125 0 130 124 0 131 123 0 132 123 0 132 123 0 132 122 0 133 123 0 132 123 0 132 124 0 131 124 0 131 125 0 130 125 0 130 124 0 131 124 0 131 123 0 132 123 0 132 124 0 131 125 0 130 126 0 129 126 0 129 126 0 129 126 0 129 125 0 130 124 0 131 123 0 132 122 0 133 121 0 134 121 0 134 120 0 135 120 0 135 120 0 135 121 0 134 122 0 133 124 0 131 126 0 129 127 0 128 128 0 127 128 0 127 128 0 127 128 0 127 128 0 127 127 0 128 127 0 128 127 0 128 127 0 128 127 0 128 128 0 127 128 0 127 127 0 128 127 0 128 125 0 130 123 0 132 122 0 133 121 0 134 120 0 135 119 0 136 119 0 136 119 0 136 120 0 135 121 0 134 121 0 134 122 0 133 123 0 132 123 0 132 123 0 132 123 0 132 122 0 133 122 0 133 122 0 133 122 0 133 122 0 133 123 0 132 123 0 132 124 0 131 124 0 131 124 0 131 124 0 131 122 0 133 121 0 134 120 0 135 119 0 136 119 0 136 120 0 135 121 0 134 122 0 133 123 0 132 124 0 131 125 0 130 126 0 129 126 0 129 126 0 129 126 0 129 125 0 130 125 0 130 124 0 131 125 0 130 126 0 129 127 0 128 129 0 126 131 0 124 132 0 123 133 0 122 133 0 122 132 0 123 131 0 124 130 0 125 130 0 125 129 0 126 129 0 126 129 0 126 130 0 125 130 0 125 130 0 125 131 0 124 131 0 124 132 0 123 132 0 123 133 0 122 133 0 122 133 0 122 133 0 122 132 0 123 131 0 124 130 0 125 129 0 126 129 0 126 128 0 127 128 0 127 127 0 128 127 0 128 126 0 129 125 0 130 124 0 131 123 0 132 122 0 133 122 0 133 122 0 133 121 0 134 121 0 134 121 0 134 120 0 135 120 0 135 121 0 134 122 0 133 125 0 130 129 0 126 136 0 119 151 0 104 196 0 59 
122 0 133 132 0 123 133 0 122 133 0 122 133 0 122 133 0 122 132 0 123 131 0 124 130 0 125 128 0 127 126 0 129 125 0 130 124 0 131 122 0 133 122 0 133 121 0 134 121 0 134 122 0 133 123 0 132 124 0 131 126 0 129 128 0 127 129 0 126 131 0 124 132 0 123 133 0 122 133 0 122 133 0 122 131 0 124 130 0 125 129 0 126 128 0 127 127 0 128 128 0 127 128 0 127 129 0 126 129 0 126 129 0 126 129 0 126 129 0 126 128 0 127 128 0 127 128 0 127 127 0 128 127 0 128 127 0 128 127 0 128 127 0 128 127 0 128 126 0 129 126 0 129 125 0 130 125 0 130 124 0 131 124 0 131 124 0 131 124 0 131 124 0 131 125 0 130 126 0 129 127 0 128 127 0 128 126 0 129 126 0 129 125 0 130 124 0 131 124 0 131 125 0 130 125 0 130 126 0 129 126 0 129 126 0 129 126 0 129 125 0 130 124 0 131 123 0 132 123 0 132 122 0 133 121 0 134 121 0 134 120 0 135 121 0 134 121 0 134 123 0 132 124 0 131 126 0 129 127 0 128 128 0 127 128 0 127 128 0 127 128 0 127 128 0 127 128 0 127 128 0 127 128 0 127 128 0 127 129 0 126 129 0 126 128 0 127 128 0 127 127 0 128 125 0 130 123 0 132 122 0 133 121 0 134 120 0 135 119 0 136 119 0 136 119 0 136 120 0 135 120 0 135 121 0 134 122 0 133 123 0 132 123 0 132 123 0 132 123 0 132 123 0 132 122 0 133 121 0 134 121 0 134 121 0 134 122 0 133 123 0 132 124 0 131 124 0 131 124 0 131 123 0 132 122 0 133 121 0 134 119 0 136 118 0 137 118 0 137 119 0 136 120 0 135 121 0 134 122 0 133 123 0 132 124 0 131 125 0 130 125 0 130 125 0 130 125 0 130 124 0 131 123 0 132 123 0 132 124 0 131 125 0 130 127 0 128 129 0 126 130 0 125 132 0 123 132 0 123 132 0 123 131 0 124 130 0 125 129 0 126 128 0 127 128 0 127 128 0 127 129 0 126 130 0 125 131 0 124 132 0 123 133 0 122 134 0 121 134 0 121 135 0 120 135 0 120 134 0 121 134 0 121 133 0 122 131 0 124 130 0 125 129 0 126 128 0 127 128 0 127 127 0 128 127 0 128 127 0 128 127 0 128 126 0 129 125 0 130 124 0 131 122 0 133 122 0 133 121 0 134 121 0 134 120 0 135 120 0 135 119 0 136 119 0 136 119 0 136 120 0 135 121 0 134 123 0 132 126 0 129 130 0 125 131 0 124 117 0 138 
169 0 86 138 0 117 134 0 121 133 0 122 133 0 122 133 0 122 132 0 123 131 0 124 129 0 126 128 0 127 126 0 129 125 0 130 123 0 132 122 0 133 121 0 134 120 0 135 120 0 135 121 0 134 122 0 133 123 0 132 125 0 130 127 0 128 129 0 126 130 0 125 131 0 124 132 0 123 132 0 123 132 0 123 131 0 124 129 0 126 128 0 127 127 0 128 127 0 128 127 0 128 128 0 127 128 0 127 128 0 127 129 0 126 129 0 126 128 0 127 128 0 127 128 0 127 128 0 127 128 0 127 128 0 127 128 0 127 128 0 127 128 0 127 128 0 127 127 0 128 127 0 128 126 0 129 126 0 129 125 0 130 125 0 130 125 0 130 125 0 130 126 0 129 127 0 128 128 0 127 129 0 126 129 0 126 129 0 126 128 0 127 127 0 128 126 0 129 126 0 129 126 0 129 126 0 129 127 0 128 127 0 128 127 0 128 126 0 129 125 0 130 125 0 130 124 0 131 123 0 132 123 0 132 122 0 133 122 0 133 121 0 134 121 0 134 122 0 133 123 0 132 124 0 131 126 0 129 127 0 128 127 0 128 128 0 127 128 0 127 128 0 127 128 0 127 128 0 127 129 0 126 129 0 126 130 0 125 130 0 125 130 0 125 129 0 126 128 0 127 127 0 128 125 0 130 124 0 131 122 0 133 121 0 134 120 0 135 120 0 135 119 0 136 119 0 136 119 0 136 120 0 135 121 0 134 122 0 133 123 0 132 124 0 131 124 0 131 124 0 131 123 0 132 122 0 133 121 0 134 121 0 134 121 0 134 121 0 134 122 0 133 123 0 132 124 0 131 124 0 131 123 0 132 122 0 133 120 0 135 119 0 136 118 0 137 118 0 137 118 0 137 119 0 136 120 0 135 121 0 134 122 0 133 123 0 132 124 0 131 124 0 131 124 0 131 123 0 132 122 0 133 122 0 133 122 0 133 122 0 133 124 0 131 126 0 129 128 0 127 130 0 125 131 0 124 131 0 124 131 0 124 130 0 125 129 0 126 128 0 127 127 0 128 127 0 128 128 0 127 129 0 126 131 0 124 132 0 123 133 0 122 135 0 120 135 0 120 136 0 119 137 0 118 137 0 118 136 0 119 134 0 121 133 0 122 131 0 124 129 0 126 127 0 128 127 0 128 127 0 128 127 0 128 127 0 128 127 0 128 127 0 128 126 0 129 124 0 131 123 0 132 122 0 133 121 0 134 120 0 135 120 0 135 119 0 136 119 0 136 118 0 137 118 0 137 118 0 137 119 0 136 120 0 135 122 0 133 124 0 131 126 0 129 126 0 129 114 0 141 
68 0 187 118 0 137 129 0 126 131 0 124 132 0 123 132 0 123 131 0 124 130 0 125 129 0 126 127 0 128 126 0 129 124 0 131 123 0 132 121 0 134 120 0 135 120 0 135 120 0 135 120 0 135 122 0 133 123 0 132 125 0 130 127 0 128 128 0 127 130 0 125 131 0 124 132 0 123 132 0 123 131 0 124 130 0 125 129 0 126 128 0 127 127 0 128 127 0 128 127 0 128 128 0 127 128 0 127 128 0 127 128 0 127 128 0 127 128 0 127 128 0 127 129 0 126 129 0 126 129 0 126 129 0 126 129 0 126 129 0 126 129 0 126 129 0 126 128 0 127 128 0 127 127 0 128 127 0 128 126 0 129 126 0 129 126 0 129 127 0 128 128 0 127 129 0 126 130 0 125 131 0 124 131 0 124 130 0 125 130 0 125 129 0 126 128 0 127 128 0 127 128 0 127 128 0 127 128 0 127 128 0 127 127 0 128 127 0 128 126 0 129 125 0 130 124 0 131 124 0 131 123 0 132 123 0 132 123 0 132 122 0 133 122 0 133 123 0 132 123 0 132 124 0 131 126 0 129 126 0 129 127 0 128 127 0 128 127 0 128 127 0 128 128 0 127 129 0 126 129 0 126 130 0 125 130 0 125 130 0 125 130 0 125 129 0 126 128 0 127 127 0 128 125 0 130 124 0 131 122 0 133 121 0 134 121 0 134 120 0 135 120 0 135 119 0 136 120 0 135 120 0 135 122 0 133 123 0 132 124 0 131 125 0 130 125 0 130 125 0 130 124 0 131 123 0 132 122 0 133 121 0 134 121 0 134 121 0 134 122 0 133 123 0 132 123 0 132 124 0 131 123 0 132 122 0 133 120 0 135 119 0 136 118 0 137 117 0 138 117 0 138 118 0 137 119 0 136 120 0 135 122 0 133 122 0 133 123 0 132 123 0 132 123 0 132 122 0 133 121 0 134 121 0 134 121 0 134 122 0 133 123 0 132 125 0 130 128 0 127 129 0 126 130 0 125 130 0 125 130 0 125 128 0 127 127 0 128 126 0 129 126 0 129 127 0 128 128 0 127 130 0 125 131 0 124 133 0 122 135 0 120 136 0 119 137 0 118 137 0 118 138 0 117 138 0 117 137 0 118 135 0 120 133 0 122 130 0 125 128 0 127 126 0 129 126 0 129 126 0 129 126 0 129 126 0 129 127 0 128 126 0 129 125 0 130 124 0 131 123 0 132 121 0 134 120 0 135 120 0 135 119 0 136 118 0 137 118 0 137 117 0 138 117 0 138 117 0 138 118 0 137 119 0 136 120 0 135 122 0 133 124 0 131 132 0 123 170 0 85 
184 0 71 138 0 117 131 0 124 131 0 124 131 0 124 130 0 125 130 0 125 128 0 127 127 0 128 126 0 129 125 0 130 124 0 131 122 0 133 121 0 134 120 0 135 120 0 135 120 0 135 121 0 134 122 0 133 124 0 131 125 0 130 127 0 128 128 0 127 130 0 125 131 0 124 131 0 124 132 0 123 131 0 124 130 0 125 129 0 126 128 0 127 128 0 127 128 0 127 128 0 127 128 0 127 128 0 127 128 0 127 128 0 127 128 0 127 128 0 127 128 0 127 129 0 126 129 0 126 130 0 125 130 0 125 130 0 125 130 0 125 130 0 125 130 0 125 129 0 126 128 0 127 128 0 127 127 0 128 127 0 128 127 0 128 127 0 128 128 0 127 129 0 126 130 0 125 131 0 124 132 0 123 132 0 123 132 0 123 131 0 124 131 0 124 130 0 125 130 0 125 130 0 125 129 0 126 129 0 126 129 0 126 128 0 127 127 0 128 126 0 129 125 0 130 125 0 130 124 0 131 124 0 131 123 0 132 123 0 132 123 0 132 123 0 132 123 0 132 124 0 131 124 0 131 125 0 130 126 0 129 126 0 129 127 0 128 127 0 128 127 0 128 128 0 127 128 0 127 129 0 126 129 0 126 130 0 125 130 0 125 129 0 126 129 0 126 128 0 127 126 0 129 125 0 130 124 0 131 122 0 133 121 0 134 121 0 134 120 0 135 120 0 135 120 0 135 120 0 135 121 0 134 122 0 133 124 0 131 126 0 129 126 0 129 127 0 128 126 0 129 125 0 130 124 0 131 122 0 133 121 0 134 120 0 135 121 0 134 121 0 134 122 0 133 123 0 132 123 0 132 123 0 132 122 0 133 121 0 134 119 0 136 118 0 137 117 0 138 117 0 138 118 0 137 119 0 136 120 0 135 121 0 134 122 0 133 122 0 133 123 0 132 122 0 133 121 0 134 120 0 135 120 0 135 120 0 135 121 0 134 123 0 132 125 0 130 127 0 128 129 0 126 129 0 126 129 0 126 128 0 127 127 0 128 126 0 129 125 0 130 125 0 130 126 0 129 128 0 127 130 0 125 132 0 123 134 0 121 135 0 120 136 0 119 137 0 118 138 0 117 138 0 117 138 0 117 137 0 118 135 0 120 133 0 122 130 0 125 128 0 127 126 0 129 125 0 130 125 0 130 125 0 130 126 0 129 126 0 129 126 0 129 125 0 130 124 0 131 123 0 132 121 0 134 120 0 135 119 0 136 118 0 137 118 0 137 117 0 138 117 0 138 116 0 139 117 0 138 118 0 137 118 0 137 119 0 136 119 0 136 117 0 138 109 0 146 69 0 186 
77 0 178 118 0 137 127 0 128 129 0 126 129 0 126 128 0 127 128 0 127 127 0 128 126 0 129 125 0 130 124 0 131 123 0 132 122 0 133 122 0 133 121 0 134 121 0 134 121 0 134 122 0 133 123 0 132 124 0 131 126 0 129 127 0 128 129 0 126 130 0 125 131 0 124 131 0 124 131 0 124 131 0 124 130 0 125 129 0 126 129 0 126 128 0 127 128 0 127 129 0 126 129 0 126 129 0 126 128 0 127 128 0 127 128 0 127 128 0 127 128 0 127 129 0 126 129 0 126 130 0 125 131 0 124 131 0 124 131 0 124 131 0 124 130 0 125 129 0 126 129 0 126 128 0 127 127 0 128 127 0 128 127 0 128 128 0 127 129 0 126 130 0 125 130 0 125 131 0 124 132 0 123 132 0 123 132 0 123 132 0 123 132 0 123 132 0 123 131 0 124 131 0 124 131 0 124 130 0 125 130 0 125 129 0 126 127 0 128 126 0 129 125 0 130 124 0 131 124 0 131 123 0 132 123 0 132 123 0 132 123 0 132 123 0 132 123 0 132 123 0 132 124 0 131 125 0 130 125 0 130 126 0 129 126 0 129 126 0 129 127 0 128 127 0 128 128 0 127 128 0 127 129 0 126 129 0 126 129 0 126 128 0 127 128 0 127 127 0 128 126 0 129 124 0 131 123 0 132 122 0 133 121 0 134 121 0 134 120 0 135 120 0 135 120 0 135 121 0 134 122 0 133 124 0 131 125 0 130 127 0 128 128 0 127 128 0 127 127 0 128 126 0 129 124 0 131 122 0 133 121 0 134 120 0 135 120 0 135 121 0 134 122 0 133 123 0 132 123 0 132 123 0 132 122 0 133 121 0 134 120 0 135 118 0 137 118 0 137 117 0 138 118 0 137 119 0 136 119 0 136 120 0 135 121 0 134 122 0 133 122 0 133 121 0 134 121 0 134 120 0 135 119 0 136 120 0 135 121 0 134 123 0 132 125 0 130 127 0 128 128 0 127 128 0 127 128 0 127 127 0 128 126 0 129 125 0 130 124 0 131 125 0 130 126 0 129 128 0 127 130 0 125 132 0 123 133 0 122 135 0 120 136 0 119 136 0 119 137 0 118 138 0 117 138 0 117 137 0 118 135 0 120 132 0 123 130 0 125 127 0 128 125 0 130 124 0 131 124 0 131 125 0 130 126 0 129 126 0 129 126 0 129 126 0 129 125 0 130 123 0 132 122 0 133 121 0 134 119 0 136 118 0 137 117 0 138 117 0 138 116 0 139 116 0 139 117 0 138 117 0 138 118 0 137 118 0 137 118 0 137 116 0 139 116 0 139 136 0 119 
145 0 110 132 0 123 129 0 126 128 0 127 127 0 128 126 0 129 126 0 129 125 0 130 124 0 131 123 0 132 123 0 132 123 0 132 122 0 133 122 0 133 122 0 133 122 0 133 122 0 133 123 0 132 124 0 131 125 0 130 126 0 129 128 0 127 129 0 126 130 0 125 131 0 124 131 0 124 131 0 124 131 0 124 131 0 124 130 0 125 129 0 126 129 0 126 129 0 126 129 0 126 129 0 126 129 0 126 128 0 127 128 0 127 127 0 128 127 0 128 127 0 128 128 0 127 129 0 126 130 0 125 131 0 124 131 0 124 131 0 124 131 0 124 130 0 125 129 0 126 128 0 127 127 0 128 127 0 128 126 0 129 127 0 128 127 0 128 128 0 127 129 0 126 130 0 125 131 0 124 131 0 124 131 0 124 132 0 123 132 0 123 132 0 123 132 0 123 132 0 123 132 0 123 132 0 123 131 0 124 130 0 125 128 0 127 127 0 128 126 0 129 124 0 131 123 0 132 123 0 132 122 0 133 122 0 133 122 0 133 122 0 133 122 0 133 122 0 133 123 0 132 123 0 132 124 0 131 124 0 131 125 0 130 125 0 130 126 0 129 126 0 129 126 0 129 127 0 128 127 0 128 128 0 127 127 0 128 127 0 128 127 0 128 126 0 129 125 0 130 124 0 131 123 0 132 122 0 133 122 0 133 121 0 134 121 0 134 121 0 134 121 0 134 121 0 134 122 0 133 123 0 132 125 0 130 126 0 129 128 0 127 129 0 126 129 0 126 128 0 127 126 0 129 124 0 131 122 0 133 121 0 134 120 0 135 120 0 135 120 0 135 121 0 134 122 0 133 123 0 132 123 0 132 123 0 132 122 0 133 120 0 135 119 0 136 118 0 137 118 0 137 118 0 137 119 0 136 119 0 136 120 0 135 120 0 135 121 0 134 121 0 134 121 0 134 120 0 135 120 0 135 120 0 135 120 0 135 121 0 134 123 0 132 125 0 130 126 0 129 127 0 128 128 0 127 127 0 128 126 0 129 125 0 130 124 0 131 124 0 131 124 0 131 126 0 129 128 0 127 130 0 125 132 0 123 133 0 122 134 0 121 134 0 121 135 0 120 136 0 119 136 0 119 136 0 119 136 0 119 134 0 121 132 0 123 129 0 126 127 0 128 125 0 130 124 0 131 124 0 131 125 0 130 126 0 129 127 0 128 127 0 128 127 0 128 126 0 129 124 0 131 123 0 132 122 0 133 120 0 135 119 0 136 118 0 137 117 0 138 116 0 139 116 0 139 117 0 138 117 0 138 118 0 137 118 0 137 117 0 138 114 0 141 104 0 151 69 0 186 
137 0 118 135 0 120 131 0 124 128 0 127 126 0 129 125 0 130 124 0 131 123 0 132 123 0 132 123 0 132 122 0 133 122 0 133 122 0 133 122 0 133 123 0 132 123 0 132 123 0 132 124 0 131 125 0 130 126 0 129 127 0 128 127 0 128 128 0 127 129 0 126 130 0 125 131 0 124 131 0 124 131 0 124 131 0 124 130 0 125 130 0 125 130 0 125 130 0 125 130 0 125 129 0 126 129 0 126 128 0 127 127 0 128 127 0 128 126 0 129 127 0 128 128 0 127 129 0 126 130 0 125 131 0 124 131 0 124 131 0 124 131 0 124 130 0 125 128 0 127 127 0 128 126 0 129 125 0 130 125 0 130 126 0 129 126 0 129 127 0 128 128 0 127 129 0 126 129 0 126 130 0 125 130 0 125 130 0 125 131 0 124 131 0 124 132 0 123 132 0 123 132 0 123 131 0 124 130 0 125 129 0 126 127 0 128 126 0 129 124 0 131 123 0 132 121 0 134 121 0 134 120 0 135 120 0 135 120 0 135 121 0 134 121 0 134 121 0 134 121 0 134 122 0 133 122 0 133 123 0 132 124 0 131 124 0 131 125 0 130 125 0 130 126 0 129 126 0 129 126 0 129 126 0 129 126 0 129 125 0 130 125 0 130 124 0 131 123 0 132 122 0 133 122 0 133 121 0 134 121 0 134 121 0 134 120 0 135 121 0 134 121 0 134 121 0 134 122 0 133 123 0 132 125 0 130 127 0 128 128 0 127 129 0 126 129 0 126 127 0 128 126 0 129 124 0 131 122 0 133 120 0 135 119 0 136 119 0 136 120 0 135 121 0 134 122 0 133 122 0 133 123 0 132 123 0 132 122 0 133 121 0 134 120 0 135 119 0 136 119 0 136 119 0 136 119 0 136 119 0 136 120 0 135 120 0 135 120 0 135 120 0 135 120 0 135 120 0 135 120 0 135 120 0 135 121 0 134 122 0 133 124 0 131 125 0 130 127 0 128 127 0 128 127 0 128 126 0 129 125 0 130 124 0 131 124 0 131 124 0 131 124 0 131 126 0 129 128 0 127 129 0 126 131 0 124 132 0 123 132 0 123 133 0 122 133 0 122 134 0 121 134 0 121 135 0 120 134 0 121 133 0 122 131 0 124 128 0 127 126 0 129 124 0 131 123 0 132 123 0 132 124 0 131 125 0 130 127 0 128 128 0 127 128 0 127 127 0 128 126 0 129 124 0 131 123 0 132 121 0 134 120 0 135 119 0 136 118 0 137 117 0 138 117 0 138 117 0 138 118 0 137 118 0 137 118 0 137 118 0 137 117 0 138 116 0 139 114 0 141 
176 0 79 142 0 113 131 0 124 127 0 128 125 0 130 123 0 132 123 0 132 122 0 133 122 0 133 122 0 133 122 0 133 122 0 133 122 0 133 123 0 132 123 0 132 123 0 132 124 0 131 124 0 131 125 0 130 125 0 130 126 0 129 127 0 128 127 0 128 128 0 127 129 0 126 130 0 125 131 0 124 131 0 124 131 0 124 131 0 124 130 0 125 130 0 125 130 0 125 130 0 125 129 0 126 128 0 127 128 0 127 127 0 128 126 0 129 126 0 129 127 0 128 128 0 127 129 0 126 130 0 125 131 0 124 131 0 124 131 0 124 130 0 125 129 0 126 127 0 128 126 0 129 125 0 130 124 0 131 124 0 131 124 0 131 125 0 130 126 0 129 127 0 128 127 0 128 128 0 127 128 0 127 129 0 126 129 0 126 129 0 126 130 0 125 130 0 125 130 0 125 130 0 125 129 0 126 128 0 127 127 0 128 125 0 130 123 0 132 121 0 134 120 0 135 119 0 136 118 0 137 118 0 137 118 0 137 118 0 137 118 0 137 119 0 136 119 0 136 119 0 136 120 0 135 120 0 135 121 0 134 122 0 133 122 0 133 123 0 132 124 0 131 124 0 131 125 0 130 125 0 130 124 0 131 124 0 131 123 0 132 122 0 133 121 0 134 120 0 135 120 0 135 119 0 136 119 0 136 119 0 136 119 0 136 119 0 136 120 0 135 120 0 135 121 0 134 122 0 133 123 0 132 124 0 131 126 0 129 127 0 128 128 0 127 127 0 128 126 0 129 124 0 131 122 0 133 120 0 135 118 0 137 117 0 138 117 0 138 118 0 137 119 0 136 120 0 135 121 0 134 122 0 133 122 0 133 122 0 133 121 0 134 120 0 135 120 0 135 119 0 136 119 0 136 119 0 136 119 0 136 119 0 136 119 0 136 120 0 135 120 0 135 120 0 135 120 0 135 120 0 135 121 0 134 122 0 133 123 0 132 124 0 131 126 0 129 127 0 128 127 0 128 127 0 128 126 0 129 125 0 130 124 0 131 124 0 131 124 0 131 124 0 131 126 0 129 127 0 128 129 0 126 130 0 125 130 0 125 131 0 124 131 0 124 131 0 124 132 0 123 132 0 123 133 0 122 132 0 123 131 0 124 130 0 125 127 0 128 125 0 130 123 0 132 122 0 133 122 0 133 123 0 132 125 0 130 127 0 128 128 0 127 129 0 126 129 0 126 128 0 127 126 0 129 125 0 130 123 0 132 121 0 134 120 0 135 119 0 136 118 0 137 118 0 137 118 0 137 119 0 136 119 0 136 119 0 136 119 0 136 119 0 136 128 0 127 170 0 85 
107 0 148 127 0 128 127 0 128 125 0 130 124 0 131 123 0 132 123 0 132 122 0 133 122 0 133 122 0 133 122 0 133 122 0 133 122 0 133 123 0 132 123 0 132 123 0 132 124 0 131 124 0 131 124 0 131 125 0 130 125 0 130 125 0 130 126 0 129 127 0 128 128 0 127 129 0 126 130 0 125 130 0 125 130 0 125 130 0 125 130 0 125 130 0 125 130 0 125 129 0 126 129 0 126 128 0 127 127 0 128 127 0 128 126 0 129 126 0 129 127 0 128 128 0 127 129 0 126 130 0 125 131 0 124 131 0 124 131 0 124 130 0 125 128 0 127 126 0 129 125 0 130 123 0 132 123 0 132 122 0 133 123 0 132 124 0 131 125 0 130 126 0 129 126 0 129 127 0 128 127 0 128 128 0 127 128 0 127 128 0 127 128 0 127 127 0 128 127 0 128 126 0 129 125 0 130 124 0 131 122 0 133 121 0 134 119 0 136 117 0 138 115 0 140 114 0 141 114 0 141 113 0 142 114 0 141 114 0 141 115 0 140 115 0 140 116 0 139 116 0 139 116 0 139 117 0 138 118 0 137 118 0 137 119 0 136 120 0 135 121 0 134 121 0 134 122 0 133 122 0 133 121 0 134 120 0 135 119 0 136 118 0 137 117 0 138 116 0 139 116 0 139 115 0 140 115 0 140 116 0 139 116 0 139 116 0 139 117 0 138 117 0 138 118 0 137 119 0 136 120 0 135 121 0 134 123 0 132 124 0 131 124 0 131 124 0 131 122 0 133 120 0 135 118 0 137 116 0 139 115 0 140 114 0 141 114 0 141 114 0 141 115 0 140 117 0 138 118 0 137 119 0 136 120 0 135 120 0 135 120 0 135 119 0 136 119 0 136 119 0 136 119 0 136 119 0 136 119 0 136 119 0 136 119 0 136 119 0 136 119 0 136 120 0 135 120 0 135 121 0 134 122 0 133 123 0 132 124 0 131 126 0 129 127 0 128 127 0 128 127 0 128 127 0 128 126 0 129 125 0 130 125 0 130 124 0 131 124 0 131 124 0 131 125 0 130 127 0 128 128 0 127 128 0 127 129 0 126 129 0 126 129 0 126 130 0 125 130 0 125 131 0 124 131 0 124 131 0 124 130 0 125 128 0 127 126 0 129 124 0 131 122 0 133 121 0 134 121 0 134 122 0 133 125 0 130 127 0 128 129 0 126 130 0 125 130 0 125 129 0 126 128 0 127 126 0 129 125 0 130 123 0 132 122 0 133 120 0 135 120 0 135 120 0 135 120 0 135 120 0 135 120 0 135 119 0 136 117 0 138 114 0 141 105 0 150 77 0 178 
135 0 120 130 0 125 128 0 127 125 0 130 124 0 131 123 0 132 123 0 132 123 0 132 123 0 132 122 0 133 122 0 133 122 0 133 122 0 133 123 0 132 123 0 132 123 0 132 123 0 132 123 0 132 123 0 132 123 0 132 123 0 132 124 0 131 124 0 131 125 0 130 126 0 129 128 0 127 129 0 126 130 0 125 130 0 125 130 0 125 130 0 125 130 0 125 129 0 126 129 0 126 128 0 127 128 0 127 127 0 128 127 0 128 127 0 128 127 0 128 128 0 127 129 0 126 130 0 125 131 0 124 131 0 124 131 0 124 130 0 125 129 0 126 128 0 127 126 0 129 124 0 131 123 0 132 122 0 133 122 0 133 122 0 133 123 0 132 124 0 131 125 0 130 126 0 129 127 0 128 127 0 128 127 0 128 127 0 128 126 0 129 125 0 130 124 0 131 122 0 133 120 0 135 118 0 137 117 0 138 115 0 140 113 0 142 111 0 144 110 0 145 108 0 147 107 0 148 107 0 148 107 0 148 107 0 148 108 0 147 109 0 146 109 0 146 110 0 145 110 0 145 110 0 145 111 0 144 111 0 144 112 0 143 113 0 142 114 0 141 115 0 140 116 0 139 116 0 139 116 0 139 115 0 140 114 0 141 113 0 142 111 0 144 110 0 145 110 0 145 109 0 146 109 0 146 109 0 146 109 0 146 110 0 145 111 0 144 111 0 144 112 0 143 112 0 143 113 0 142 114 0 141 115 0 140 116 0 139 117 0 138 117 0 138 117 0 138 116 0 139 114 0 141 111 0 144 109 0 146 108 0 147 107 0 148 107 0 148 108 0 147 109 0 146 110 0 145 112 0 143 113 0 142 114 0 141 115 0 140 116 0 139 116 0 139 116 0 139 116 0 139 117 0 138 118 0 137 118 0 137 118 0 137 119 0 136 119 0 136 119 0 136 120 0 135 120 0 135 121 0 134 123 0 132 124 0 131 126 0 129 127 0 128 128 0 127 128 0 127 128 0 127 127 0 128 127 0 128 126 0 129 125 0 130 124 0 131 124 0 131 124 0 131 125 0 130 126 0 129 126 0 129 127 0 128 127 0 128 127 0 128 128 0 127 128 0 127 128 0 127 129 0 126 129 0 126 129 0 126 128 0 127 127 0 128 125 0 130 123 0 132 121 0 134 120 0 135 120 0 135 122 0 133 124 0 131 127 0 128 129 0 126 130 0 125 131 0 124 131 0 124 130 0 125 128 0 127 126 0 129 125 0 130 123 0 132 122 0 133 122 0 133 122 0 133 122 0 133 122 0 133 121 0 134 120 0 135 118 0 137 113 0 142 103 0 152 89 0 166 
124 0 131 132 0 123 129 0 126 127 0 128 125 0 130 124 0 131 124 0 131 124 0 131 123 0 132 123 0 132 123 0 132 122 0 133 122 0 133 123 0 132 123 0 132 123 0 132 123 0 132 123 0 132 122 0 133 122 0 133 122 0 133 122 0 133 123 0 132 124 0 131 125 0 130 127 0 128 128 0 127 129 0 126 130 0 125 130 0 125 130 0 125 130 0 125 129 0 126 129 0 126 128 0 127 128 0 127 128 0 127 128 0 127 128 0 127 129 0 126 130 0 125 131 0 124 132 0 123 132 0 123 132 0 123 132 0 123 130 0 125 129 0 126 127 0 128 126 0 129 124 0 131 123 0 132 122 0 133 122 0 133 122 0 133 123 0 132 124 0 131 125 0 130 127 0 128 127 0 128 128 0 127 128 0 127 127 0 128 125 0 130 122 0 133 119 0 136 115 0 140 111 0 144 108 0 147 106 0 149 104 0 151 102 0 153 100 0 155 99 0 156 98 0 157 97 0 158 97 0 158 97 0 158 97 0 158 98 0 157 99 0 156 99 0 156 100 0 155 100 0 155 100 0 155 100 0 155 101 0 154 102 0 153 103 0 152 104 0 151 105 0 150 105 0 150 105 0 150 105 0 150 104 0 151 103 0 152 102 0 153 101 0 154 100 0 155 99 0 156 98 0 157 98 0 157 99 0 156 99 0 156 100 0 155 100 0 155 101 0 154 101 0 154 102 0 153 102 0 153 103 0 152 104 0 151 105 0 150 106 0 149 106 0 149 105 0 150 104 0 151 102 0 153 100 0 155 98 0 157 97 0 158 96 0 159 96 0 159 97 0 158 98 0 157 100 0 155 101 0 154 103 0 152 104 0 151 105 0 150 106 0 149 108 0 147 109 0 146 111 0 144 114 0 141 115 0 140 117 0 138 118 0 137 119 0 136 119 0 136 120 0 135 120 0 135 121 0 134 123 0 132 124 0 131 126 0 129 128 0 127 129 0 126 130 0 125 130 0 125 129 0 126 128 0 127 127 0 128 127 0 128 126 0 129 125 0 130 125 0 130 125 0 130 125 0 130 125 0 130 125 0 130 125 0 130 126 0 129 126 0 129 126 0 129 126 0 129 127 0 128 127 0 128 127 0 128 127 0 128 127 0 128 125 0 130 124 0 131 122 0 133 120 0 135 120 0 135 120 0 135 122 0 133 124 0 131 127 0 128 129 0 126 131 0 124 131 0 124 131 0 124 131 0 124 129 0 126 128 0 127 126 0 129 125 0 130 125 0 130 124 0 131 124 0 131 124 0 131 124 0 131 124 0 131 122 0 133 120 0 135 116 0 139 106 0 149 78 0 177 
177 0 78 144 0 111 133 0 122 129 0 126 126 0 129 125 0 130 125 0 130 125 0 130 124 0 131 124 0 131 123 0 132 123 0 132 123 0 132 123 0 132 123 0 132 123 0 132 122 0 133 122 0 133 121 0 134 121 0 134 121 0 134 121 0 134 122 0 133 123 0 132 125 0 130 126 0 129 128 0 127 129 0 126 129 0 126 130 0 125 130 0 125 130 0 125 130 0 125 129 0 126 129 0 126 129 0 126 129 0 126 129 0 126 130 0 125 130 0 125 131 0 124 132 0 123 133 0 122 133 0 122 133 0 122 132 0 123 131 0 124 129 0 126 127 0 128 126 0 129 124 0 131 123 0 132 123 0 132 123 0 132 123 0 132 124 0 131 125 0 130 126 0 129 128 0 127 129 0 126 129 0 126 128 0 127 126 0 129 123 0 132 118 0 137 112 0 143 105 0 150 98 0 157 93 0 162 89 0 166 87 0 168 85 0 170 84 0 171 83 0 172 82 0 173 81 0 174 81 0 174 81 0 174 82 0 173 82 0 173 83 0 172 84 0 171 84 0 171 84 0 171 84 0 171 85 0 170 85 0 170 86 0 169 87 0 168 88 0 167 88 0 167 89 0 166 89 0 166 89 0 166 88 0 167 87 0 168 86 0 169 85 0 170 84 0 171 83 0 172 82 0 173 82 0 173 83 0 172 83 0 172 84 0 171 84 0 171 85 0 170 85 0 170 86 0 169 86 0 169 86 0 169 87 0 168 88 0 167 88 0 167 89 0 166 88 0 167 87 0 168 85 0 170 84 0 171 82 0 173 80 0 175 80 0 175 80 0 175 81 0 174 82 0 173 83 0 172 85 0 170 86 0 169 88 0 167 89 0 166 91 0 164 94 0 161 97 0 158 102 0 153 107 0 148 112 0 143 115 0 140 117 0 138 119 0 136 119 0 136 120 0 135 121 0 134 122 0 133 124 0 131 126 0 129 128 0 127 130 0 125 131 0 124 131 0 124 131 0 124 130 0 125 129 0 126 128 0 127 127 0 128 127 0 128 126 0 129 125 0 130 125 0 130 124 0 131 124 0 131 124 0 131 124 0 131 124 0 131 124 0 131 125 0 130 125 0 130 125 0 130 126 0 129 126 0 129 126 0 129 125 0 130 124 0 131 123 0 132 121 0 134 120 0 135 120 0 135 120 0 135 122 0 133 124 0 131 126 0 129 129 0 126 130 0 125 131 0 124 132 0 123 131 0 124 130 0 125 129 0 126 128 0 127 127 0 128 126 0 129 126 0 129 126 0 129 127 0 128 127 0 128 126 0 129 125 0 130 124 0 131 123 0 132 129 0 126 166 0 89 
131 0 124 135 0 120 132 0 123 129 0 126 127 0 128 126 0 129 126 0 129 126 0 129 125 0 130 125 0 130 124 0 131 124 0 131 123 0 132 123 0 132 123 0 132 123 0 132 122 0 133 122 0 133 121 0 134 121 0 134 121 0 134 121 0 134 121 0 134 123 0 132 124 0 131 126 0 129 127 0 128 129 0 126 129 0 126 130 0 125 130 0 125 130 0 125 130 0 125 130 0 125 130 0 125 130 0 125 130 0 125 130 0 125 131 0 124 132 0 123 133 0 122 134 0 121 134 0 121 134 0 121 134 0 121 133 0 122 131 0 124 129 0 126 128 0 127 126 0 129 125 0 130 124 0 131 124 0 131 124 0 131 124 0 131 125 0 130 126 0 129 127 0 128 129 0 126 130 0 125 130 0 125 129 0 126 126 0 129 121 0 134 113 0 142 103 0 152 91 0 164 79 0 176 71 0 184 67 0 188 64 0 191 63 0 192 62 0 193 61 0 194 60 0 195 60 0 195 60 0 195 60 0 195 60 0 195 61 0 194 61 0 194 62 0 193 62 0 193 62 0 193 62 0 193 62 0 193 63 0 192 63 0 192 64 0 191 65 0 190 65 0 190 65 0 190 65 0 190 65 0 190 65 0 190 64 0 191 63 0 192 62 0 193 61 0 194 61 0 194 60 0 195 60 0 195 61 0 194 61 0 194 61 0 194 62 0 193 62 0 193 63 0 192 63 0 192 63 0 192 63 0 192 64 0 191 64 0 191 65 0 190 65 0 190 65 0 190 64 0 191 62 0 193 61 0 194 60 0 195 59 0 196 58 0 197 58 0 197 59 0 196 60 0 195 61 0 194 62 0 193 63 0 192 65 0 190 66 0 189 68 0 187 72 0 183 78 0 177 88 0 167 98 0 157 106 0 149 112 0 143 116 0 139 118 0 137 120 0 135 121 0 134 122 0 133 124 0 131 126 0 129 128 0 127 130 0 125 132 0 123 133 0 122 133 0 122 133 0 122 132 0 123 131 0 124 130 0 125 129 0 126 128 0 127 127 0 128 126 0 129 125 0 130 124 0 131 124 0 131 123 0 132 123 0 132 123 0 132 123 0 132 123 0 132 124 0 131 124 0 131 124 0 131 124 0 131 124 0 131 124 0 131 123 0 132 122 0 133 121 0 134 121 0 134 120 0 135 121 0 134 122 0 133 124 0 131 126 0 129 128 0 127 130 0 125 131 0 124 131 0 124 131 0 124 130 0 125 129 0 126 128 0 127 128 0 127 128 0 127 128 0 127 129 0 126 129 0 126 129 0 126 128 0 127 127 0 128 126 0 129 124 0 131 119 0 136 99 0 156 
127 0 128 134 0 121 133 0 122 131 0 124 129 0 126 128 0 127 127 0 128 127 0 128 126 0 129 125 0 130 125 0 130 124 0 131 124 0 131 124 0 131 124 0 131 123 0 132 123 0 132 122 0 133 121 0 134 121 0 134 121 0 134 121 0 134 121 0 134 123 0 132 124 0 131 126 0 129 127 0 128 129 0 126 130 0 125 130 0 125 131 0 124 131 0 124 131 0 124 131 0 124 131 0 124 131 0 124 131 0 124 131 0 124 132 0 123 133 0 122 134 0 121 135 0 120 135 0 120 135 0 120 135 0 120 133 0 122 132 0 123 130 0 125 128 0 127 127 0 128 126 0 129 126 0 129 125 0 130 125 0 130 125 0 130 126 0 129 127 0 128 128 0 127 130 0 125 131 0 124 131 0 124 129 0 126 125 0 130 118 0 137 107 0 148 92 0 163 72 0 183 51 0 204 41 0 214 37 0 218 35 0 220 34 0 221 34 0 221 33 0 222 33 0 222 33 0 222 33 0 222 33 0 222 33 0 222 33 0 222 34 0 221 34 0 221 34 0 221 34 0 221 34 0 221 34 0 221 34 0 221 35 0 220 35 0 220 35 0 220 36 0 219 36 0 219 36 0 219 36 0 219 35 0 220 35 0 220 34 0 221 34 0 221 34 0 221 33 0 222 33 0 222 33 0 222 33 0 222 33 0 222 34 0 221 34 0 221 34 0 221 34 0 221 34 0 221 34 0 221 35 0 220 35 0 220 35 0 220 35 0 220 35 0 220 35 0 220 35 0 220 34 0 221 33 0 222 33 0 222 32 0 223 32 0 223 32 0 223 32 0 223 33 0 222 33 0 222 34 0 221 35 0 220 36 0 219 37 0 218 38 0 217 42 0 213 50 0 205 69 0 186 87 0 168 100 0 155 109 0 146 115 0 140 118 0 137 121 0 134 122 0 133 123 0 132 125 0 130 127 0 128 129 0 126 131 0 124 133 0 122 134 0 121 134 0 121 134 0 121 133 0 122 132 0 123 130 0 125 129 0 126 128 0 127 127 0 128 126 0 129 125 0 130 125 0 130 124 0 131 123 0 132 123 0 132 123 0 132 122 0 133 123 0 132 123 0 132 123 0 132 123 0 132 123 0 132 123 0 132 122 0 133 122 0 133 121 0 134 121 0 134 121 0 134 121 0 134 122 0 133 123 0 132 125 0 130 126 0 129 128 0 127 129 0 126 130 0 125 130 0 125 130 0 125 130 0 125 129 0 126 129 0 126 129 0 126 129 0 126 129 0 126 130 0 125 131 0 124 131 0 124 130 0 125 129 0 126 128 0 127 126 0 129 124 0 131 123 0 132 
143 0 112 140 0 115 136 0 119 133 0 122 130 0 125 129 0 126 128 0 127 127 0 128 127 0 128 126 0 129 125 0 130 125 0 130 125 0 130 125 0 130 124 0 131 124 0 131 123 0 132 122 0 133 122 0 133 121 0 134 121 0 134 121 0 134 122 0 133 123 0 132 124 0 131 126 0 129 127 0 128 129 0 126 130 0 125 131 0 124 131 0 124 132 0 123 132 0 123 132 0 123 132 0 123 132 0 123 132 0 123 132 0 123 132 0 123 133 0 122 134 0 121 135 0 120 136 0 119 136 0 119 135 0 120 134 0 121 132 0 123 130 0 125 129 0 126 128 0 127 127 0 128 127 0 128 126 0 129 126 0 129 126 0 129 127 0 128 128 0 127 129 0 126 130 0 125 131 0 124 131 0 124 128 0 127 123 0 132 115 0 140 101 0 154 81 0 174 51 0 204 7 0 248 3 0 252 3 0 252 3 0 252 2 0 253 2 0 253 2 0 253 2 0 253 2 0 253 2 0 253 2 0 253 2 0 253 2 0 253 2 0 253 2 0 253 2 0 253 2 0 253 2 0 253 2 0 253 2 0 253 2 0 253 3 0 252 3 0 252 3 0 252 3 0 252 3 0 252 3 0 252 3 0 252 3 0 252 2 0 253 2 0 253 2 0 253 2 0 253 2 0 253 2 0 253 2 0 253 2 0 253 2 0 253 2 0 253 2 0 253 2 0 253 2 0 253 2 0 253 2 0 253 2 0 253 3 0 252 3 0 252 3 0 252 3 0 252 2 0 253 2 0 253 2 0 253 2 0 253 2 0 253 2 0 253 2 0 253 2 0 253 2 0 253 2 0 253 2 0 253 2 0 253 3 0 252 3 0 252 3 0 252 3 0 252 7 0 248 49 0 206 75 0 180 93 0 162 106 0 149 114 0 141 118 0 137 121 0 134 123 0 132 125 0 130 126 0 129 128 0 127 130 0 125 132 0 123 133 0 122 134 0 121 134 0 121 134 0 121 133 0 122 132 0 123 131 0 124 130 0 125 129 0 126 128 0 127 127 0 128 126 0 129 125 0 130 124 0 131 123 0 132 123 0 132 122 0 133 122 0 133 122 0 133 122 0 133 122 0 133 122 0 133 122 0 133 122 0 133 121 0 134 121 0 134 121 0 134 121 0 134 121 0 134 122 0 133 123 0 132 124 0 131 125 0 130 127 0 128 128 0 127 129 0 126 129 0 126 129 0 126 129 0 126 129 0 126 128 0 127 128 0 127 128 0 127 129 0 126 130 0 125 131 0 124 131 0 124 132 0 123 131 0 124 130 0 125 129 0 126 127 0 128 127 0 128 129 0 126 
169 0 86 149 0 106 140 0 115 135 0 120 132 0 123 130 0 125 128 0 127 128 0 127 127 0 128 126 0 129 126 0 129 125 0 130 125 0 130 125 0 130 125 0 130 124 0 131 124 0 131 123 0 132 122 0 133 122 0 133 121 0 134 121 0 134 122 0 133 122 0 133 124 0 131 125 0 130 127 0 128 128 0 127 130 0 125 131 0 124 132 0 123 133 0 122 133 0 122 133 0 122 133 0 122 133 0 122 132 0 123 132 0 123 132 0 123 133 0 122 134 0 121 135 0 120 136 0 119 136 0 119 135 0 120 134 0 121 133 0 122 131 0 124 130 0 125 129 0 126 128 0 127 127 0 128 127 0 128 127 0 128 127 0 128 127 0 128 128 0 127 129 0 126 130 0 125 130 0 125 130 0 125 127 0 128 121 0 134 111 0 144 96 0 159 73 0 182 42 0 213 3 0 252 0 0 255 0 0 255 0 0 255 0 0 255 0 0 255 0 0 255 0 0 255 0 0 255 0 0 255 0 0 255 0 0 255 0 0 255 0 0 255 0 0 255 0 0 255 0 0 255 0 0 255 0 0 255 0 0 255 0 0 255 0 0 255 0 0 255 0 0 255 0 0 255 0 0 255 0 0 255 0 0 255 0 0 255 0 0 255 0 0 255 0 0 255 0 0 255 0 0 255 0 0 255 0 0 255 0 0 255 0 0 255 0 0 255 0 0 255 0 0 255 0 0 255 0 0 255 0 0 255 0 0 255 0 0 255 0 0 255 0 0 255 0 0 255 0 0 255 0 0 255 0 0 255 0 0 255 0 0 255 0 0 255 0 0 255 0 0 255 0 0 255 0 0 255 0 0 255 0 0 255 0 0 255 0 0 255 0 0 255 0 0 255 3 0 252 40 0 215 68 0 187 89 0 166 103 0 152 113 0 142 119 0 136 122 0 133 124 0 131 126 0 129 128 0 127 129 0 126 131 0 124 132 0 123 133 0 122 133 0 122 133 0 122 133 0 122 133 0 122 132 0 123 131 0 124 130 0 125 130 0 125 129 0 126 128 0 127 127 0 128 126 0 129 125 0 130 124 0 131 123 0 132 122 0 133 122 0 133 122 0 133 122 0 133 122 0 133 122 0 133 121 0 134 121 0 134 120 0 135 120 0 135 120 0 135 121 0 134 122 0 133 123 0 132 124 0 131 125 0 130 126 0 129 127 0 128 128 0 127 129 0 126 129 0 126 129 0 126 128 0 127 128 0 127 127 0 128 127 0 128 128 0 127 128 0 127 129 0 126 131 0 124 131 0 124 132 0 123 131 0 124 130 0 125 128 0 127 126 0 129 128 0 127 146 0 109 
140 0 115 146 0 109 140 0 115 135 0 120 132 0 123 130 0 125 129 0 126 128 0 127 127 0 128 126 0 129 126 0 129 125 0 130 125 0 130 125 0 130 124 0 131 124 0 131 124 0 131 123 0 132 123 0 132 122 0 133 122 0 133 122 0 133 122 0 133 122 0 133 123 0 132 125 0 130 126 0 129 128 0 127 130 0 125 131 0 124 132 0 123 133 0 122 134 0 121 134 0 121 134 0 121 133 0 122 132 0 123 132 0 123 132 0 123 132 0 123 133 0 122 134 0 121 135 0 120 135 0 120 135 0 120 134 0 121 133 0 122 131 0 124 130 0 125 129 0 126 128 0 127 128 0 127 128 0 127 128 0 127 128 0 127 128 0 127 128 0 127 129 0 126 130 0 125 130 0 125 129 0 126 125 0 130 119 0 136 108 0 147 92 0 163 68 0 187 38 0 217 3 0 252 0 0 255 0 0 255 0 0 255 0 0 255 0 0 255 0 0 255 0 0 255 0 0 255 0 0 255 0 0 255 0 0 255 0 0 255 0 0 255 0 0 255 0 0 255 0 0 255 0 0 255 0 0 255 0 0 255 0 0 255 0 0 255 0 0 255 0 0 255 0 0 255 0 0 255 0 0 255 0 0 255 0 0 255 0 0 255 0 0 255 0 0 255 0 0 255 0 0 255 0 0 255 0 0 255 0 0 255 0 0 255 0 0 255 0 0 255 0 0 255 0 0 255 0 0 255 0 0 255 0 0 255 0 0 255 0 0 255 0 0 255 0 0 255 0 0 255 0 0 255 0 0 255 0 0 255 0 0 255 0 0 255 0 0 255 0 0 255 0 0 255 0 0 255 0 0 255 0 0 255 0 0 255 0 0 255 0 0 255 0 0 255 3 0 252 36 0 219 64 0 191 86 0 169 102 0 153 113 0 142 119 0 136 123 0 132 125 0 130 127 0 128 128 0 127 130 0 125 131 0 124 131 0 124 132 0 123 132 0 123 132 0 123 132 0 123 131 0 124 131 0 124 131 0 124 130 0 125 130 0 125 129 0 126 128 0 127 127 0 128 126 0 129 125 0 130 124 0 131 123 0 132 123 0 132 122 0 133 122 0 133 122 0 133 121 0 134 121 0 134 121 0 134 120 0 135 120 0 135 119 0 136 120 0 135 120 0 135 122 0 133 123 0 132 125 0 130 126 0 129 127 0 128 128 0 127 129 0 126 129 0 126 129 0 126 128 0 127 128 0 127 127 0 128 127 0 128 126 0 129 127 0 128 127 0 128 129 0 126 130 0 125 131 0 124 131 0 124 131 0 124 129 0 126 126 0 129 120 0 135 112 0 143 104 0 151 
193 0 62 154 0 101 140 0 115 134 0 121 132 0 123 130 0 125 129 0 126 128 0 127 127 0 128 126 0 129 126 0 129 125 0 130 124 0 131 124 0 131 123 0 132 123 0 132 123 0 132 123 0 132 123 0 132 123 0 132 122 0 133 122 0 133 122 0 133 122 0 133 123 0 132 124 0 131 126 0 129 127 0 128 129 0 126 131 0 124 132 0 123 133 0 122 134 0 121 134 0 121 134 0 121 133 0 122 132 0 123 131 0 124 131 0 124 131 0 124 132 0 123 133 0 122 134 0 121 134 0 121 134 0 121 134 0 121 133 0 122 131 0 124 130 0 125 129 0 126 129 0 126 129 0 126 128 0 127 128 0 127 128 0 127 128 0 127 129 0 126 129 0 126 129 0 126 129 0 126 127 0 128 124 0 131 117 0 138 106 0 149 89 0 166 65 0 190 36 0 219 3 0 252 0 0 255 0 0 255 0 0 255 0 0 255 0 0 255 0 0 255 0 0 255 0 0 255 0 0 255 0 0 255 0 0 255 0 0 255 0 0 255 0 0 255 0 0 255 0 0 255 0 0 255 0 0 255 0 0 255 0 0 255 0 0 255 0 0 255 0 0 255 0 0 255 0 0 255 0 0 255 0 0 255 0 0 255 0 0 255 0 0 255 0 0 255 0 0 255 0 0 255 0 0 255 0 0 255 0 0 255 0 0 255 0 0 255 0 0 255 0 0 255 0 0 255 0 0 255 0 0 255 0 0 255 0 0 255 0 0 255 0 0 255 0 0 255 0 0 255 0 0 255 0 0 255 0 0 255 0 0 255 0 0 255 0 0 255 0 0 255 0 0 255 0 0 255 0 0 255 0 0 255 0 0 255 0 0 255 0 0 255 0 0 255 2 0 253 35 0 220 63 0 192 85 0 170 102 0 153 113 0 142 120 0 135 124 0 131 127 0 128 128 0 127 129 0 126 130 0 125 130 0 125 130 0 125 130 0 125 130 0 125 130 0 125 130 0 125 130 0 125 130 0 125 131 0 124 130 0 125 130 0 125 129 0 126 128 0 127 127 0 128 126 0 129 125 0 130 124 0 131 124 0 131 123 0 132 122 0 133 122 0 133 122 0 133 121 0 134 121 0 134 120 0 135 119 0 136 119 0 136 119 0 136 119 0 136 120 0 135 122 0 133 123 0 132 125 0 130 127 0 128 128 0 127 129 0 126 129 0 126 129 0 126 129 0 126 128 0 127 127 0 128 126 0 129 126 0 129 126 0 129 126 0 129 126 0 129 128 0 127 129 0 126 130 0 125 131 0 124 130 0 125 128 0 127 124 0 131 115 0 140 95 0 160 39 0 216 
164 0 91 136 0 119 131 0 124 130 0 125 130 0 125 129 0 126 129 0 126 128 0 127 127 0 128 126 0 129 125 0 130 124 0 131 123 0 132 122 0 133 122 0 133 122 0 133 122 0 133 123 0 132 123 0 132 123 0 132 123 0 132 122 0 133 122 0 133 122 0 133 122 0 133 123 0 132 125 0 130 127 0 128 128 0 127 130 0 125 131 0 124 133 0 122 134 0 121 134 0 121 134 0 121 133 0 122 131 0 124 130 0 125 130 0 125 129 0 126 130 0 125 131 0 124 132 0 123 133 0 122 133 0 122 133 0 122 132 0 123 131 0 124 130 0 125 130 0 125 129 0 126 129 0 126 129 0 126 129 0 126 129 0 126 129 0 126 129 0 126 129 0 126 129 0 126 128 0 127 127 0 128 123 0 132 116 0 139 104 0 151 87 0 168 64 0 191 35 0 220 3 0 252 0 0 255 0 0 255 0 0 255 0 0 255 0 0 255 0 0 255 0 0 255 0 0 255 0 0 255 0 0 255 0 0 255 0 0 255 0 0 255 0 0 255 0 0 255 0 0 255 0 0 255 0 0 255 0 0 255 0 0 255 0 0 255 0 0 255 0 0 255 0 0 255 0 0 255 0 0 255 0 0 255 0 0 255 0 0 255 0 0 255 0 0 255 0 0 255 0 0 255 0 0 255 0 0 255 0 0 255 0 0 255 0 0 255 0 0 255 0 0 255 0 0 255 0 0 255 0 0 255 0 0 255 0 0 255 0 0 255 0 0 255 0 0 255 0 0 255 0 0 255 0 0 255 0 0 255 0 0 255 0 0 255 0 0 255 0 0 255 0 0 255 0 0 255 0 0 255 0 0 255 0 0 255 0 0 255 0 0 255 0 0 255 2 0 253 34 0 221 62 0 193 85 0 170 102 0 153 114 0 141 121 0 134 125 0 130 127 0 128 129 0 126 129 0 126 129 0 126 129 0 126 129 0 126 129 0 126 128 0 127 128 0 127 128 0 127 129 0 126 130 0 125 130 0 125 130 0 125 130 0 125 129 0 126 128 0 127 127 0 128 126 0 129 125 0 130 125 0 130 124 0 131 123 0 132 123 0 132 122 0 133 122 0 133 121 0 134 121 0 134 120 0 135 119 0 136 118 0 137 118 0 137 118 0 137 120 0 135 121 0 134 123 0 132 126 0 129 127 0 128 128 0 127 129 0 126 129 0 126 129 0 126 128 0 127 128 0 127 127 0 128 126 0 129 125 0 130 125 0 130 125 0 130 126 0 129 127 0 128 128 0 127 130 0 125 130 0 125 130 0 125 128 0 127 125 0 130 120 0 135 113 0 142 104 0 151 
39 0 216 96 0 159 116 0 139 123 0 132 127 0 128 128 0 127 128 0 127 127 0 128 126 0 129 125 0 130 124 0 131 123 0 132 122 0 133 121 0 134 120 0 135 121 0 134 121 0 134 122 0 133 122 0 133 123 0 132 123 0 132 122 0 133 122 0 133 122 0 133 122 0 133 123 0 132 124 0 131 126 0 129 127 0 128 129 0 126 130 0 125 131 0 124 132 0 123 133 0 122 133 0 122 132 0 123 130 0 125 129 0 126 128 0 127 128 0 127 128 0 127 129 0 126 130 0 125 131 0 124 131 0 124 132 0 123 131 0 124 131 0 124 130 0 125 129 0 126 129 0 126 129 0 126 129 0 126 129 0 126 130 0 125 129 0 126 129 0 126 129 0 126 129 0 126 128 0 127 126 0 129 122 0 133 115 0 140 104 0 151 86 0 169 63 0 192 34 0 221 2 0 253 0 0 255 0 0 255 0 0 255 0 0 255 0 0 255 0 0 255 0 0 255 0 0 255 0 0 255 0 0 255 0 0 255 0 0 255 0 0 255 0 0 255 0 0 255 0 0 255 0 0 255 0 0 255 0 0 255 0 0 255 0 0 255 0 0 255 0 0 255 0 0 255 0 0 255 0 0 255 0 0 255 0 0 255 0 0 255 0 0 255 0 0 255 0 0 255 0 0 255 0 0 255 0 0 255 0 0 255 0 0 255 0 0 255 0 0 255 0 0 255 0 0 255 0 0 255 0 0 255 0 0 255 0 0 255 0 0 255 0 0 255 0 0 255 0 0 255 0 0 255 0 0 255 0 0 255 0 0 255 0 0 255 0 0 255 0 0 255 0 0 255 0 0 255 0 0 255 0 0 255 0 0 255 0 0 255 0 0 255 0 0 255 2 0 253 34 0 221 62 0 193 85 0 170 102 0 153 114 0 141 122 0 133 126 0 129 128 0 127 129 0 126 129 0 126 129 0 126 128 0 127 128 0 127 127 0 128 127 0 128 127 0 128 127 0 128 128 0 127 129 0 126 130 0 125 130 0 125 130 0 125 129 0 126 128 0 127 127 0 128 126 0 129 125 0 130 125 0 130 124 0 131 124 0 131 124 0 131 123 0 132 122 0 133 121 0 134 120 0 135 119 0 136 118 0 137 118 0 137 117 0 138 118 0 137 119 0 136 121 0 134 123 0 132 126 0 129 127 0 128 129 0 126 129 0 126 129 0 126 128 0 127 128 0 127 127 0 128 126 0 129 125 0 130 124 0 131 124 0 131 124 0 131 125 0 130 126 0 129 128 0 127 129 0 126 130 0 125 129 0 126 128 0 127 125 0 130 125 0 130 134 0 121 183 0 72 
37 0 218 92 0 163 111 0 144 120 0 135 124 0 131 126 0 129 127 0 128 126 0 129 126 0 129 124 0 131 123 0 132 122 0 133 120 0 135 119 0 136 119 0 136 119 0 136 120 0 135 121 0 134 122 0 133 122 0 133 123 0 132 123 0 132 122 0 133 122 0 133 122 0 133 122 0 133 123 0 132 124 0 131 126 0 129 127 0 128 129 0 126 130 0 125 131 0 124 131 0 124 131 0 124 130 0 125 129 0 126 128 0 127 127 0 128 126 0 129 126 0 129 127 0 128 128 0 127 129 0 126 130 0 125 130 0 125 130 0 125 130 0 125 129 0 126 129 0 126 129 0 126 129 0 126 129 0 126 130 0 125 130 0 125 130 0 125 129 0 126 129 0 126 129 0 126 128 0 127 126 0 129 122 0 133 115 0 140 103 0 152 86 0 169 63 0 192 34 0 221 2 0 253 0 0 255 0 0 255 0 0 255 0 0 255 0 0 255 0 0 255 0 0 255 0 0 255 0 0 255 0 0 255 0 0 255 0 0 255 0 0 255 0 0 255 0 0 255 0 0 255 0 0 255 0 0 255 0 0 255 0 0 255 0 0 255 0 0 255 0 0 255 0 0 255 0 0 255 0 0 255 0 0 255 0 0 255 0 0 255 0 0 255 0 0 255 0 0 255 0 0 255 0 0 255 0 0 255 0 0 255 0 0 255 0 0 255 0 0 255 0 0 255 0 0 255 0 0 255 0 0 255 0 0 255 0 0 255 0 0 255 0 0 255 0 0 255 0 0 255 0 0 255 0 0 255 0 0 255 0 0 255 0 0 255 0 0 255 0 0 255 0 0 255 0 0 255 0 0 255 0 0 255 0 0 255 0 0 255 0 0 255 0 0 255 2 0 253 34 0 221 62 0 193 85 0 170 103 0 152 114 0 141 122 0 133 126 0 129 128 0 127 129 0 126 128 0 127 128 0 127 127 0 128 126 0 129 126 0 129 126 0 129 126 0 129 127 0 128 128 0 127 129 0 126 130 0 125 130 0 125 129 0 126 128 0 127 127 0 128 126 0 129 126 0 129 125 0 130 125 0 130 125 0 130 125 0 130 124 0 131 124 0 131 123 0 132 122 0 133 120 0 135 119 0 136 118 0 137 117 0 138 117 0 138 118 0 137 119 0 136 121 0 134 123 0 132 125 0 130 127 0 128 128 0 127 128 0 127 128 0 127 127 0 128 126 0 129 126 0 129 125 0 130 124 0 131 124 0 131 123 0 132 124 0 131 125 0 130 126 0 129 128 0 127 129 0 126 130 0 125 129 0 126 127 0 128 123 0 132 118 0 137 114 0 141 114 0 141 
182 0 73 124 0 131 116 0 139 119 0 136 122 0 133 125 0 130 125 0 130 125 0 130 124 0 131 123 0 132 122 0 133 120 0 135 119 0 136 118 0 137 118 0 137 118 0 137 119 0 136 120 0 135 121 0 134 122 0 133 123 0 132 123 0 132 123 0 132 122 0 133 122 0 133 122 0 133 122 0 133 123 0 132 124 0 131 126 0 129 127 0 128 128 0 127 129 0 126 130 0 125 130 0 125 129 0 126 128 0 127 127 0 128 126 0 129 125 0 130 125 0 130 125 0 130 126 0 129 127 0 128 128 0 127 129 0 126 129 0 126 129 0 126 129 0 126 128 0 127 128 0 127 129 0 126 129 0 126 129 0 126 129 0 126 129 0 126 129 0 126 129 0 126 128 0 127 128 0 127 126 0 129 122 0 133 115 0 140 103 0 152 86 0 169 63 0 192 34 0 221 2 0 253 0 0 255 0 0 255 0 0 255 0 0 255 0 0 255 0 0 255 0 0 255 0 0 255 0 0 255 0 0 255 0 0 255 0 0 255 0 0 255 0 0 255 0 0 255 0 0 255 0 0 255 0 0 255 0 0 255 0 0 255 0 0 255 0 0 255 0 0 255 0 0 255 0 0 255 0 0 255 0 0 255 0 0 255 0 0 255 0 0 255 0 0 255 0 0 255 0 0 255 0 0 255 0 0 255 0 0 255 0 0 255 0 0 255 0 0 255 0 0 255 0 0 255 0 0 255 0 0 255 0 0 255 0 0 255 0 0 255 0 0 255 0 0 255 0 0 255 0 0 255 0 0 255 0 0 255 0 0 255 0 0 255 0 0 255 0 0 255 0 0 255 0 0 255 0 0 255 0 0 255 0 0 255 0 0 255 0 0 255 0 0 255 2 0 253 34 0 221 62 0 193 85 0 170 102 0 153 114 0 141 122 0 133 126 0 129 128 0 127 128 0 127 128 0 127 127 0 128 126 0 129 125 0 130 125 0 130 125 0 130 126 0 129 127 0 128 128 0 127 129 0 126 129 0 126 129 0 126 128 0 127 127 0 128 126 0 129 126 0 129 125 0 130 125 0 130 125 0 130 125 0 130 125 0 130 125 0 130 124 0 131 123 0 132 122 0 133 121 0 134 119 0 136 118 0 137 117 0 138 117 0 138 118 0 137 119 0 136 121 0 134 123 0 132 125 0 130 126 0 129 127 0 128 127 0 128 127 0 128 126 0 129 125 0 130 124 0 131 123 0 132 123 0 132 122 0 133 123 0 132 124 0 131 125 0 130 127 0 128 128 0 127 130 0 125 130 0 125 129 0 126 126 0 129 120 0 135 111 0 144 90 0 165 37 0 218 
94 0 161 103 0 152 110 0 145 116 0 139 120 0 135 123 0 132 124 0 131 124 0 131 123 0 132 122 0 133 120 0 135 119 0 136 118 0 137 117 0 138 117 0 138 118 0 137 119 0 136 120 0 135 121 0 134 123 0 132 123 0 132 124 0 131 123 0 132 123 0 132 122 0 133 122 0 133 122 0 133 122 0 133 123 0 132 124 0 131 125 0 130 126 0 129 127 0 128 128 0 127 128 0 127 128 0 127 127 0 128 126 0 129 125 0 130 124 0 131 123 0 132 123 0 132 124 0 131 125 0 130 126 0 129 127 0 128 128 0 127 128 0 127 128 0 127 128 0 127 128 0 127 128 0 127 128 0 127 128 0 127 129 0 126 128 0 127 128 0 127 128 0 127 128 0 127 127 0 128 126 0 129 122 0 133 115 0 140 104 0 151 86 0 169 63 0 192 34 0 221 2 0 253 0 0 255 0 0 255 0 0 255 0 0 255 0 0 255 0 0 255 0 0 255 0 0 255 0 0 255 0 0 255 0 0 255 0 0 255 0 0 255 0 0 255 0 0 255 0 0 255 0 0 255 0 0 255 0 0 255 0 0 255 0 0 255 0 0 255 0 0 255 0 0 255 0 0 255 0 0 255 0 0 255 0 0 255 0 0 255 0 0 255 0 0 255 0 0 255 0 0 255 0 0 255 0 0 255 0 0 255 0 0 255 0 0 255 0 0 255 0 0 255 0 0 255 0 0 255 0 0 255 0 0 255 0 0 255 0 0 255 0 0 255 0 0 255 0 0 255 0 0 255 0 0 255 0 0 255 0 0 255 0 0 255 0 0 255 0 0 255 0 0 255 0 0 255 0 0 255 0 0 255 0 0 255 0 0 255 0 0 255 0 0 255 2 0 253 33 0 222 61 0 194 84 0 171 101 0 154 113 0 142 121 0 134 125 0 130 127 0 128 127 0 128 127 0 128 126 0 129 125 0 130 125 0 130 125 0 130 125 0 130 126 0 129 127 0 128 128 0 127 129 0 126 129 0 126 128 0 127 128 0 127 126 0 129 126 0 129 125 0 130 125 0 130 125 0 130 126 0 129 126 0 129 126 0 129 126 0 129 125 0 130 124 0 131 123 0 132 121 0 134 119 0 136 118 0 137 117 0 138 117 0 138 118 0 137 119 0 136 121 0 134 123 0 132 124 0 131 126 0 129 126 0 129 126 0 129 125 0 130 124 0 131 123 0 132 122 0 133 121 0 134 121 0 134 121 0 134 122 0 133 123 0 132 125 0 130 127 0 128 129 0 126 130 0 125 131 0 124 129 0 126 126 0 129 121 0 134 113 0 142 98 0 157 69 0 186 
37 0 218 84 0 171 103 0 152 113 0 142 118 0 137 121 0 134 122 0 133 122 0 133 122 0 133 121 0 134 119 0 136 118 0 137 117 0 138 117 0 138 117 0 138 118 0 137 119 0 136 121 0 134 122 0 133 124 0 131 124 0 131 125 0 130 124 0 131 123 0 132 123 0 132 122 0 133 122 0 133 122 0 133 122 0 133 123 0 132 124 0 131 125 0 130 126 0 129 127 0 128 127 0 128 127 0 128 127 0 128 126 0 129 125 0 130 123 0 132 122 0 133 122 0 133 123 0 132 124 0 131 125 0 130 126 0 129 127 0 128 127 0 128 127 0 128 127 0 128 127 0 128 127 0 128 127 0 128 127 0 128 127 0 128 127 0 128 127 0 128 127 0 128 127 0 128 127 0 128 125 0 130 122 0 133 115 0 140 103 0 152 86 0 169 63 0 192 34 0 221 2 0 253 0 0 255 0 0 255 0 0 255 0 0 255 0 0 255 0 0 255 0 0 255 0 0 255 0 0 255 0 0 255 0 0 255 0 0 255 0 0 255 0 0 255 0 0 255 0 0 255 0 0 255 0 0 255 0 0 255 0 0 255 0 0 255 0 0 255 0 0 255 0 0 255 0 0 255 0 0 255 0 0 255 0 0 255 0 0 255 0 0 255 0 0 255 0 0 255 0 0 255 0 0 255 0 0 255 0 0 255 0 0 255 0 0 255 0 0 255 0 0 255 0 0 255 0 0 255 0 0 255 0 0 255 0 0 255 0 0 255 0 0 255 0 0 255 0 0 255 0 0 255 0 0 255 0 0 255 0 0 255 0 0 255 0 0 255 0 0 255 0 0 255 0 0 255 0 0 255 0 0 255 0 0 255 0 0 255 0 0 255 0 0 255 2 0 253 33 0 222 61 0 194 83 0 172 100 0 155 112 0 143 120 0 135 124 0 131 126 0 129 126 0 129 126 0 129 125 0 130 125 0 130 125 0 130 125 0 130 126 0 129 127 0 128 128 0 127 128 0 127 129 0 126 129 0 126 128 0 127 127 0 128 126 0 129 125 0 130 125 0 130 125 0 130 125 0 130 126 0 129 126 0 129 127 0 128 126 0 129 126 0 129 125 0 130 123 0 132 122 0 133 120 0 135 119 0 136 118 0 137 118 0 137 119 0 136 120 0 135 121 0 134 123 0 132 124 0 131 125 0 130 125 0 130 124 0 131 123 0 132 122 0 133 120 0 135 120 0 135 119 0 136 119 0 136 120 0 135 121 0 134 123 0 132 125 0 130 128 0 127 130 0 125 131 0 124 131 0 124 130 0 125 127 0 128 123 0 132 119 0 136 121 0 134 140 0 115 
51 0 204 91 0 164 105 0 150 113 0 142 118 0 137 120 0 135 121 0 134 121 0 134 121 0 134 120 0 135 119 0 136 118 0 137 118 0 137 118 0 137 118 0 137 119 0 136 121 0 134 122 0 133 124 0 131 125 0 130 126 0 129 126 0 129 126 0 129 125 0 130 124 0 131 123 0 132 122 0 133 122 0 133 122 0 133 122 0 133 123 0 132 124 0 131 125 0 130 126 0 129 126 0 129 127 0 128 127 0 128 126 0 129 125 0 130 123 0 132 122 0 133 121 0 134 122 0 133 123 0 132 124 0 131 125 0 130 126 0 129 127 0 128 127 0 128 127 0 128 127 0 128 127 0 128 126 0 129 126 0 129 126 0 129 126 0 129 125 0 130 126 0 129 126 0 129 126 0 129 124 0 131 121 0 134 114 0 141 103 0 152 86 0 169 63 0 192 34 0 221 2 0 253 0 0 255 0 0 255 0 0 255 0 0 255 0 0 255 0 0 255 0 0 255 0 0 255 0 0 255 0 0 255 0 0 255 0 0 255 0 0 255 0 0 255 0 0 255 0 0 255 0 0 255 0 0 255 0 0 255 0 0 255 0 0 255 0 0 255 0 0 255 0 0 255 0 0 255 0 0 255 0 0 255 0 0 255 0 0 255 0 0 255 0 0 255 0 0 255 0 0 255 0 0 255 0 0 255 0 0 255 0 0 255 0 0 255 0 0 255 0 0 255 0 0 255 0 0 255 0 0 255 0 0 255 0 0 255 0 0 255 0 0 255 0 0 255 0 0 255 0 0 255 0 0 255 0 0 255 0 0 255 0 0 255 0 0 255 0 0 255 0 0 255 0 0 255 0 0 255 0 0 255 0 0 255 0 0 255 0 0 255 0 0 255 2 0 253 33 0 222 60 0 195 82 0 173 99 0 156 111 0 144 119 0 136 123 0 132 125 0 130 126 0 129 125 0 130 125 0 130 125 0 130 125 0 130 125 0 130 126 0 129 127 0 128 128 0 127 129 0 126 129 0 126 128 0 127 127 0 128 126 0 129 125 0 130 124 0 131 124 0 131 125 0 130 125 0 130 126 0 129 127 0 128 127 0 128 127 0 128 126 0 129 125 0 130 124 0 131 122 0 133 121 0 134 120 0 135 119 0 136 119 0 136 120 0 135 121 0 134 122 0 133 123 0 132 123 0 132 124 0 131 123 0 132 123 0 132 121 0 134 120 0 135 119 0 136 118 0 137 118 0 137 118 0 137 119 0 136 121 0 134 123 0 132 126 0 129 128 0 127 130 0 125 132 0 123 132 0 123 130 0 125 127 0 128 123 0 132 119 0 136 125 0 130 170 0 85 
180 0 75 122 0 133 114 0 141 116 0 139 118 0 137 120 0 135 121 0 134 121 0 134 121 0 134 120 0 135 120 0 135 119 0 136 119 0 136 119 0 136 120 0 135 121 0 134 123 0 132 124 0 131 126 0 129 127 0 128 128 0 127 128 0 127 127 0 128 126 0 129 125 0 130 124 0 131 123 0 132 122 0 133 122 0 133 122 0 133 123 0 132 123 0 132 124 0 131 125 0 130 126 0 129 126 0 129 126 0 129 126 0 129 125 0 130 123 0 132 122 0 133 121 0 134 121 0 134 122 0 133 123 0 132 125 0 130 126 0 129 127 0 128 127 0 128 127 0 128 126 0 129 126 0 129 126 0 129 125 0 130 124 0 131 124 0 131 124 0 131 124 0 131 124 0 131 124 0 131 123 0 132 120 0 135 113 0 142 102 0 153 85 0 170 62 0 193 34 0 221 2 0 253 0 0 255 0 0 255 0 0 255 0 0 255 0 0 255 0 0 255 0 0 255 0 0 255 0 0 255 0 0 255 0 0 255 0 0 255 0 0 255 0 0 255 0 0 255 0 0 255 0 0 255 0 0 255 0 0 255 0 0 255 0 0 255 0 0 255 0 0 255 0 0 255 0 0 255 0 0 255 0 0 255 0 0 255 0 0 255 0 0 255 0 0 255 0 0 255 0 0 255 0 0 255 0 0 255 0 0 255 0 0 255 0 0 255 0 0 255 0 0 255 0 0 255 0 0 255 0 0 255 0 0 255 0 0 255 0 0 255 0 0 255 0 0 255 0 0 255 0 0 255 0 0 255 0 0 255 0 0 255 0 0 255 0 0 255 0 0 255 0 0 255 0 0 255 0 0 255 0 0 255 0 0 255 0 0 255 0 0 255 0 0 255 2 0 253 32 0 223 59 0 196 82 0 173 98 0 157 110 0 145 118 0 137 122 0 133 124 0 131 125 0 130 125 0 130 125 0 130 125 0 130 125 0 130 126 0 129 127 0 128 128 0 127 129 0 126 129 0 126 129 0 126 128 0 127 127 0 128 126 0 129 125 0 130 124 0 131 124 0 131 125 0 130 125 0 130 126 0 129 127 0 128 127 0 128 127 0 128 127 0 128 126 0 129 125 0 130 123 0 132 122 0 133 121 0 134 121 0 134 121 0 134 121 0 134 122 0 133 122 0 133 122 0 133 123 0 132 123 0 132 122 0 133 121 0 134 120 0 135 118 0 137 117 0 138 116 0 139 116 0 139 117 0 138 119 0 136 121 0 134 124 0 131 126 0 129 129 0 126 131 0 124 132 0 123 132 0 123 130 0 125 126 0 129 120 0 135 109 0 146 87 0 168 26 0 229 
61 0 194 103 0 152 113 0 142 117 0 138 119 0 136 121 0 134 122 0 133 122 0 133 122 0 133 122 0 133 121 0 134 121 0 134 121 0 134 121 0 134 122 0 133 124 0 131 125 0 130 127 0 128 128 0 127 129 0 126 130 0 125 130 0 125 129 0 126 128 0 127 126 0 129 125 0 130 124 0 131 123 0 132 123 0 132 122 0 133 123 0 132 123 0 132 124 0 131 124 0 131 125 0 130 126 0 129 126 0 129 126 0 129 125 0 130 123 0 132 122 0 133 121 0 134 121 0 134 122 0 133 123 0 132 124 0 131 126 0 129 126 0 129 127 0 128 127 0 128 126 0 129 126 0 129 125 0 130 124 0 131 123 0 132 123 0 132 122 0 133 122 0 133 123 0 132 123 0 132 122 0 133 118 0 137 112 0 143 100 0 155 84 0 171 61 0 194 33 0 222 2 0 253 0 0 255 0 0 255 0 0 255 0 0 255 0 0 255 0 0 255 0 0 255 0 0 255 0 0 255 0 0 255 0 0 255 0 0 255 0 0 255 0 0 255 0 0 255 0 0 255 0 0 255 0 0 255 0 0 255 0 0 255 0 0 255 0 0 255 0 0 255 0 0 255 0 0 255 0 0 255 0 0 255 0 0 255 0 0 255 0 0 255 0 0 255 0 0 255 0 0 255 0 0 255 0 0 255 0 0 255 0 0 255 0 0 255 0 0 255 0 0 255 0 0 255 0 0 255 0 0 255 0 0 255 0 0 255 0 0 255 0 0 255 0 0 255 0 0 255 0 0 255 0 0 255 0 0 255 0 0 255 0 0 255 0 0 255 0 0 255 0 0 255 0 0 255 0 0 255 0 0 255 0 0 255 0 0 255 0 0 255 0 0 255 2 0 253 32 0 223 59 0 196 81 0 174 98 0 157 109 0 146 117 0 138 122 0 133 124 0 131 125 0 130 125 0 130 125 0 130 125 0 130 126 0 129 126 0 129 127 0 128 128 0 127 129 0 126 129 0 126 129 0 126 129 0 126 127 0 128 126 0 129 125 0 130 124 0 131 124 0 131 125 0 130 126 0 129 126 0 129 127 0 128 127 0 128 127 0 128 127 0 128 126 0 129 125 0 130 124 0 131 123 0 132 123 0 132 122 0 133 122 0 133 122 0 133 122 0 133 122 0 133 122 0 133 122 0 133 122 0 133 121 0 134 120 0 135 119 0 136 118 0 137 117 0 138 116 0 139 116 0 139 117 0 138 119 0 136 122 0 133 124 0 131 127 0 128 129 0 126 131 0 124 132 0 123 131 0 124 130 0 125 126 0 129 119 0 136 109 0 146 89 0 166 45 0 210 
130 0 125 118 0 137 117 0 138 119 0 136 121 0 134 122 0 133 124 0 131 124 0 131 124 0 131 124 0 131 123 0 132 123 0 132 123 0 132 124 0 131 125 0 130 126 0 129 127 0 128 129 0 126 130 0 125 131 0 124 131 0 124 131 0 124 130 0 125 129 0 126 127 0 128 126 0 129 125 0 130 124 0 131 123 0 132 123 0 132 123 0 132 123 0 132 123 0 132 124 0 131 124 0 131 125 0 130 125 0 130 125 0 130 124 0 131 123 0 132 122 0 133 121 0 134 121 0 134 122 0 133 123 0 132 124 0 131 125 0 130 126 0 129 127 0 128 127 0 128 127 0 128 126 0 129 125 0 130 124 0 131 123 0 132 122 0 133 121 0 134 121 0 134 122 0 133 121 0 134 120 0 135 117 0 138 110 0 145 99 0 156 82 0 173 60 0 195 33 0 222 2 0 253 0 0 255 0 0 255 0 0 255 0 0 255 0 0 255 0 0 255 0 0 255 0 0 255 0 0 255 0 0 255 0 0 255 0 0 255 0 0 255 0 0 255 0 0 255 0 0 255 0 0 255 0 0 255 0 0 255 0 0 255 0 0 255 0 0 255 0 0 255 0 0 255 0 0 255 0 0 255 0 0 255 0 0 255 0 0 255 0 0 255 0 0 255 0 0 255 0 0 255 0 0 255 0 0 255 0 0 255 0 0 255 0 0 255 0 0 255 0 0 255 0 0 255 0 0 255 0 0 255 0 0 255 0 0 255 0 0 255 0 0 255 0 0 255 0 0 255 0 0 255 0 0 255 0 0 255 0 0 255 0 0 255 0 0 255 0 0 255 0 0 255 0 0 255 0 0 255 0 0 255 0 0 255 0 0 255 0 0 255 0 0 255 2 0 253 32 0 223 59 0 196 81 0 174 97 0 158 109 0 146 117 0 138 122 0 133 125 0 130 126 0 129 126 0 129 126 0 129 126 0 129 126 0 129 127 0 128 128 0 127 129 0 126 129 0 126 130 0 125 129 0 126 129 0 126 128 0 127 127 0 128 125 0 130 125 0 130 125 0 130 125 0 130 126 0 129 126 0 129 127 0 128 127 0 128 127 0 128 127 0 128 126 0 129 126 0 129 125 0 130 124 0 131 124 0 131 124 0 131 123 0 132 123 0 132 123 0 132 123 0 132 122 0 133 122 0 133 121 0 134 120 0 135 120 0 135 119 0 136 117 0 138 117 0 138 116 0 139 117 0 138 118 0 137 120 0 135 122 0 133 125 0 130 128 0 127 130 0 125 131 0 124 132 0 123 131 0 124 129 0 126 126 0 129 122 0 133 116 0 139 112 0 143 122 0 133 
139 0 116 120 0 135 118 0 137 119 0 136 122 0 133 124 0 131 125 0 130 126 0 129 126 0 129 126 0 129 126 0 129 125 0 130 125 0 130 126 0 129 127 0 128 128 0 127 129 0 126 130 0 125 131 0 124 132 0 123 132 0 123 131 0 124 131 0 124 129 0 126 128 0 127 127 0 128 125 0 130 124 0 131 123 0 132 123 0 132 122 0 133 122 0 133 123 0 132 123 0 132 124 0 131 124 0 131 125 0 130 125 0 130 124 0 131 123 0 132 123 0 132 122 0 133 121 0 134 122 0 133 123 0 132 124 0 131 125 0 130 127 0 128 127 0 128 128 0 127 127 0 128 127 0 128 125 0 130 124 0 131 123 0 132 122 0 133 121 0 134 121 0 134 121 0 134 120 0 135 119 0 136 115 0 140 108 0 147 97 0 158 81 0 174 59 0 196 32 0 223 2 0 253 0 0 255 0 0 255 0 0 255 0 0 255 0 0 255 0 0 255 0 0 255 0 0 255 0 0 255 0 0 255 0 0 255 0 0 255 0 0 255 0 0 255 0 0 255 0 0 255 0 0 255 0 0 255 0 0 255 0 0 255 0 0 255 0 0 255 0 0 255 0 0 255 0 0 255 0 0 255 0 0 255 0 0 255 0 0 255 0 0 255 0 0 255 0 0 255 0 0 255 0 0 255 0 0 255 0 0 255 0 0 255 0 0 255 0 0 255 0 0 255 0 0 255 0 0 255 0 0 255 0 0 255 0 0 255 0 0 255 0 0 255 0 0 255 0 0 255 0 0 255 0 0 255 0 0 255 0 0 255 0 0 255 0 0 255 0 0 255 0 0 255 0 0 255 0 0 255 0 0 255 0 0 255 0 0 255 0 0 255 0 0 255 2 0 253 32 0 223 59 0 196 81 0 174 98 0 157 110 0 145 118 0 137 122 0 133 125 0 130 127 0 128 127 0 128 127 0 128 127 0 128 127 0 128 128 0 127 128 0 127 129 0 126 130 0 125 130 0 125 130 0 125 129 0 126 129 0 126 127 0 128 126 0 129 125 0 130 125 0 130 126 0 129 126 0 129 127 0 128 127 0 128 127 0 128 126 0 129 126 0 129 126 0 129 125 0 130 125 0 130 125 0 130 125 0 130 124 0 131 124 0 131 124 0 131 124 0 131 123 0 132 122 0 133 122 0 133 121 0 134 120 0 135 120 0 135 119 0 136 118 0 137 117 0 138 117 0 138 118 0 137 119 0 136 121 0 134 123 0 132 126 0 129 128 0 127 130 0 125 131 0 124 132 0 123 131 0 124 129 0 126 127 0 128 123 0 132 120 0 135 121 0 134 137 0 118 
96 0 159 107 0 148 114 0 141 119 0 136 123 0 132 125 0 130 127 0 128 128 0 127 128 0 127 128 0 127 128 0 127 127 0 128 127 0 128 127 0 128 128 0 127 129 0 126 130 0 125 131 0 124 132 0 123 132 0 123 132 0 123 131 0 124 131 0 124 129 0 126 128 0 127 127 0 128 125 0 130 124 0 131 123 0 132 122 0 133 122 0 133 122 0 133 122 0 133 122 0 133 123 0 132 123 0 132 124 0 131 124 0 131 124 0 131 124 0 131 123 0 132 122 0 133 122 0 133 122 0 133 123 0 132 124 0 131 125 0 130 127 0 128 127 0 128 128 0 127 128 0 127 127 0 128 126 0 129 125 0 130 123 0 132 122 0 133 121 0 134 121 0 134 120 0 135 119 0 136 117 0 138 113 0 142 107 0 148 95 0 160 79 0 176 58 0 197 31 0 224 2 0 253 0 0 255 0 0 255 0 0 255 0 0 255 0 0 255 0 0 255 0 0 255 0 0 255 0 0 255 0 0 255 0 0 255 0 0 255 0 0 255 0 0 255 0 0 255 0 0 255 0 0 255 0 0 255 0 0 255 0 0 255 0 0 255 0 0 255 0 0 255 0 0 255 0 0 255 0 0 255 0 0 255 0 0 255 0 0 255 0 0 255 0 0 255 0 0 255 0 0 255 0 0 255 0 0 255 0 0 255 0 0 255 0 0 255 0 0 255 0 0 255 0 0 255 0 0 255 0 0 255 0 0 255 0 0 255 0 0 255 0 0 255 0 0 255 0 0 255 0 0 255 0 0 255 0 0 255 0 0 255 0 0 255 0 0 255 0 0 255 0 0 255 0 0 255 0 0 255 0 0 255 0 0 255 0 0 255 0 0 255 0 0 255 2 0 253 32 0 223 59 0 196 81 0 174 98 0 157 110 0 145 118 0 137 123 0 132 126 0 129 128 0 127 128 0 127 128 0 127 128 0 127 128 0 127 129 0 126 129 0 126 129 0 126 130 0 125 130 0 125 130 0 125 130 0 125 129 0 126 128 0 127 127 0 128 126 0 129 126 0 129 126 0 129 126 0 129 126 0 129 127 0 128 126 0 129 126 0 129 126 0 129 125 0 130 125 0 130 125 0 130 125 0 130 125 0 130 125 0 130 125 0 130 124 0 131 124 0 131 123 0 132 123 0 132 122 0 133 121 0 134 121 0 134 120 0 135 120 0 135 119 0 136 119 0 136 118 0 137 119 0 136 120 0 135 122 0 133 124 0 131 127 0 128 129 0 126 131 0 124 132 0 123 132 0 123 131 0 124 129 0 126 127 0 128 124 0 131 120 0 135 113 0 142 89 0 166 
68 0 187 98 0 157 111 0 144 118 0 137 123 0 132 126 0 129 128 0 127 129 0 126 130 0 125 129 0 126 129 0 126 128 0 127 128 0 127 128 0 127 129 0 126 129 0 126 130 0 125 131 0 124 131 0 124 132 0 123 132 0 123 131 0 124 130 0 125 129 0 126 128 0 127 126 0 129 125 0 130 123 0 132 122 0 133 122 0 133 121 0 134 121 0 134 121 0 134 122 0 133 122 0 133 122 0 133 123 0 132 123 0 132 124 0 131 123 0 132 123 0 132 123 0 132 122 0 133 122 0 133 123 0 132 124 0 131 125 0 130 126 0 129 127 0 128 128 0 127 128 0 127 128 0 127 127 0 128 126 0 129 124 0 131 123 0 132 122 0 133 121 0 134 120 0 135 119 0 136 116 0 139 112 0 143 105 0 150 94 0 161 78 0 177 57 0 198 31 0 224 2 0 253 0 0 255 0 0 255 0 0 255 0 0 255 0 0 255 0 0 255 0 0 255 0 0 255 0 0 255 0 0 255 0 0 255 0 0 255 0 0 255 0 0 255 0 0 255 0 0 255 0 0 255 0 0 255 0 0 255 0 0 255 0 0 255 0 0 255 0 0 255 0 0 255 0 0 255 0 0 255 0 0 255 0 0 255 0 0 255 0 0 255 0 0 255 0 0 255 0 0 255 0 0 255 0 0 255 0 0 255 0 0 255 0 0 255 0 0 255 0 0 255 0 0 255 0 0 255 0 0 255 0 0 255 0 0 255 0 0 255 0 0 255 0 0 255 0 0 255 0 0 255 0 0 255 0 0 255 0 0 255 0 0 255 0 0 255 0 0 255 0 0 255 0 0 255 0 0 255 0 0 255 0 0 255 0 0 255 0 0 255 0 0 255 2 0 253 33 0 222 60 0 195 82 0 173 99 0 156 112 0 143 120 0 135 125 0 130 127 0 128 129 0 126 130 0 125 130 0 125 130 0 125 130 0 125 130 0 125 130 0 125 130 0 125 130 0 125 131 0 124 131 0 124 131 0 124 130 0 125 129 0 126 128 0 127 127 0 128 126 0 129 126 0 129 126 0 129 126 0 129 126 0 129 126 0 129 125 0 130 125 0 130 124 0 131 124 0 131 124 0 131 124 0 131 124 0 131 124 0 131 124 0 131 124 0 131 124 0 131 123 0 132 123 0 132 122 0 133 122 0 133 122 0 133 121 0 134 121 0 134 120 0 135 120 0 135 120 0 135 120 0 135 121 0 134 123 0 132 125 0 130 127 0 128 130 0 125 131 0 124 132 0 123 132 0 123 132 0 123 130 0 125 127 0 128 124 0 131 121 0 134 123 0 132 158 0 97 
95 0 160 106 0 149 113 0 142 119 0 136 124 0 131 127 0 128 129 0 126 130 0 125 130 0 125 130 0 125 130 0 125 129 0 126 128 0 127 128 0 127 128 0 127 129 0 126 130 0 125 130 0 125 131 0 124 131 0 124 131 0 124 131 0 124 130 0 125 128 0 127 127 0 128 125 0 130 124 0 131 122 0 133 121 0 134 120 0 135 120 0 135 120 0 135 120 0 135 121 0 134 121 0 134 121 0 134 122 0 133 122 0 133 123 0 132 123 0 132 123 0 132 123 0 132 123 0 132 123 0 132 123 0 132 123 0 132 124 0 131 126 0 129 127 0 128 128 0 127 128 0 127 128 0 127 127 0 128 126 0 129 125 0 130 123 0 132 122 0 133 121 0 134 120 0 135 118 0 137 116 0 139 111 0 144 104 0 151 93 0 162 77 0 178 56 0 199 31 0 224 2 0 253 0 0 255 0 0 255 0 0 255 0 0 255 0 0 255 0 0 255 0 0 255 0 0 255 0 0 255 0 0 255 0 0 255 0 0 255 0 0 255 0 0 255 0 0 255 0 0 255 0 0 255 0 0 255 0 0 255 0 0 255 0 0 255 0 0 255 0 0 255 0 0 255 0 0 255 0 0 255 0 0 255 0 0 255 0 0 255 0 0 255 0 0 255 0 0 255 0 0 255 0 0 255 0 0 255 0 0 255 0 0 255 0 0 255 0 0 255 0 0 255 0 0 255 0 0 255 0 0 255 0 0 255 0 0 255 0 0 255 0 0 255 0 0 255 0 0 255 0 0 255 0 0 255 0 0 255 0 0 255 0 0 255 0 0 255 0 0 255 0 0 255 0 0 255 0 0 255 0 0 255 0 0 255 0 0 255 0 0 255 0 0 255 2 0 253 33 0 222 61 0 194 83 0 172 101 0 154 113 0 142 121 0 134 126 0 129 129 0 126 130 0 125 131 0 124 131 0 124 131 0 124 131 0 124 130 0 125 130 0 125 130 0 125 131 0 124 131 0 124 131 0 124 131 0 124 130 0 125 129 0 126 128 0 127 127 0 128 126 0 129 126 0 129 126 0 129 126 0 129 126 0 129 125 0 130 125 0 130 124 0 131 123 0 132 123 0 132 123 0 132 123 0 132 123 0 132 123 0 132 124 0 131 124 0 131 124 0 131 123 0 132 123 0 132 123 0 132 123 0 132 122 0 133 122 0 133 122 0 133 122 0 133 122 0 133 122 0 133 122 0 133 123 0 132 124 0 131 126 0 129 128 0 127 131 0 124 132 0 123 133 0 122 133 0 122 132 0 123 130 0 125 127 0 128 123 0 132 116 0 139 100 0 155 51 0 204 
123 0 132 116 0 139 117 0 138 120 0 135 124 0 131 127 0 128 129 0 126 130 0 125 130 0 125 130 0 125 129 0 126 129 0 126 128 0 127 128 0 127 128 0 127 128 0 127 129 0 126 130 0 125 130 0 125 130 0 125 130 0 125 130 0 125 129 0 126 128 0 127 126 0 129 124 0 131 123 0 132 121 0 134 120 0 135 119 0 136 119 0 136 119 0 136 120 0 135 120 0 135 120 0 135 120 0 135 121 0 134 122 0 133 122 0 133 123 0 132 123 0 132 123 0 132 123 0 132 122 0 133 122 0 133 123 0 132 124 0 131 125 0 130 126 0 129 127 0 128 128 0 127 128 0 127 127 0 128 126 0 129 125 0 130 124 0 131 123 0 132 121 0 134 120 0 135 118 0 137 116 0 139 111 0 144 104 0 151 93 0 162 77 0 178 56 0 199 31 0 224 2 0 253 0 0 255 0 0 255 0 0 255 0 0 255 0 0 255 0 0 255 0 0 255 0 0 255 0 0 255 0 0 255 0 0 255 0 0 255 0 0 255 0 0 255 0 0 255 0 0 255 0 0 255 0 0 255 0 0 255 0 0 255 0 0 255 0 0 255 0 0 255 0 0 255 0 0 255 0 0 255 0 0 255 0 0 255 0 0 255 0 0 255 0 0 255 0 0 255 0 0 255 0 0 255 0 0 255 0 0 255 0 0 255 0 0 255 0 0 255 0 0 255 0 0 255 0 0 255 0 0 255 0 0 255 0 0 255 0 0 255 0 0 255 0 0 255 0 0 255 0 0 255 0 0 255 0 0 255 0 0 255 0 0 255 0 0 255 0 0 255 0 0 255 0 0 255 0 0 255 0 0 255 0 0 255 0 0 255 0 0 255 0 0 255 2 0 253 34 0 221 62 0 193 85 0 170 102 0 153 114 0 141 122 0 133 127 0 128 130 0 125 131 0 124 132 0 123 132 0 123 132 0 123 132 0 123 131 0 124 131 0 124 131 0 124 131 0 124 131 0 124 132 0 123 131 0 124 131 0 124 130 0 125 128 0 127 127 0 128 126 0 129 126 0 129 126 0 129 126 0 129 126 0 129 125 0 130 124 0 131 123 0 132 122 0 133 122 0 133 122 0 133 122 0 133 122 0 133 122 0 133 123 0 132 123 0 132 123 0 132 123 0 132 123 0 132 123 0 132 123 0 132 124 0 131 124 0 131 124 0 131 124 0 131 124 0 131 124 0 131 124 0 131 125 0 130 126 0 129 127 0 128 129 0 126 131 0 124 133 0 122 134 0 121 134 0 121 133 0 122 131 0 124 128 0 127 123 0 132 118 0 137 111 0 144 108 0 147 
129 0 126 117 0 138 117 0 138 120 0 135 123 0 132 126 0 129 127 0 128 129 0 126 129 0 126 129 0 126 128 0 127 128 0 127 127 0 128 127 0 128 127 0 128 127 0 128 128 0 127 129 0 126 129 0 126 130 0 125 130 0 125 129 0 126 128 0 127 127 0 128 125 0 130 123 0 132 121 0 134 120 0 135 119 0 136 118 0 137 118 0 137 119 0 136 119 0 136 119 0 136 119 0 136 120 0 135 120 0 135 121 0 134 122 0 133 122 0 133 123 0 132 122 0 133 122 0 133 122 0 133 121 0 134 122 0 133 122 0 133 124 0 131 125 0 130 126 0 129 127 0 128 127 0 128 127 0 128 126 0 129 125 0 130 124 0 131 123 0 132 122 0 133 121 0 134 119 0 136 116 0 139 112 0 143 105 0 150 94 0 161 78 0 177 57 0 198 31 0 224 2 0 253 0 0 255 0 0 255 0 0 255 0 0 255 0 0 255 0 0 255 0 0 255 0 0 255 0 0 255 0 0 255 0 0 255 0 0 255 0 0 255 0 0 255 0 0 255 0 0 255 0 0 255 0 0 255 0 0 255 0 0 255 0 0 255 0 0 255 0 0 255 0 0 255 0 0 255 0 0 255 0 0 255 0 0 255 0 0 255 0 0 255 0 0 255 0 0 255 0 0 255 0 0 255 0 0 255 0 0 255 0 0 255 0 0 255 0 0 255 0 0 255 0 0 255 0 0 255 0 0 255 0 0 255 0 0 255 0 0 255 0 0 255 0 0 255 0 0 255 0 0 255 0 0 255 0 0 255 0 0 255 0 0 255 0 0 255 0 0 255 0 0 255 0 0 255 0 0 255 0 0 255 0 0 255 0 0 255 0 0 255 0 0 255 2 0 253 34 0 221 62 0 193 86 0 169 103 0 152 115 0 140 123 0 132 128 0 127 131 0 124 132 0 123 133 0 122 133 0 122 133 0 122 132 0 123 132 0 123 132 0 123 131 0 124 131 0 124 131 0 124 132 0 123 131 0 124 131 0 124 130 0 125 128 0 127 127 0 128 127 0 128 126 0 129 126 0 129 126 0 129 125 0 130 125 0 130 124 0 131 123 0 132 122 0 133 121 0 134 121 0 134 121 0 134 121 0 134 121 0 134 122 0 133 122 0 133 123 0 132 123 0 132 123 0 132 124 0 131 124 0 131 125 0 130 125 0 130 125 0 130 126 0 129 126 0 129 126 0 129 126 0 129 126 0 129 127 0 128 128 0 127 130 0 125 132 0 123 134 0 121 135 0 120 135 0 120 134 0 121 132 0 123 129 0 126 125 0 130 120 0 135 117 0 138 125 0 130 
78 0 177 106 0 149 115 0 140 119 0 136 121 0 134 124 0 131 125 0 130 127 0 128 127 0 128 127 0 128 127 0 128 126 0 129 125 0 130 125 0 130 125 0 130 126 0 129 127 0 128 128 0 127 129 0 126 129 0 126 129 0 126 128 0 127 127 0 128 126 0 129 124 0 131 122 0 133 121 0 134 119 0 136 118 0 137 118 0 137 118 0 137 118 0 137 118 0 137 119 0 136 119 0 136 119 0 136 119 0 136 120 0 135 121 0 134 121 0 134 122 0 133 122 0 133 121 0 134 121 0 134 120 0 135 121 0 134 121 0 134 122 0 133 124 0 131 125 0 130 126 0 129 126 0 129 126 0 129 125 0 130 125 0 130 124 0 131 123 0 132 122 0 133 121 0 134 120 0 135 118 0 137 114 0 141 107 0 148 96 0 159 80 0 175 58 0 197 32 0 223 2 0 253 0 0 255 0 0 255 0 0 255 0 0 255 0 0 255 0 0 255 0 0 255 0 0 255 0 0 255 0 0 255 0 0 255 0 0 255 0 0 255 0 0 255 0 0 255 0 0 255 0 0 255 0 0 255 0 0 255 0 0 255 0 0 255 0 0 255 0 0 255 0 0 255 0 0 255 0 0 255 0 0 255 0 0 255 0 0 255 0 0 255 0 0 255 0 0 255 0 0 255 0 0 255 0 0 255 0 0 255 0 0 255 0 0 255 0 0 255 0 0 255 0 0 255 0 0 255 0 0 255 0 0 255 0 0 255 0 0 255 0 0 255 0 0 255 0 0 255 0 0 255 0 0 255 0 0 255 0 0 255 0 0 255 0 0 255 0 0 255 0 0 255 0 0 255 0 0 255 0 0 255 0 0 255 0 0 255 0 0 255 0 0 255 2 0 253 34 0 221 63 0 192 86 0 169 104 0 151 116 0 139 124 0 131 128 0 127 131 0 124 133 0 122 134 0 121 134 0 121 133 0 122 133 0 122 132 0 123 132 0 123 131 0 124 131 0 124 131 0 124 131 0 124 131 0 124 130 0 125 130 0 125 128 0 127 127 0 128 127 0 128 126 0 129 126 0 129 126 0 129 126 0 129 125 0 130 124 0 131 123 0 132 121 0 134 121 0 134 120 0 135 120 0 135 120 0 135 121 0 134 121 0 134 122 0 133 122 0 133 123 0 132 124 0 131 125 0 130 125 0 130 126 0 129 126 0 129 127 0 128 127 0 128 128 0 127 128 0 127 128 0 127 128 0 127 128 0 127 129 0 126 131 0 124 133 0 122 134 0 121 135 0 120 135 0 120 134 0 121 132 0 123 129 0 126 125 0 130 121 0 134 112 0 143 90 0 165 
121 0 134 114 0 141 115 0 140 117 0 138 119 0 136 121 0 134 122 0 133 123 0 132 124 0 131 124 0 131 124 0 131 124 0 131 124 0 131 124 0 131 124 0 131 126 0 129 127 0 128 128 0 127 129 0 126 129 0 126 129 0 126 128 0 127 127 0 128 125 0 130 123 0 132 122 0 133 120 0 135 119 0 136 118 0 137 118 0 137 118 0 137 118 0 137 118 0 137 118 0 137 118 0 137 118 0 137 119 0 136 119 0 136 120 0 135 120 0 135 121 0 134 120 0 135 120 0 135 120 0 135 120 0 135 120 0 135 120 0 135 121 0 134 122 0 133 123 0 132 124 0 131 124 0 131 124 0 131 124 0 131 124 0 131 124 0 131 123 0 132 123 0 132 123 0 132 122 0 133 119 0 136 116 0 139 109 0 146 98 0 157 82 0 173 60 0 195 33 0 222 2 0 253 0 0 255 0 0 255 0 0 255 0 0 255 0 0 255 0 0 255 0 0 255 0 0 255 0 0 255 0 0 255 0 0 255 0 0 255 0 0 255 0 0 255 0 0 255 0 0 255 0 0 255 0 0 255 0 0 255 0 0 255 0 0 255 0 0 255 0 0 255 0 0 255 0 0 255 0 0 255 0 0 255 0 0 255 0 0 255 0 0 255 0 0 255 0 0 255 0 0 255 0 0 255 0 0 255 0 0 255 0 0 255 0 0 255 0 0 255 0 0 255 0 0 255 0 0 255 0 0 255 0 0 255 0 0 255 0 0 255 0 0 255 0 0 255 0 0 255 0 0 255 0 0 255 0 0 255 0 0 255 0 0 255 0 0 255 0 0 255 0 0 255 0 0 255 0 0 255 0 0 255 0 0 255 0 0 255 0 0 255 0 0 255 2 0 253 35 0 220 64 0 191 87 0 168 104 0 151 116 0 139 124 0 131 129 0 126 131 0 124 133 0 122 134 0 121 134 0 121 133 0 122 133 0 122 132 0 123 132 0 123 131 0 124 131 0 124 131 0 124 131 0 124 130 0 125 130 0 125 129 0 126 128 0 127 127 0 128 127 0 128 127 0 128 127 0 128 127 0 128 126 0 129 125 0 130 124 0 131 123 0 132 122 0 133 121 0 134 120 0 135 120 0 135 120 0 135 121 0 134 121 0 134 122 0 133 123 0 132 124 0 131 125 0 130 126 0 129 126 0 129 127 0 128 128 0 127 128 0 127 129 0 126 129 0 126 130 0 125 129 0 126 129 0 126 130 0 125 130 0 125 132 0 123 133 0 122 134 0 121 135 0 120 135 0 120 133 0 122 131 0 124 129 0 126 126 0 129 124 0 131 121 0 134 106 0 149 
124 0 131 115 0 140 115 0 140 116 0 139 117 0 138 118 0 137 119 0 136 120 0 135 120 0 135 121 0 134 121 0 134 122 0 133 122 0 133 123 0 132 124 0 131 125 0 130 127 0 128 128 0 127 129 0 126 129 0 126 129 0 126 128 0 127 126 0 129 125 0 130 123 0 132 122 0 133 120 0 135 119 0 136 119 0 136 118 0 137 118 0 137 118 0 137 119 0 136 118 0 137 118 0 137 118 0 137 118 0 137 118 0 137 119 0 136 119 0 136 119 0 136 119 0 136 119 0 136 119 0 136 119 0 136 119 0 136 120 0 135 121 0 134 122 0 133 122 0 133 123 0 132 123 0 132 123 0 132 123 0 132 123 0 132 123 0 132 123 0 132 124 0 131 124 0 131 123 0 132 121 0 134 118 0 137 111 0 144 100 0 155 84 0 171 61 0 194 33 0 222 2 0 253 0 0 255 0 0 255 0 0 255 0 0 255 0 0 255 0 0 255 0 0 255 0 0 255 0 0 255 0 0 255 0 0 255 0 0 255 0 0 255 0 0 255 0 0 255 0 0 255 0 0 255 0 0 255 0 0 255 0 0 255 0 0 255 0 0 255 0 0 255 0 0 255 0 0 255 0 0 255 0 0 255 0 0 255 0 0 255 0 0 255 0 0 255 0 0 255 0 0 255 0 0 255 0 0 255 0 0 255 0 0 255 0 0 255 0 0 255 0 0 255 0 0 255 0 0 255 0 0 255 0 0 255 0 0 255 0 0 255 0 0 255 0 0 255 0 0 255 0 0 255 0 0 255 0 0 255 0 0 255 0 0 255 0 0 255 0 0 255 0 0 255 0 0 255 0 0 255 0 0 255 0 0 255 0 0 255 0 0 255 0 0 255 2 0 253 35 0 220 64 0 191 87 0 168 104 0 151 116 0 139 124 0 131 128 0 127 131 0 124 133 0 122 134 0 121 134 0 121 133 0 122 132 0 123 132 0 123 131 0 124 130 0 125 130 0 125 130 0 125 130 0 125 129 0 126 129 0 126 128 0 127 128 0 127 127 0 128 127 0 128 127 0 128 127 0 128 127 0 128 127 0 128 126 0 129 125 0 130 124 0 131 122 0 133 121 0 134 121 0 134 121 0 134 121 0 134 121 0 134 122 0 133 122 0 133 123 0 132 124 0 131 125 0 130 126 0 129 127 0 128 128 0 127 129 0 126 130 0 125 130 0 125 131 0 124 131 0 124 131 0 124 131 0 124 131 0 124 131 0 124 132 0 123 133 0 122 134 0 121 134 0 121 134 0 121 132 0 123 130 0 125 128 0 127 126 0 129 128 0 127 142 0 113 209 0 46 
85 0 170 108 0 147 113 0 142 114 0 141 115 0 140 115 0 140 116 0 139 116 0 139 117 0 138 118 0 137 119 0 136 120 0 135 121 0 134 122 0 133 124 0 131 126 0 129 127 0 128 129 0 126 130 0 125 130 0 125 129 0 126 128 0 127 126 0 129 125 0 130 124 0 131 122 0 133 121 0 134 120 0 135 120 0 135 119 0 136 119 0 136 119 0 136 119 0 136 119 0 136 118 0 137 117 0 138 117 0 138 117 0 138 117 0 138 118 0 137 118 0 137 118 0 137 118 0 137 118 0 137 118 0 137 119 0 136 119 0 136 120 0 135 121 0 134 122 0 133 122 0 133 122 0 133 122 0 133 122 0 133 122 0 133 123 0 132 123 0 132 124 0 131 124 0 131 124 0 131 123 0 132 119 0 136 113 0 142 102 0 153 85 0 170 63 0 192 34 0 221 2 0 253 0 0 255 0 0 255 0 0 255 0 0 255 0 0 255 0 0 255 0 0 255 0 0 255 0 0 255 0 0 255 0 0 255 0 0 255 0 0 255 0 0 255 0 0 255 0 0 255 0 0 255 0 0 255 0 0 255 0 0 255 0 0 255 0 0 255 0 0 255 0 0 255 0 0 255 0 0 255 0 0 255 0 0 255 0 0 255 0 0 255 0 0 255 0 0 255 0 0 255 0 0 255 0 0 255 0 0 255 0 0 255 0 0 255 0 0 255 0 0 255 0 0 255 0 0 255 0 0 255 0 0 255 0 0 255 0 0 255 0 0 255 0 0 255 0 0 255 0 0 255 0 0 255 0 0 255 0 0 255 0 0 255 0 0 255 0 0 255 0 0 255 0 0 255 0 0 255 0 0 255 0 0 255 0 0 255 0 0 255 0 0 255 2 0 253 35 0 220 64 0 191 87 0 168 104 0 151 116 0 139 123 0 132 128 0 127 131 0 124 132 0 123 133 0 122 133 0 122 132 0 123 131 0 124 130 0 125 130 0 125 129 0 126 129 0 126 128 0 127 128 0 127 128 0 127 128 0 127 127 0 128 127 0 128 127 0 128 127 0 128 128 0 127 128 0 127 128 0 127 128 0 127 127 0 128 126 0 129 125 0 130 123 0 132 122 0 133 122 0 133 122 0 133 122 0 133 122 0 133 123 0 132 123 0 132 124 0 131 125 0 130 126 0 129 127 0 128 128 0 127 129 0 126 130 0 125 131 0 124 131 0 124 132 0 123 132 0 123 132 0 123 132 0 123 131 0 124 131 0 124 132 0 123 132 0 123 133 0 122 133 0 122 132 0 123 130 0 125 128 0 127 126 0 129 124 0 131 120 0 135 110 0 145 65 0 190 
132 0 123 119 0 136 116 0 139 114 0 141 113 0 142 113 0 142 113 0 142 113 0 142 114 0 141 115 0 140 117 0 138 118 0 137 120 0 135 122 0 133 125 0 130 127 0 128 128 0 127 130 0 125 130 0 125 130 0 125 130 0 125 128 0 127 127 0 128 126 0 129 124 0 131 123 0 132 123 0 132 122 0 133 121 0 134 121 0 134 120 0 135 120 0 135 119 0 136 118 0 137 118 0 137 117 0 138 116 0 139 116 0 139 116 0 139 116 0 139 116 0 139 117 0 138 117 0 138 117 0 138 118 0 137 118 0 137 119 0 136 120 0 135 121 0 134 121 0 134 121 0 134 121 0 134 121 0 134 121 0 134 121 0 134 122 0 133 123 0 132 124 0 131 125 0 130 125 0 130 124 0 131 121 0 134 114 0 141 103 0 152 87 0 168 63 0 192 35 0 220 2 0 253 0 0 255 0 0 255 0 0 255 0 0 255 0 0 255 0 0 255 0 0 255 0 0 255 0 0 255 0 0 255 0 0 255 0 0 255 0 0 255 0 0 255 0 0 255 0 0 255 0 0 255 0 0 255 0 0 255 0 0 255 0 0 255 0 0 255 0 0 255 0 0 255 0 0 255 0 0 255 0 0 255 0 0 255 0 0 255 0 0 255 0 0 255 0 0 255 0 0 255 0 0 255 0 0 255 0 0 255 0 0 255 0 0 255 0 0 255 0 0 255 0 0 255 0 0 255 0 0 255 0 0 255 0 0 255 0 0 255 0 0 255 0 0 255 0 0 255 0 0 255 0 0 255 0 0 255 0 0 255 0 0 255 0 0 255 0 0 255 0 0 255 0 0 255 0 0 255 0 0 255 0 0 255 0 0 255 0 0 255 0 0 255 2 0 253 35 0 220 64 0 191 87 0 168 104 0 151 116 0 139 123 0 132 128 0 127 131 0 124 132 0 123 133 0 122 132 0 123 131 0 124 130 0 125 129 0 126 128 0 127 127 0 128 127 0 128 126 0 129 126 0 129 126 0 129 126 0 129 126 0 129 126 0 129 127 0 128 127 0 128 128 0 127 128 0 127 129 0 126 128 0 127 128 0 127 127 0 128 126 0 129 124 0 131 123 0 132 123 0 132 123 0 132 123 0 132 123 0 132 123 0 132 124 0 131 125 0 130 126 0 129 127 0 128 128 0 127 129 0 126 129 0 126 130 0 125 131 0 124 132 0 123 133 0 122 133 0 122 132 0 123 132 0 123 132 0 123 131 0 124 131 0 124 132 0 123 132 0 123 131 0 124 130 0 125 129 0 126 127 0 128 125 0 130 123 0 132 119 0 136 112 0 143 89 0 166 
118 0 137 120 0 135 117 0 138 115 0 140 113 0 142 112 0 143 111 0 144 111 0 144 112 0 143 113 0 142 116 0 139 118 0 137 121 0 134 123 0 132 126 0 129 128 0 127 129 0 126 130 0 125 131 0 124 131 0 124 130 0 125 129 0 126 128 0 127 126 0 129 125 0 130 125 0 130 124 0 131 123 0 132 123 0 132 122 0 133 121 0 134 120 0 135 119 0 136 118 0 137 117 0 138 116 0 139 115 0 140 115 0 140 115 0 140 115 0 140 116 0 139 116 0 139 116 0 139 117 0 138 118 0 137 118 0 137 119 0 136 120 0 135 120 0 135 121 0 134 121 0 134 121 0 134 121 0 134 121 0 134 121 0 134 122 0 133 123 0 132 124 0 131 125 0 130 125 0 130 124 0 131 121 0 134 115 0 140 104 0 151 87 0 168 64 0 191 35 0 220 3 0 252 0 0 255 0 0 255 0 0 255 0 0 255 0 0 255 0 0 255 0 0 255 0 0 255 0 0 255 0 0 255 0 0 255 0 0 255 0 0 255 0 0 255 0 0 255 0 0 255 0 0 255 0 0 255 0 0 255 0 0 255 0 0 255 0 0 255 0 0 255 0 0 255 0 0 255 0 0 255 0 0 255 0 0 255 0 0 255 0 0 255 0 0 255 0 0 255 0 0 255 0 0 255 0 0 255 0 0 255 0 0 255 0 0 255 0 0 255 0 0 255 0 0 255 0 0 255 0 0 255 0 0 255 0 0 255 0 0 255 0 0 255 0 0 255 0 0 255 0 0 255 0 0 255 0 0 255 0 0 255 0 0 255 0 0 255 0 0 255 0 0 255 0 0 255 0 0 255 0 0 255 0 0 255 0 0 255 0 0 255 0 0 255 2 0 253 35 0 220 63 0 192 87 0 168 104 0 151 116 0 139 123 0 132 128 0 127 131 0 124 132 0 123 132 0 123 131 0 124 130 0 125 129 0 126 127 0 128 126 0 129 125 0 130 125 0 130 124 0 131 124 0 131 124 0 131 124 0 131 125 0 130 126 0 129 126 0 129 127 0 128 128 0 127 129 0 126 129 0 126 129 0 126 129 0 126 128 0 127 126 0 129 125 0 130 124 0 131 124 0 131 124 0 131 124 0 131 124 0 131 124 0 131 125 0 130 125 0 130 126 0 129 127 0 128 128 0 127 129 0 126 130 0 125 130 0 125 131 0 124 132 0 123 133 0 122 133 0 122 132 0 123 132 0 123 131 0 124 131 0 124 131 0 124 131 0 124 131 0 124 130 0 125 129 0 126 128 0 127 126 0 129 125 0 130 124 0 131 124 0 131 129 0 126 160 0 95 
138 0 117 126 0 129 120 0 135 116 0 139 114 0 141 112 0 143 111 0 144 110 0 145 111 0 144 113 0 142 116 0 139 119 0 136 122 0 133 124 0 131 127 0 128 129 0 126 130 0 125 131 0 124 131 0 124 131 0 124 130 0 125 129 0 126 128 0 127 127 0 128 126 0 129 126 0 129 125 0 130 125 0 130 124 0 131 123 0 132 122 0 133 121 0 134 119 0 136 118 0 137 116 0 139 115 0 140 114 0 141 114 0 141 114 0 141 115 0 140 115 0 140 116 0 139 116 0 139 117 0 138 118 0 137 118 0 137 119 0 136 120 0 135 121 0 134 121 0 134 121 0 134 121 0 134 121 0 134 121 0 134 121 0 134 121 0 134 122 0 133 123 0 132 124 0 131 125 0 130 124 0 131 121 0 134 115 0 140 104 0 151 87 0 168 64 0 191 35 0 220 3 0 252 0 0 255 0 0 255 0 0 255 0 0 255 0 0 255 0 0 255 0 0 255 0 0 255 0 0 255 0 0 255 0 0 255 0 0 255 0 0 255 0 0 255 0 0 255 0 0 255 0 0 255 0 0 255 0 0 255 0 0 255 0 0 255 0 0 255 0 0 255 0 0 255 0 0 255 0 0 255 0 0 255 0 0 255 0 0 255 0 0 255 0 0 255 0 0 255 0 0 255 0 0 255 0 0 255 0 0 255 0 0 255 0 0 255 0 0 255 0 0 255 0 0 255 0 0 255 0 0 255 0 0 255 0 0 255 0 0 255 0 0 255 0 0 255 0 0 255 0 0 255 0 0 255 0 0 255 0 0 255 0 0 255 0 0 255 0 0 255 0 0 255 0 0 255 0 0 255 0 0 255 0 0 255 0 0 255 0 0 255 0 0 255 2 0 253 35 0 220 63 0 192 87 0 168 104 0 151 116 0 139 124 0 131 129 0 126 131 0 124 132 0 123 132 0 123 131 0 124 129 0 126 128 0 127 126 0 129 125 0 130 124 0 131 123 0 132 122 0 133 122 0 133 123 0 132 123 0 132 124 0 131 125 0 130 126 0 129 127 0 128 128 0 127 129 0 126 130 0 125 130 0 125 129 0 126 128 0 127 127 0 128 126 0 129 125 0 130 125 0 130 125 0 130 124 0 131 125 0 130 125 0 130 125 0 130 126 0 129 126 0 129 127 0 128 127 0 128 128 0 127 129 0 126 130 0 125 131 0 124 132 0 123 133 0 122 133 0 122 132 0 123 131 0 124 131 0 124 130 0 125 130 0 125 130 0 125 130 0 125 129 0 126 128 0 127 127 0 128 126 0 129 125 0 130 124 0 131 124 0 131 122 0 133 98 0 157 
120 0 135 126 0 129 122 0 133 118 0 137 115 0 140 113 0 142 112 0 143 111 0 144 112 0 143 114 0 141 117 0 138 120 0 135 123 0 132 126 0 129 128 0 127 129 0 126 130 0 125 131 0 124 131 0 124 131 0 124 130 0 125 129 0 126 129 0 126 128 0 127 127 0 128 127 0 128 126 0 129 126 0 129 125 0 130 124 0 131 123 0 132 121 0 134 119 0 136 118 0 137 116 0 139 115 0 140 115 0 140 114 0 141 115 0 140 115 0 140 116 0 139 116 0 139 117 0 138 117 0 138 118 0 137 119 0 136 119 0 136 120 0 135 121 0 134 121 0 134 122 0 133 122 0 133 121 0 134 121 0 134 121 0 134 121 0 134 122 0 133 123 0 132 124 0 131 124 0 131 123 0 132 121 0 134 114 0 141 104 0 151 87 0 168 64 0 191 35 0 220 3 0 252 0 0 255 0 0 255 0 0 255 0 0 255 0 0 255 0 0 255 0 0 255 0 0 255 0 0 255 0 0 255 0 0 255 0 0 255 0 0 255 0 0 255 0 0 255 0 0 255 0 0 255 0 0 255 0 0 255 0 0 255 0 0 255 0 0 255 0 0 255 0 0 255 0 0 255 0 0 255 0 0 255 0 0 255 0 0 255 0 0 255 0 0 255 0 0 255 0 0 255 0 0 255 0 0 255 0 0 255 0 0 255 0 0 255 0 0 255 0 0 255 0 0 255 0 0 255 0 0 255 0 0 255 0 0 255 0 0 255 0 0 255 0 0 255 0 0 255 0 0 255 0 0 255 0 0 255 0 0 255 0 0 255 0 0 255 0 0 255 0 0 255 0 0 255 0 0 255 0 0 255 0 0 255 0 0 255 0 0 255 0 0 255 2 0 253 35 0 220 63 0 192 87 0 168 104 0 151 117 0 138 125 0 130 129 0 126 132 0 123 133 0 122 132 0 123 131 0 124 129 0 126 127 0 128 125 0 130 123 0 132 122 0 133 121 0 134 121 0 134 121 0 134 121 0 134 122 0 133 123 0 132 125 0 130 126 0 129 128 0 127 129 0 126 130 0 125 130 0 125 130 0 125 130 0 125 129 0 126 128 0 127 127 0 128 126 0 129 126 0 129 125 0 130 125 0 130 125 0 130 125 0 130 125 0 130 125 0 130 126 0 129 126 0 129 127 0 128 128 0 127 129 0 126 130 0 125 131 0 124 132 0 123 132 0 123 132 0 123 132 0 123 131 0 124 130 0 125 130 0 125 129 0 126 129 0 126 129 0 126 128 0 127 128 0 127 127 0 128 126 0 129 125 0 130 125 0 130 127 0 128 138 0 117 196 0 59 
153 0 102 135 0 120 127 0 128 121 0 134 118 0 137 115 0 140 114 0 141 114 0 141 114 0 141 116 0 139 119 0 136 121 0 134 124 0 131 127 0 128 128 0 127 129 0 126 130 0 125 130 0 125 130 0 125 130 0 125 130 0 125 129 0 126 128 0 127 128 0 127 127 0 128 127 0 128 127 0 128 127 0 128 126 0 129 125 0 130 123 0 132 121 0 134 120 0 135 118 0 137 117 0 138 116 0 139 115 0 140 116 0 139 116 0 139 117 0 138 117 0 138 118 0 137 118 0 137 118 0 137 119 0 136 119 0 136 120 0 135 121 0 134 121 0 134 122 0 133 122 0 133 122 0 133 122 0 133 122 0 133 122 0 133 122 0 133 122 0 133 123 0 132 124 0 131 124 0 131 123 0 132 120 0 135 114 0 141 103 0 152 87 0 168 64 0 191 35 0 220 3 0 252 0 0 255 0 0 255 0 0 255 0 0 255 0 0 255 0 0 255 0 0 255 0 0 255 0 0 255 0 0 255 0 0 255 0 0 255 0 0 255 0 0 255 0 0 255 0 0 255 0 0 255 0 0 255 0 0 255 0 0 255 0 0 255 0 0 255 0 0 255 0 0 255 0 0 255 0 0 255 0 0 255 0 0 255 0 0 255 0 0 255 0 0 255 0 0 255 0 0 255 0 0 255 0 0 255 0 0 255 0 0 255 0 0 255 0 0 255 0 0 255 0 0 255 0 0 255 0 0 255 0 0 255 0 0 255 0 0 255 0 0 255 0 0 255 0 0 255 0 0 255 0 0 255 0 0 255 0 0 255 0 0 255 0 0 255 0 0 255 0 0 255 0 0 255 0 0 255 0 0 255 0 0 255 0 0 255 0 0 255 0 0 255 2 0 253 35 0 220 64 0 191 87 0 168 105 0 150 117 0 138 125 0 130 130 0 125 132 0 123 133 0 122 132 0 123 131 0 124 129 0 126 127 0 128 125 0 130 123 0 132 121 0 134 120 0 135 120 0 135 120 0 135 121 0 134 122 0 133 123 0 132 125 0 130 127 0 128 128 0 127 129 0 126 130 0 125 130 0 125 130 0 125 130 0 125 129 0 126 128 0 127 128 0 127 127 0 128 126 0 129 126 0 129 125 0 130 125 0 130 125 0 130 125 0 130 125 0 130 125 0 130 125 0 130 126 0 129 126 0 129 128 0 127 129 0 126 130 0 125 131 0 124 132 0 123 132 0 123 131 0 124 130 0 125 130 0 125 129 0 126 129 0 126 129 0 126 129 0 126 128 0 127 128 0 127 127 0 128 126 0 129 125 0 130 124 0 131 121 0 134 107 0 148 50 0 205 
148 0 107 135 0 120 128 0 127 124 0 131 121 0 134 119 0 136 117 0 138 117 0 138 117 0 138 119 0 136 121 0 134 123 0 132 126 0 129 128 0 127 129 0 126 129 0 126 129 0 126 129 0 126 129 0 126 129 0 126 128 0 127 128 0 127 128 0 127 127 0 128 127 0 128 127 0 128 127 0 128 127 0 128 126 0 129 125 0 130 124 0 131 122 0 133 120 0 135 119 0 136 118 0 137 117 0 138 117 0 138 117 0 138 118 0 137 119 0 136 119 0 136 120 0 135 120 0 135 120 0 135 120 0 135 120 0 135 121 0 134 121 0 134 122 0 133 123 0 132 123 0 132 123 0 132 123 0 132 123 0 132 122 0 133 122 0 133 122 0 133 123 0 132 124 0 131 124 0 131 123 0 132 120 0 135 114 0 141 103 0 152 87 0 168 64 0 191 35 0 220 3 0 252 0 0 255 0 0 255 0 0 255 0 0 255 0 0 255 0 0 255 0 0 255 0 0 255 0 0 255 0 0 255 0 0 255 0 0 255 0 0 255 0 0 255 0 0 255 0 0 255 0 0 255 0 0 255 0 0 255 0 0 255 0 0 255 0 0 255 0 0 255 0 0 255 0 0 255 0 0 255 0 0 255 0 0 255 0 0 255 0 0 255 0 0 255 0 0 255 0 0 255 0 0 255 0 0 255 0 0 255 0 0 255 0 0 255 0 0 255 0 0 255 0 0 255 0 0 255 0 0 255 0 0 255 0 0 255 0 0 255 0 0 255 0 0 255 0 0 255 0 0 255 0 0 255 0 0 255 0 0 255 0 0 255 0 0 255 0 0 255 0 0 255 0 0 255 0 0 255 0 0 255 0 0 255 0 0 255 0 0 255 0 0 255 2 0 253 35 0 220 64 0 191 87 0 168 105 0 150 117 0 138 125 0 130 130 0 125 132 0 123 133 0 122 133 0 122 131 0 124 129 0 126 127 0 128 125 0 130 123 0 132 121 0 134 120 0 135 119 0 136 120 0 135 120 0 135 122 0 133 123 0 132 125 0 130 127 0 128 128 0 127 130 0 125 130 0 125 131 0 124 130 0 125 130 0 125 130 0 125 129 0 126 128 0 127 127 0 128 126 0 129 126 0 129 125 0 130 125 0 130 124 0 131 124 0 131 124 0 131 124 0 131 124 0 131 124 0 131 125 0 130 126 0 129 128 0 127 129 0 126 130 0 125 131 0 124 131 0 124 131 0 124 130 0 125 130 0 125 129 0 126 129 0 126 129 0 126 128 0 127 128 0 127 128 0 127 127 0 128 126 0 129 126 0 129 126 0 129 125 0 130 121 0 134 102 0 153 
133 0 122 130 0 125 129 0 126 126 0 129 124 0 131 122 0 133 121 0 134 120 0 135 121 0 134 122 0 133 123 0 132 125 0 130 127 0 128 128 0 127 129 0 126 129 0 126 129 0 126 128 0 127 128 0 127 128 0 127 127 0 128 127 0 128 127 0 128 127 0 128 127 0 128 127 0 128 127 0 128 127 0 128 126 0 129 126 0 129 124 0 131 123 0 132 121 0 134 120 0 135 119 0 136 119 0 136 119 0 136 119 0 136 120 0 135 121 0 134 121 0 134 122 0 133 122 0 133 122 0 133 122 0 133 122 0 133 122 0 133 122 0 133 123 0 132 123 0 132 124 0 131 124 0 131 124 0 131 123 0 132 123 0 132 123 0 132 123 0 132 123 0 132 124 0 131 124 0 131 123 0 132 120 0 135 114 0 141 104 0 151 87 0 168 64 0 191 35 0 220 3 0 252 0 0 255 0 0 255 0 0 255 0 0 255 0 0 255 0 0 255 0 0 255 0 0 255 0 0 255 0 0 255 0 0 255 0 0 255 0 0 255 0 0 255 0 0 255 0 0 255 0 0 255 0 0 255 0 0 255 0 0 255 0 0 255 0 0 255 0 0 255 0 0 255 0 0 255 0 0 255 0 0 255 0 0 255 0 0 255 0 0 255 0 0 255 0 0 255 0 0 255 0 0 255 0 0 255 0 0 255 0 0 255 0 0 255 0 0 255 0 0 255 0 0 255 0 0 255 0 0 255 0 0 255 0 0 255 0 0 255 0 0 255 0 0 255 0 0 255 0 0 255 0 0 255 0 0 255 0 0 255 0 0 255 0 0 255 0 0 255 0 0 255 0 0 255 0 0 255 0 0 255 0 0 255 0 0 255 0 0 255 0 0 255 2 0 253 35 0 220 64 0 191 87 0 168 105 0 150 117 0 138 125 0 130 130 0 125 132 0 123 133 0 122 133 0 122 131 0 124 129 0 126 127 0 128 125 0 130 123 0 132 121 0 134 120 0 135 119 0 136 120 0 135 121 0 134 122 0 133 124 0 131 126 0 129 127 0 128 129 0 126 130 0 125 130 0 125 131 0 124 131 0 124 130 0 125 130 0 125 129 0 126 128 0 127 127 0 128 126 0 129 126 0 129 125 0 130 124 0 131 124 0 131 123 0 132 123 0 132 122 0 133 122 0 133 123 0 132 124 0 131 125 0 130 127 0 128 128 0 127 130 0 125 130 0 125 130 0 125 130 0 125 130 0 125 129 0 126 129 0 126 129 0 126 129 0 126 128 0 127 128 0 127 127 0 128 127 0 128 126 0 129 126 0 129 128 0 127 132 0 123 149 0 106 213 0 42 
92 0 163 125 0 130 130 0 125 129 0 126 127 0 128 125 0 130 124 0 131 124 0 131 124 0 131 124 0 131 125 0 130 127 0 128 128 0 127 129 0 126 129 0 126 129 0 126 128 0 127 128 0 127 127 0 128 127 0 128 126 0 129 126 0 129 126 0 129 126 0 129 126 0 129 126 0 129 127 0 128 127 0 128 127 0 128 126 0 129 125 0 130 124 0 131 123 0 132 122 0 133 121 0 134 121 0 134 121 0 134 122 0 133 122 0 133 123 0 132 124 0 131 124 0 131 124 0 131 124 0 131 124 0 131 124 0 131 123 0 132 123 0 132 124 0 131 124 0 131 124 0 131 125 0 130 125 0 130 124 0 131 124 0 131 124 0 131 124 0 131 124 0 131 124 0 131 125 0 130 124 0 131 121 0 134 115 0 140 104 0 151 87 0 168 64 0 191 35 0 220 3 0 252 0 0 255 0 0 255 0 0 255 0 0 255 0 0 255 0 0 255 0 0 255 0 0 255 0 0 255 0 0 255 0 0 255 0 0 255 0 0 255 0 0 255 0 0 255 0 0 255 0 0 255 0 0 255 0 0 255 0 0 255 0 0 255 0 0 255 0 0 255 0 0 255 0 0 255 0 0 255 0 0 255 0 0 255 0 0 255 0 0 255 0 0 255 0 0 255 0 0 255 0 0 255 0 0 255 0 0 255 0 0 255 0 0 255 0 0 255 0 0 255 0 0 255 0 0 255 0 0 255 0 0 255 0 0 255 0 0 255 0 0 255 0 0 255 0 0 255 0 0 255 0 0 255 0 0 255 0 0 255 0 0 255 0 0 255 0 0 255 0 0 255 0 0 255 0 0 255 0 0 255 0 0 255 0 0 255 0 0 255 0 0 255 2 0 253 35 0 220 64 0 191 87 0 168 105 0 150 117 0 138 125 0 130 129 0 126 132 0 123 133 0 122 132 0 123 131 0 124 129 0 126 127 0 128 125 0 130 123 0 132 121 0 134 120 0 135 119 0 136 120 0 135 121 0 134 123 0 132 124 0 131 126 0 129 128 0 127 129 0 126 130 0 125 130 0 125 131 0 124 131 0 124 130 0 125 130 0 125 129 0 126 128 0 127 127 0 128 126 0 129 125 0 130 124 0 131 123 0 132 123 0 132 122 0 133 121 0 134 121 0 134 121 0 134 121 0 134 122 0 133 124 0 131 126 0 129 127 0 128 129 0 126 129 0 126 130 0 125 130 0 125 130 0 125 129 0 126 129 0 126 129 0 126 128 0 127 128 0 127 127 0 128 126 0 129 126 0 129 125 0 130 125 0 130 126 0 129 127 0 128 129 0 126 126 0 129 
169 0 86 146 0 109 138 0 117 133 0 122 130 0 125 128 0 127 127 0 128 126 0 129 126 0 129 126 0 129 127 0 128 128 0 127 128 0 127 129 0 126 129 0 126 128 0 127 128 0 127 127 0 128 126 0 129 126 0 129 125 0 130 125 0 130 125 0 130 126 0 129 126 0 129 126 0 129 127 0 128 127 0 128 127 0 128 127 0 128 126 0 129 125 0 130 124 0 131 123 0 132 123 0 132 123 0 132 123 0 132 123 0 132 124 0 131 125 0 130 125 0 130 126 0 129 126 0 129 126 0 129 126 0 129 125 0 130 125 0 130 124 0 131 125 0 130 125 0 130 125 0 130 126 0 129 126 0 129 125 0 130 125 0 130 125 0 130 125 0 130 125 0 130 125 0 130 125 0 130 124 0 131 121 0 134 115 0 140 104 0 151 87 0 168 64 0 191 35 0 220 3 0 252 0 0 255 0 0 255 0 0 255 0 0 255 0 0 255 0 0 255 0 0 255 0 0 255 0 0 255 0 0 255 0 0 255 0 0 255 0 0 255 0 0 255 0 0 255 0 0 255 0 0 255 0 0 255 0 0 255 0 0 255 0 0 255 0 0 255 0 0 255 0 0 255 0 0 255 0 0 255 0 0 255 0 0 255 0 0 255 0 0 255 0 0 255 0 0 255 0 0 255 0 0 255 0 0 255 0 0 255 0 0 255 0 0 255 0 0 255 0 0 255 0 0 255 0 0 255 0 0 255 0 0 255 0 0 255 0 0 255 0 0 255 0 0 255 0 0 255 0 0 255 0 0 255 0 0 255 0 0 255 0 0 255 0 0 255 0 0 255 0 0 255 0 0 255 0 0 255 0 0 255 0 0 255 0 0 255 0 0 255 0 0 255 2 0 253 35 0 220 64 0 191 87 0 168 104 0 151 116 0 139 124 0 131 128 0 127 131 0 124 132 0 123 132 0 123 131 0 124 130 0 125 127 0 128 125 0 130 123 0 132 121 0 134 120 0 135 120 0 135 120 0 135 121 0 134 123 0 132 125 0 130 126 0 129 128 0 127 129 0 126 130 0 125 130 0 125 130 0 125 130 0 125 130 0 125 129 0 126 129 0 126 128 0 127 127 0 128 125 0 130 124 0 131 123 0 132 122 0 133 122 0 133 121 0 134 120 0 135 120 0 135 120 0 135 121 0 134 122 0 133 123 0 132 125 0 130 127 0 128 128 0 127 129 0 126 129 0 126 129 0 126 129 0 126 129 0 126 129 0 126 128 0 127 128 0 127 127 0 128 126 0 129 125 0 130 124 0 131 124 0 131 124 0 131 124 0 131 122 0 133 115 0 140 94 0 161 
181 0 74 154 0 101 142 0 113 136 0 119 132 0 123 130 0 125 128 0 127 128 0 127 127 0 128 128 0 127 128 0 127 128 0 127 129 0 126 129 0 126 129 0 126 128 0 127 128 0 127 127 0 128 126 0 129 125 0 130 125 0 130 125 0 130 125 0 130 126 0 129 126 0 129 127 0 128 127 0 128 127 0 128 127 0 128 127 0 128 127 0 128 126 0 129 126 0 129 125 0 130 124 0 131 124 0 131 124 0 131 124 0 131 125 0 130 126 0 129 126 0 129 127 0 128 128 0 127 128 0 127 127 0 128 127 0 128 126 0 129 126 0 129 125 0 130 126 0 129 126 0 129 126 0 129 127 0 128 127 0 128 126 0 129 126 0 129 126 0 129 126 0 129 126 0 129 126 0 129 125 0 130 122 0 133 115 0 140 104 0 151 87 0 168 64 0 191 35 0 220 3 0 252 0 0 255 0 0 255 0 0 255 0 0 255 0 0 255 0 0 255 0 0 255 0 0 255 0 0 255 0 0 255 0 0 255 0 0 255 0 0 255 0 0 255 0 0 255 0 0 255 0 0 255 0 0 255 0 0 255 0 0 255 0 0 255 0 0 255 0 0 255 0 0 255 0 0 255 0 0 255 0 0 255 0 0 255 0 0 255 0 0 255 0 0 255 0 0 255 0 0 255 0 0 255 0 0 255 0 0 255 0 0 255 0 0 255 0 0 255 0 0 255 0 0 255 0 0 255 0 0 255 0 0 255 0 0 255 0 0 255 0 0 255 0 0 255 0 0 255 0 0 255 0 0 255 0 0 255 0 0 255 0 0 255 0 0 255 0 0 255 0 0 255 0 0 255 0 0 255 0 0 255 0 0 255 0 0 255 0 0 255 0 0 255 2 0 253 35 0 220 64 0 191 87 0 168 104 0 151 115 0 140 122 0 133 127 0 128 129 0 126 131 0 124 131 0 124 131 0 124 130 0 125 128 0 127 125 0 130 123 0 132 121 0 134 120 0 135 120 0 135 121 0 134 122 0 133 123 0 132 125 0 130 126 0 129 128 0 127 129 0 126 129 0 126 130 0 125 130 0 125 130 0 125 129 0 126 129 0 126 128 0 127 127 0 128 126 0 129 125 0 130 123 0 132 122 0 133 121 0 134 121 0 134 120 0 135 120 0 135 120 0 135 120 0 135 121 0 134 122 0 133 123 0 132 125 0 130 126 0 129 127 0 128 128 0 127 128 0 127 128 0 127 128 0 127 128 0 127 128 0 127 127 0 128 127 0 128 126 0 129 124 0 131 123 0 132 123 0 132 122 0 133 123 0 132 123 0 132 122 0 133 116 0 139 95 0 160 
134 0 121 147 0 108 141 0 114 136 0 119 132 0 123 130 0 125 129 0 126 128 0 127 128 0 127 128 0 127 128 0 127 129 0 126 129 0 126 129 0 126 129 0 126 128 0 127 128 0 127 127 0 128 126 0 129 126 0 129 125 0 130 125 0 130 125 0 130 126 0 129 126 0 129 127 0 128 127 0 128 128 0 127 128 0 127 128 0 127 128 0 127 127 0 128 127 0 128 126 0 129 126 0 129 125 0 130 125 0 130 125 0 130 125 0 130 126 0 129 127 0 128 128 0 127 129 0 126 129 0 126 128 0 127 128 0 127 127 0 128 126 0 129 126 0 129 127 0 128 127 0 128 127 0 128 128 0 127 128 0 127 127 0 128 127 0 128 127 0 128 127 0 128 127 0 128 126 0 129 125 0 130 122 0 133 115 0 140 104 0 151 87 0 168 64 0 191 35 0 220 2 0 253 0 0 255 0 0 255 0 0 255 0 0 255 0 0 255 0 0 255 0 0 255 0 0 255 0 0 255 0 0 255 0 0 255 0 0 255 0 0 255 0 0 255 0 0 255 0 0 255 0 0 255 0 0 255 0 0 255 0 0 255 0 0 255 0 0 255 0 0 255 0 0 255 0 0 255 0 0 255 0 0 255 0 0 255 0 0 255 0 0 255 0 0 255 0 0 255 0 0 255 0 0 255 0 0 255 0 0 255 0 0 255 0 0 255 0 0 255 0 0 255 0 0 255 0 0 255 0 0 255 0 0 255 0 0 255 0 0 255 0 0 255 0 0 255 0 0 255 0 0 255 0 0 255 0 0 255 0 0 255 0 0 255 0 0 255 0 0 255 0 0 255 0 0 255 0 0 255 0 0 255 0 0 255 0 0 255 0 0 255 0 0 255 2 0 253 35 0 220 63 0 192 87 0 168 103 0 152 114 0 141 121 0 134 125 0 130 128 0 127 129 0 126 130 0 125 130 0 125 130 0 125 128 0 127 126 0 129 124 0 131 122 0 133 121 0 134 121 0 134 121 0 134 122 0 133 124 0 131 125 0 130 126 0 129 127 0 128 128 0 127 128 0 127 129 0 126 129 0 126 129 0 126 129 0 126 128 0 127 127 0 128 126 0 129 125 0 130 123 0 132 122 0 133 121 0 134 120 0 135 120 0 135 120 0 135 120 0 135 120 0 135 121 0 134 121 0 134 122 0 133 124 0 131 125 0 130 126 0 129 127 0 128 127 0 128 127 0 128 127 0 128 127 0 128 127 0 128 126 0 129 126 0 129 125 0 130 124 0 131 123 0 132 122 0 133 121 0 134 121 0 134 122 0 133 124 0 131 128 0 127 134 0 121 151 0 104 
223 0 32 159 0 96 141 0 114 134 0 121 131 0 124 129 0 126 128 0 127 128 0 127 128 0 127 128 0 127 129 0 126 129 0 126 129 0 126 129 0 126 129 0 126 128 0 127 128 0 127 127 0 128 126 0 129 126 0 129 125 0 130 125 0 130 126 0 129 126 0 129 126 0 129 127 0 128 127 0 128 127 0 128 128 0 127 128 0 127 128 0 127 128 0 127 128 0 127 127 0 128 127 0 128 126 0 129 125 0 130 125 0 130 125 0 130 126 0 129 127 0 128 128 0 127 129 0 126 129 0 126 129 0 126 128 0 127 127 0 128 127 0 128 127 0 128 128 0 127 128 0 127 128 0 127 129 0 126 129 0 126 128 0 127 128 0 127 128 0 127 127 0 128 127 0 128 126 0 129 124 0 131 121 0 134 114 0 141 103 0 152 87 0 168 63 0 192 35 0 220 2 0 253 0 0 255 0 0 255 0 0 255 0 0 255 0 0 255 0 0 255 0 0 255 0 0 255 0 0 255 0 0 255 0 0 255 0 0 255 0 0 255 0 0 255 0 0 255 0 0 255 0 0 255 0 0 255 0 0 255 0 0 255 0 0 255 0 0 255 0 0 255 0 0 255 0 0 255 0 0 255 0 0 255 0 0 255 0 0 255 0 0 255 0 0 255 0 0 255 0 0 255 0 0 255 0 0 255 0 0 255 0 0 255 0 0 255 0 0 255 0 0 255 0 0 255 0 0 255 0 0 255 0 0 255 0 0 255 0 0 255 0 0 255 0 0 255 0 0 255 0 0 255 0 0 255 0 0 255 0 0 255 0 0 255 0 0 255 0 0 255 0 0 255 0 0 255 0 0 255 0 0 255 0 0 255 0 0 255 0 0 255 0 0 255 2 0 253 35 0 220 63 0 192 86 0 169 103 0 152 113 0 142 120 0 135 124 0 131 126 0 129 128 0 127 129 0 126 130 0 125 129 0 126 128 0 127 126 0 129 125 0 130 123 0 132 122 0 133 122 0 133 122 0 133 123 0 132 124 0 131 125 0 130 126 0 129 126 0 129 127 0 128 127 0 128 128 0 127 128 0 127 128 0 127 128 0 127 127 0 128 127 0 128 125 0 130 124 0 131 122 0 133 121 0 134 119 0 136 119 0 136 119 0 136 120 0 135 120 0 135 121 0 134 122 0 133 123 0 132 124 0 131 125 0 130 126 0 129 126 0 129 126 0 129 126 0 129 126 0 129 125 0 130 125 0 130 125 0 130 125 0 130 125 0 130 124 0 131 123 0 132 121 0 134 120 0 135 120 0 135 120 0 135 122 0 133 125 0 130 131 0 124 140 0 115 149 0 106 
65 0 190 124 0 131 131 0 124 130 0 125 129 0 126 128 0 127 127 0 128 127 0 128 127 0 128 128 0 127 129 0 126 129 0 126 129 0 126 130 0 125 129 0 126 129 0 126 128 0 127 127 0 128 127 0 128 126 0 129 125 0 130 125 0 130 125 0 130 126 0 129 126 0 129 126 0 129 126 0 129 127 0 128 127 0 128 127 0 128 128 0 127 128 0 127 128 0 127 128 0 127 128 0 127 127 0 128 126 0 129 126 0 129 126 0 129 126 0 129 127 0 128 128 0 127 128 0 127 129 0 126 128 0 127 128 0 127 128 0 127 128 0 127 128 0 127 128 0 127 129 0 126 129 0 126 129 0 126 129 0 126 129 0 126 128 0 127 128 0 127 127 0 128 126 0 129 125 0 130 124 0 131 120 0 135 113 0 142 102 0 153 86 0 169 63 0 192 34 0 221 2 0 253 0 0 255 0 0 255 0 0 255 0 0 255 0 0 255 0 0 255 0 0 255 0 0 255 0 0 255 0 0 255 0 0 255 0 0 255 0 0 255 0 0 255 0 0 255 0 0 255 0 0 255 0 0 255 0 0 255 0 0 255 0 0 255 0 0 255 0 0 255 0 0 255 0 0 255 0 0 255 0 0 255 0 0 255 0 0 255 0 0 255 0 0 255 0 0 255 0 0 255 0 0 255 0 0 255 0 0 255 0 0 255 0 0 255 0 0 255 0 0 255 0 0 255 0 0 255 0 0 255 0 0 255 0 0 255 0 0 255 0 0 255 0 0 255 0 0 255 0 0 255 0 0 255 0 0 255 0 0 255 0 0 255 0 0 255 0 0 255 0 0 255 0 0 255 0 0 255 0 0 255 0 0 255 0 0 255 0 0 255 0 0 255 2 0 253 35 0 220 63 0 192 86 0 169 102 0 153 112 0 143 119 0 136 122 0 133 125 0 130 126 0 129 128 0 127 129 0 126 129 0 126 128 0 127 127 0 128 125 0 130 124 0 131 123 0 132 123 0 132 123 0 132 123 0 132 124 0 131 125 0 130 125 0 130 126 0 129 126 0 129 126 0 129 127 0 128 127 0 128 127 0 128 127 0 128 127 0 128 126 0 129 124 0 131 123 0 132 121 0 134 119 0 136 118 0 137 118 0 137 119 0 136 120 0 135 121 0 134 122 0 133 123 0 132 124 0 131 125 0 130 126 0 129 127 0 128 126 0 129 126 0 129 125 0 130 124 0 131 124 0 131 124 0 131 124 0 131 124 0 131 123 0 132 123 0 132 122 0 133 121 0 134 120 0 135 119 0 136 119 0 136 121 0 134 125 0 130 132 0 123 147 0 108 187 0 68 
207 0 48 142 0 113 129 0 126 127 0 128 126 0 129 126 0 129 126 0 129 126 0 129 127 0 128 128 0 127 129 0 126 129 0 126 130 0 125 130 0 125 130 0 125 129 0 126 129 0 126 128 0 127 127 0 128 126 0 129 125 0 130 125 0 130 125 0 130 124 0 131 124 0 131 125 0 130 125 0 130 125 0 130 126 0 129 126 0 129 127 0 128 128 0 127 128 0 127 129 0 126 128 0 127 128 0 127 127 0 128 127 0 128 126 0 129 127 0 128 127 0 128 128 0 127 128 0 127 128 0 127 128 0 127 128 0 127 128 0 127 128 0 127 128 0 127 129 0 126 129 0 126 130 0 125 130 0 125 130 0 125 129 0 126 129 0 126 128 0 127 127 0 128 126 0 129 124 0 131 122 0 133 119 0 136 112 0 143 101 0 154 85 0 170 62 0 193 34 0 221 2 0 253 0 0 255 0 0 255 0 0 255 0 0 255 0 0 255 0 0 255 0 0 255 0 0 255 0 0 255 0 0 255 0 0 255 0 0 255 0 0 255 0 0 255 0 0 255 0 0 255 0 0 255 0 0 255 0 0 255 0 0 255 0 0 255 0 0 255 0 0 255 0 0 255 0 0 255 0 0 255 0 0 255 0 0 255 0 0 255 0 0 255 0 0 255 0 0 255 0 0 255 0 0 255 0 0 255 0 0 255 0 0 255 0 0 255 0 0 255 0 0 255 0 0 255 0 0 255 0 0 255 0 0 255 0 0 255 0 0 255 0 0 255 0 0 255 0 0 255 0 0 255 0 0 255 0 0 255 0 0 255 0 0 255 0 0 255 0 0 255 0 0 255 0 0 255 0 0 255 0 0 255 0 0 255 0 0 255 0 0 255 0 0 255 2 0 253 35 0 220 63 0 192 86 0 169 102 0 153 112 0 143 118 0 137 121 0 134 123 0 132 125 0 130 126 0 129 127 0 128 128 0 127 128 0 127 127 0 128 126 0 129 124 0 131 124 0 131 123 0 132 124 0 131 124 0 131 124 0 131 125 0 130 125 0 130 125 0 130 125 0 130 125 0 130 126 0 129 126 0 129 126 0 129 126 0 129 126 0 129 125 0 130 123 0 132 122 0 133 120 0 135 118 0 137 118 0 137 118 0 137 118 0 137 120 0 135 121 0 134 123 0 132 125 0 130 126 0 129 127 0 128 128 0 127 127 0 128 127 0 128 125 0 130 124 0 131 123 0 132 122 0 133 122 0 133 122 0 133 123 0 132 123 0 132 122 0 133 122 0 133 121 0 134 120 0 135 119 0 136 119 0 136 120 0 135 123 0 132 126 0 129 129 0 126 133 0 122 
58 0 197 106 0 149 118 0 137 122 0 133 124 0 131 124 0 131 125 0 130 125 0 130 126 0 129 127 0 128 129 0 126 130 0 125 130 0 125 130 0 125 130 0 125 130 0 125 129 0 126 128 0 127 127 0 128 126 0 129 125 0 130 124 0 131 123 0 132 123 0 132 122 0 133 122 0 133 122 0 133 123 0 132 124 0 131 125 0 130 126 0 129 127 0 128 128 0 127 129 0 126 129 0 126 128 0 127 128 0 127 127 0 128 127 0 128 127 0 128 127 0 128 127 0 128 127 0 128 127 0 128 127 0 128 127 0 128 127 0 128 128 0 127 128 0 127 129 0 126 129 0 126 129 0 126 130 0 125 129 0 126 129 0 126 128 0 127 127 0 128 126 0 129 125 0 130 124 0 131 121 0 134 118 0 137 111 0 144 101 0 154 84 0 171 62 0 193 34 0 221 2 0 253 0 0 255 0 0 255 0 0 255 0 0 255 0 0 255 0 0 255 0 0 255 0 0 255 0 0 255 0 0 255 0 0 255 0 0 255 0 0 255 0 0 255 0 0 255 0 0 255 0 0 255 0 0 255 0 0 255 0 0 255 0 0 255 0 0 255 0 0 255 0 0 255 0 0 255 0 0 255 0 0 255 0 0 255 0 0 255 0 0 255 0 0 255 0 0 255 0 0 255 0 0 255 0 0 255 0 0 255 0 0 255 0 0 255 0 0 255 0 0 255 0 0 255 0 0 255 0 0 255 0 0 255 0 0 255 0 0 255 0 0 255 0 0 255 0 0 255 0 0 255 0 0 255 0 0 255 0 0 255 0 0 255 0 0 255 0 0 255 0 0 255 0 0 255 0 0 255 0 0 255 0 0 255 0 0 255 0 0 255 0 0 255 2 0 253 35 0 220 63 0 192 85 0 170 101 0 154 111 0 144 117 0 138 120 0 135 122 0 133 124 0 131 125 0 130 126 0 129 127 0 128 127 0 128 126 0 129 125 0 130 125 0 130 124 0 131 124 0 131 124 0 131 124 0 131 125 0 130 125 0 130 125 0 130 125 0 130 125 0 130 125 0 130 125 0 130 125 0 130 125 0 130 125 0 130 125 0 130 124 0 131 123 0 132 121 0 134 119 0 136 118 0 137 117 0 138 117 0 138 118 0 137 120 0 135 122 0 133 124 0 131 126 0 129 128 0 127 129 0 126 129 0 126 128 0 127 127 0 128 125 0 130 123 0 132 122 0 133 121 0 134 121 0 134 122 0 133 122 0 133 123 0 132 123 0 132 122 0 133 122 0 133 121 0 134 120 0 135 120 0 135 120 0 135 121 0 134 120 0 135 111 0 144 66 0 189 
87 0 168 106 0 149 116 0 139 120 0 135 122 0 133 123 0 132 124 0 131 125 0 130 126 0 129 127 0 128 129 0 126 130 0 125 130 0 125 131 0 124 131 0 124 130 0 125 129 0 126 128 0 127 127 0 128 125 0 130 124 0 131 123 0 132 122 0 133 121 0 134 120 0 135 120 0 135 120 0 135 120 0 135 121 0 134 123 0 132 125 0 130 126 0 129 128 0 127 129 0 126 129 0 126 129 0 126 128 0 127 128 0 127 127 0 128 127 0 128 127 0 128 127 0 128 127 0 128 126 0 129 126 0 129 126 0 129 126 0 129 127 0 128 127 0 128 128 0 127 128 0 127 129 0 126 129 0 126 129 0 126 129 0 126 128 0 127 127 0 128 126 0 129 124 0 131 123 0 132 121 0 134 117 0 138 111 0 144 100 0 155 84 0 171 61 0 194 34 0 221 2 0 253 0 0 255 0 0 255 0 0 255 0 0 255 0 0 255 0 0 255 0 0 255 0 0 255 0 0 255 0 0 255 0 0 255 0 0 255 0 0 255 0 0 255 0 0 255 0 0 255 0 0 255 0 0 255 0 0 255 0 0 255 0 0 255 0 0 255 0 0 255 0 0 255 0 0 255 0 0 255 0 0 255 0 0 255 0 0 255 0 0 255 0 0 255 0 0 255 0 0 255 0 0 255 0 0 255 0 0 255 0 0 255 0 0 255 0 0 255 0 0 255 0 0 255 0 0 255 0 0 255 0 0 255 0 0 255 0 0 255 0 0 255 0 0 255 0 0 255 0 0 255 0 0 255 0 0 255 0 0 255 0 0 255 0 0 255 0 0 255 0 0 255 0 0 255 0 0 255 0 0 255 0 0 255 0 0 255 0 0 255 0 0 255 2 0 253 34 0 221 63 0 192 85 0 170 101 0 154 111 0 144 116 0 139 119 0 136 121 0 134 123 0 132 124 0 131 125 0 130 125 0 130 126 0 129 125 0 130 125 0 130 125 0 130 124 0 131 125 0 130 125 0 130 125 0 130 125 0 130 125 0 130 125 0 130 125 0 130 124 0 131 124 0 131 124 0 131 124 0 131 125 0 130 125 0 130 125 0 130 124 0 131 122 0 133 121 0 134 119 0 136 118 0 137 117 0 138 117 0 138 118 0 137 120 0 135 122 0 133 125 0 130 127 0 128 129 0 126 130 0 125 130 0 125 129 0 126 127 0 128 125 0 130 123 0 132 122 0 133 121 0 134 121 0 134 122 0 133 123 0 132 124 0 131 124 0 131 124 0 131 123 0 132 122 0 133 121 0 134 121 0 134 121 0 134 122 0 133 124 0 131 129 0 126 148 0 107 
112 0 143 114 0 141 118 0 137 121 0 134 122 0 133 123 0 132 124 0 131 124 0 131 126 0 129 127 0 128 129 0 126 130 0 125 131 0 124 131 0 124 131 0 124 130 0 125 129 0 126 128 0 127 127 0 128 125 0 130 123 0 132 122 0 133 120 0 135 119 0 136 118 0 137 118 0 137 118 0 137 118 0 137 120 0 135 121 0 134 123 0 132 126 0 129 127 0 128 129 0 126 129 0 126 129 0 126 129 0 126 128 0 127 128 0 127 127 0 128 127 0 128 126 0 129 126 0 129 125 0 130 125 0 130 125 0 130 125 0 130 126 0 129 126 0 129 127 0 128 127 0 128 128 0 127 128 0 127 128 0 127 128 0 127 127 0 128 126 0 129 125 0 130 124 0 131 123 0 132 121 0 134 117 0 138 111 0 144 100 0 155 84 0 171 62 0 193 34 0 221 2 0 253 0 0 255 0 0 255 0 0 255 0 0 255 0 0 255 0 0 255 0 0 255 0 0 255 0 0 255 0 0 255 0 0 255 0 0 255 0 0 255 0 0 255 0 0 255 0 0 255 0 0 255 0 0 255 0 0 255 0 0 255 0 0 255 0 0 255 0 0 255 0 0 255 0 0 255 0 0 255 0 0 255 0 0 255 0 0 255 0 0 255 0 0 255 0 0 255 0 0 255 0 0 255 0 0 255 0 0 255 0 0 255 0 0 255 0 0 255 0 0 255 0 0 255 0 0 255 0 0 255 0 0 255 0 0 255 0 0 255 0 0 255 0 0 255 0 0 255 0 0 255 0 0 255 0 0 255 0 0 255 0 0 255 0 0 255 0 0 255 0 0 255 0 0 255 0 0 255 0 0 255 0 0 255 0 0 255 0 0 255 0 0 255 2 0 253 34 0 221 62 0 193 85 0 170 100 0 155 110 0 145 116 0 139 119 0 136 121 0 134 122 0 133 123 0 132 124 0 131 124 0 131 125 0 130 124 0 131 124 0 131 124 0 131 124 0 131 125 0 130 125 0 130 125 0 130 125 0 130 125 0 130 125 0 130 125 0 130 124 0 131 124 0 131 123 0 132 124 0 131 124 0 131 124 0 131 124 0 131 123 0 132 122 0 133 121 0 134 119 0 136 118 0 137 117 0 138 118 0 137 119 0 136 120 0 135 123 0 132 125 0 130 128 0 127 130 0 125 131 0 124 131 0 124 130 0 125 128 0 127 126 0 129 123 0 132 122 0 133 121 0 134 122 0 133 123 0 132 124 0 131 125 0 130 125 0 130 125 0 130 125 0 130 124 0 131 123 0 132 123 0 132 122 0 133 122 0 133 124 0 131 132 0 123 164 0 91 
115 0 140 121 0 134 121 0 134 122 0 133 122 0 133 123 0 132 123 0 132 124 0 131 125 0 130 127 0 128 129 0 126 130 0 125 131 0 124 131 0 124 131 0 124 130 0 125 129 0 126 128 0 127 126 0 129 125 0 130 123 0 132 121 0 134 120 0 135 118 0 137 117 0 138 117 0 138 117 0 138 117 0 138 119 0 136 120 0 135 123 0 132 125 0 130 127 0 128 128 0 127 129 0 126 129 0 126 129 0 126 128 0 127 127 0 128 127 0 128 126 0 129 125 0 130 125 0 130 124 0 131 124 0 131 124 0 131 124 0 131 124 0 131 125 0 130 125 0 130 126 0 129 126 0 129 126 0 129 127 0 128 127 0 128 127 0 128 126 0 129 125 0 130 124 0 131 123 0 132 121 0 134 118 0 137 111 0 144 101 0 154 85 0 170 62 0 193 34 0 221 2 0 253 0 0 255 0 0 255 0 0 255 0 0 255 0 0 255 0 0 255 0 0 255 0 0 255 0 0 255 0 0 255 0 0 255 0 0 255 0 0 255 0 0 255 0 0 255 0 0 255 0 0 255 0 0 255 0 0 255 0 0 255 0 0 255 0 0 255 0 0 255 0 0 255 0 0 255 0 0 255 0 0 255 0 0 255 0 0 255 0 0 255 0 0 255 0 0 255 0 0 255 0 0 255 0 0 255 0 0 255 0 0 255 0 0 255 0 0 255 0 0 255 0 0 255 0 0 255 0 0 255 0 0 255 0 0 255 0 0 255 0 0 255 0 0 255 0 0 255 0 0 255 0 0 255 0 0 255 0 0 255 0 0 255 0 0 255 0 0 255 0 0 255 0 0 255 0 0 255 0 0 255 0 0 255 0 0 255 0 0 255 0 0 255 2 0 253 34 0 221 62 0 193 84 0 171 100 0 155 111 0 144 116 0 139 120 0 135 121 0 134 122 0 133 123 0 132 123 0 132 124 0 131 124 0 131 124 0 131 124 0 131 124 0 131 125 0 130 125 0 130 125 0 130 126 0 129 126 0 129 126 0 129 125 0 130 125 0 130 124 0 131 123 0 132 123 0 132 123 0 132 123 0 132 124 0 131 124 0 131 123 0 132 122 0 133 121 0 134 120 0 135 119 0 136 118 0 137 119 0 136 119 0 136 121 0 134 123 0 132 125 0 130 128 0 127 130 0 125 131 0 124 131 0 124 131 0 124 129 0 126 126 0 129 124 0 131 123 0 132 122 0 133 123 0 132 124 0 131 125 0 130 126 0 129 127 0 128 127 0 128 127 0 128 126 0 129 125 0 130 124 0 131 123 0 132 122 0 133 119 0 136 112 0 143 93 0 162 
180 0 75 135 0 120 124 0 131 122 0 133 122 0 133 122 0 133 123 0 132 124 0 131 125 0 130 127 0 128 128 0 127 129 0 126 130 0 125 130 0 125 130 0 125 130 0 125 129 0 126 128 0 127 126 0 129 125 0 130 123 0 132 122 0 133 120 0 135 118 0 137 117 0 138 116 0 139 116 0 139 117 0 138 118 0 137 120 0 135 123 0 132 125 0 130 127 0 128 128 0 127 129 0 126 129 0 126 128 0 127 128 0 127 127 0 128 126 0 129 125 0 130 125 0 130 124 0 131 123 0 132 122 0 133 122 0 133 122 0 133 123 0 132 123 0 132 123 0 132 124 0 131 124 0 131 125 0 130 126 0 129 126 0 129 126 0 129 126 0 129 126 0 129 125 0 130 124 0 131 122 0 133 118 0 137 112 0 143 102 0 153 85 0 170 63 0 192 34 0 221 2 0 253 0 0 255 0 0 255 0 0 255 0 0 255 0 0 255 0 0 255 0 0 255 0 0 255 0 0 255 0 0 255 0 0 255 0 0 255 0 0 255 0 0 255 0 0 255 0 0 255 0 0 255 0 0 255 0 0 255 0 0 255 0 0 255 0 0 255 0 0 255 0 0 255 0 0 255 0 0 255 0 0 255 0 0 255 0 0 255 0 0 255 0 0 255 0 0 255 0 0 255 0 0 255 0 0 255 0 0 255 0 0 255 0 0 255 0 0 255 0 0 255 0 0 255 0 0 255 0 0 255 0 0 255 0 0 255 0 0 255 0 0 255 0 0 255 0 0 255 0 0 255 0 0 255 0 0 255 0 0 255 0 0 255 0 0 255 0 0 255 0 0 255 0 0 255 0 0 255 0 0 255 0 0 255 0 0 255 0 0 255 0 0 255 2 0 253 34 0 221 62 0 193 84 0 171 100 0 155 111 0 144 117 0 138 120 0 135 122 0 133 122 0 133 123 0 132 123 0 132 123 0 132 124 0 131 124 0 131 124 0 131 124 0 131 125 0 130 125 0 130 125 0 130 125 0 130 126 0 129 126 0 129 125 0 130 125 0 130 124 0 131 123 0 132 123 0 132 123 0 132 123 0 132 123 0 132 123 0 132 123 0 132 123 0 132 122 0 133 121 0 134 120 0 135 120 0 135 120 0 135 121 0 134 122 0 133 123 0 132 126 0 129 128 0 127 130 0 125 131 0 124 131 0 124 131 0 124 129 0 126 127 0 128 125 0 130 124 0 131 124 0 131 124 0 131 125 0 130 127 0 128 128 0 127 129 0 126 129 0 126 129 0 126 128 0 127 127 0 128 126 0 129 125 0 130 123 0 132 118 0 137 103 0 152 46 0 209 
94 0 161 113 0 142 117 0 138 119 0 136 120 0 135 121 0 134 122 0 133 123 0 132 125 0 130 126 0 129 128 0 127 129 0 126 130 0 125 130 0 125 130 0 125 129 0 126 128 0 127 127 0 128 126 0 129 125 0 130 124 0 131 122 0 133 121 0 134 119 0 136 118 0 137 117 0 138 117 0 138 118 0 137 119 0 136 121 0 134 123 0 132 125 0 130 127 0 128 128 0 127 129 0 126 129 0 126 128 0 127 127 0 128 127 0 128 126 0 129 125 0 130 124 0 131 123 0 132 122 0 133 121 0 134 121 0 134 121 0 134 121 0 134 121 0 134 121 0 134 122 0 133 122 0 133 123 0 132 124 0 131 125 0 130 126 0 129 126 0 129 126 0 129 125 0 130 124 0 131 122 0 133 119 0 136 113 0 142 102 0 153 86 0 169 63 0 192 34 0 221 2 0 253 0 0 255 0 0 255 0 0 255 0 0 255 0 0 255 0 0 255 0 0 255 0 0 255 0 0 255 0 0 255 0 0 255 0 0 255 0 0 255 0 0 255 0 0 255 0 0 255 0 0 255 0 0 255 0 0 255 0 0 255 0 0 255 0 0 255 0 0 255 0 0 255 0 0 255 0 0 255 0 0 255 0 0 255 0 0 255 0 0 255 0 0 255 0 0 255 0 0 255 0 0 255 0 0 255 0 0 255 0 0 255 0 0 255 0 0 255 0 0 255 0 0 255 0 0 255 0 0 255 0 0 255 0 0 255 0 0 255 0 0 255 0 0 255 0 0 255 0 0 255 0 0 255 0 0 255 0 0 255 0 0 255 0 0 255 0 0 255 0 0 255 0 0 255 0 0 255 0 0 255 0 0 255 0 0 255 0 0 255 0 0 255 2 0 253 34 0 221 61 0 194 84 0 171 100 0 155 111 0 144 117 0 138 121 0 134 122 0 133 123 0 132 123 0 132 123 0 132 123 0 132 124 0 131 124 0 131 124 0 131 125 0 130 125 0 130 125 0 130 125 0 130 125 0 130 125 0 130 125 0 130 125 0 130 125 0 130 124 0 131 123 0 132 123 0 132 123 0 132 123 0 132 123 0 132 124 0 131 124 0 131 124 0 131 123 0 132 123 0 132 122 0 133 122 0 133 122 0 133 122 0 133 123 0 132 124 0 131 126 0 129 127 0 128 129 0 126 130 0 125 131 0 124 131 0 124 130 0 125 128 0 127 127 0 128 126 0 129 125 0 130 126 0 129 127 0 128 128 0 127 130 0 125 130 0 125 131 0 124 130 0 125 129 0 126 128 0 127 127 0 128 126 0 129 126 0 129 127 0 128 134 0 121 165 0 90 
99 0 156 106 0 149 112 0 143 117 0 138 119 0 136 121 0 134 122 0 133 123 0 132 124 0 131 126 0 129 127 0 128 128 0 127 129 0 126 129 0 126 129 0 126 128 0 127 128 0 127 127 0 128 126 0 129 125 0 130 124 0 131 123 0 132 122 0 133 121 0 134 120 0 135 119 0 136 119 0 136 119 0 136 121 0 134 122 0 133 124 0 131 126 0 129 128 0 127 129 0 126 129 0 126 129 0 126 128 0 127 128 0 127 127 0 128 125 0 130 124 0 131 123 0 132 122 0 133 121 0 134 120 0 135 120 0 135 119 0 136 119 0 136 120 0 135 120 0 135 120 0 135 121 0 134 122 0 133 123 0 132 125 0 130 126 0 129 126 0 129 126 0 129 125 0 130 124 0 131 122 0 133 119 0 136 113 0 142 102 0 153 86 0 169 63 0 192 35 0 220 2 0 253 0 0 255 0 0 255 0 0 255 0 0 255 0 0 255 0 0 255 0 0 255 0 0 255 0 0 255 0 0 255 0 0 255 0 0 255 0 0 255 0 0 255 0 0 255 0 0 255 0 0 255 0 0 255 0 0 255 0 0 255 0 0 255 0 0 255 0 0 255 0 0 255 0 0 255 0 0 255 0 0 255 0 0 255 0 0 255 0 0 255 0 0 255 0 0 255 0 0 255 0 0 255 0 0 255 0 0 255 0 0 255 0 0 255 0 0 255 0 0 255 0 0 255 0 0 255 0 0 255 0 0 255 0 0 255 0 0 255 0 0 255 0 0 255 0 0 255 0 0 255 0 0 255 0 0 255 0 0 255 0 0 255 0 0 255 0 0 255 0 0 255 0 0 255 0 0 255 0 0 255 0 0 255 0 0 255 0 0 255 0 0 255 2 0 253 33 0 222 61 0 194 84 0 171 100 0 155 111 0 144 117 0 138 121 0 134 122 0 133 123 0 132 123 0 132 123 0 132 123 0 132 124 0 131 125 0 130 125 0 130 125 0 130 125 0 130 125 0 130 125 0 130 125 0 130 125 0 130 125 0 130 125 0 130 125 0 130 124 0 131 124 0 131 123 0 132 123 0 132 123 0 132 123 0 132 124 0 131 124 0 131 125 0 130 125 0 130 124 0 131 124 0 131 124 0 131 123 0 132 124 0 131 124 0 131 125 0 130 126 0 129 127 0 128 128 0 127 129 0 126 130 0 125 130 0 125 130 0 125 129 0 126 128 0 127 127 0 128 127 0 128 128 0 127 129 0 126 130 0 125 131 0 124 132 0 123 132 0 123 131 0 124 130 0 125 129 0 126 128 0 127 127 0 128 127 0 128 129 0 126 142 0 113 191 0 64 
73 0 182 98 0 157 110 0 145 115 0 140 118 0 137 120 0 135 122 0 133 123 0 132 124 0 131 125 0 130 127 0 128 127 0 128 128 0 127 128 0 127 128 0 127 127 0 128 126 0 129 126 0 129 126 0 129 125 0 130 125 0 130 124 0 131 123 0 132 122 0 133 121 0 134 121 0 134 121 0 134 121 0 134 122 0 133 124 0 131 126 0 129 127 0 128 129 0 126 130 0 125 130 0 125 130 0 125 129 0 126 128 0 127 127 0 128 126 0 129 124 0 131 123 0 132 122 0 133 121 0 134 120 0 135 119 0 136 119 0 136 118 0 137 118 0 137 119 0 136 119 0 136 120 0 135 121 0 134 123 0 132 124 0 131 125 0 130 126 0 129 126 0 129 125 0 130 124 0 131 122 0 133 119 0 136 113 0 142 102 0 153 86 0 169 63 0 192 35 0 220 2 0 253 0 0 255 0 0 255 0 0 255 0 0 255 0 0 255 0 0 255 0 0 255 0 0 255 0 0 255 0 0 255 0 0 255 0 0 255 0 0 255 0 0 255 0 0 255 0 0 255 0 0 255 0 0 255 0 0 255 0 0 255 0 0 255 0 0 255 0 0 255 0 0 255 0 0 255 0 0 255 0 0 255 0 0 255 0 0 255 0 0 255 0 0 255 0 0 255 0 0 255 0 0 255 0 0 255 0 0 255 0 0 255 0 0 255 0 0 255 0 0 255 0 0 255 0 0 255 0 0 255 0 0 255 0 0 255 0 0 255 0 0 255 0 0 255 0 0 255 0 0 255 0 0 255 0 0 255 0 0 255 0 0 255 0 0 255 0 0 255 0 0 255 0 0 255 0 0 255 0 0 255 0 0 255 0 0 255 0 0 255 0 0 255 2 0 253 33 0 222 61 0 194 84 0 171 100 0 155 111 0 144 117 0 138 120 0 135 122 0 133 122 0 133 123 0 132 123 0 132 124 0 131 124 0 131 125 0 130 126 0 129 126 0 129 126 0 129 125 0 130 125 0 130 124 0 131 124 0 131 124 0 131 124 0 131 125 0 130 125 0 130 124 0 131 124 0 131 124 0 131 124 0 131 124 0 131 125 0 130 125 0 130 126 0 129 126 0 129 126 0 129 126 0 129 126 0 129 125 0 130 125 0 130 125 0 130 125 0 130 125 0 130 126 0 129 127 0 128 128 0 127 129 0 126 129 0 126 129 0 126 129 0 126 128 0 127 128 0 127 128 0 127 129 0 126 130 0 125 131 0 124 132 0 123 133 0 122 133 0 122 132 0 123 131 0 124 130 0 125 128 0 127 127 0 128 124 0 131 121 0 134 112 0 143 84 0 171 
89 0 166 105 0 150 112 0 143 116 0 139 119 0 136 120 0 135 122 0 133 123 0 132 124 0 131 125 0 130 126 0 129 127 0 128 127 0 128 127 0 128 127 0 128 126 0 129 125 0 130 125 0 130 125 0 130 125 0 130 125 0 130 124 0 131 124 0 131 123 0 132 123 0 132 123 0 132 123 0 132 123 0 132 124 0 131 126 0 129 127 0 128 129 0 126 130 0 125 131 0 124 131 0 124 130 0 125 130 0 125 129 0 126 128 0 127 126 0 129 125 0 130 123 0 132 122 0 133 121 0 134 120 0 135 119 0 136 118 0 137 118 0 137 118 0 137 118 0 137 118 0 137 119 0 136 121 0 134 122 0 133 124 0 131 125 0 130 126 0 129 126 0 129 125 0 130 124 0 131 122 0 133 119 0 136 112 0 143 102 0 153 85 0 170 63 0 192 34 0 221 2 0 253 0 0 255 0 0 255 0 0 255 0 0 255 0 0 255 0 0 255 0 0 255 0 0 255 0 0 255 0 0 255 0 0 255 0 0 255 0 0 255 0 0 255 0 0 255 0 0 255 0 0 255 0 0 255 0 0 255 0 0 255 0 0 255 0 0 255 0 0 255 0 0 255 0 0 255 0 0 255 0 0 255 0 0 255 0 0 255 0 0 255 0 0 255 0 0 255 0 0 255 0 0 255 0 0 255 0 0 255 0 0 255 0 0 255 0 0 255 0 0 255 0 0 255 0 0 255 0 0 255 0 0 255 0 0 255 0 0 255 0 0 255 0 0 255 0 0 255 0 0 255 0 0 255 0 0 255 0 0 255 0 0 255 0 0 255 0 0 255 0 0 255 0 0 255 0 0 255 0 0 255 0 0 255 0 0 255 0 0 255 0 0 255 2 0 253 33 0 222 61 0 194 83 0 172 99 0 156 110 0 145 117 0 138 120 0 135 121 0 134 122 0 133 122 0 133 122 0 133 123 0 132 124 0 131 125 0 130 126 0 129 126 0 129 126 0 129 125 0 130 124 0 131 124 0 131 124 0 131 124 0 131 124 0 131 125 0 130 125 0 130 125 0 130 125 0 130 125 0 130 125 0 130 125 0 130 126 0 129 126 0 129 127 0 128 127 0 128 128 0 127 128 0 127 127 0 128 127 0 128 126 0 129 126 0 129 125 0 130 125 0 130 125 0 130 126 0 129 126 0 129 127 0 128 128 0 127 128 0 127 128 0 127 129 0 126 129 0 126 129 0 126 130 0 125 131 0 124 132 0 123 133 0 122 133 0 122 133 0 122 133 0 122 131 0 124 130 0 125 128 0 127 126 0 129 123 0 132 118 0 137 102 0 153 51 0 204 
162 0 93 122 0 133 116 0 139 118 0 137 120 0 135 121 0 134 122 0 133 123 0 132 124 0 131 125 0 130 126 0 129 126 0 129 127 0 128 126 0 129 126 0 129 125 0 130 125 0 130 124 0 131 124 0 131 124 0 131 124 0 131 124 0 131 124 0 131 124 0 131 124 0 131 124 0 131 124 0 131 125 0 130 126 0 129 127 0 128 128 0 127 130 0 125 130 0 125 131 0 124 131 0 124 131 0 124 130 0 125 129 0 126 128 0 127 127 0 128 125 0 130 124 0 131 122 0 133 121 0 134 120 0 135 119 0 136 119 0 136 118 0 137 118 0 137 118 0 137 119 0 136 120 0 135 121 0 134 122 0 133 124 0 131 125 0 130 125 0 130 125 0 130 125 0 130 124 0 131 122 0 133 118 0 137 112 0 143 101 0 154 85 0 170 62 0 193 34 0 221 2 0 253 0 0 255 0 0 255 0 0 255 0 0 255 0 0 255 0 0 255 0 0 255 0 0 255 0 0 255 0 0 255 0 0 255 0 0 255 0 0 255 0 0 255 0 0 255 0 0 255 0 0 255 0 0 255 0 0 255 0 0 255 0 0 255 0 0 255 0 0 255 0 0 255 0 0 255 0 0 255 0 0 255 0 0 255 0 0 255 0 0 255 0 0 255 0 0 255 0 0 255 0 0 255 0 0 255 0 0 255 0 0 255 0 0 255 0 0 255 0 0 255 0 0 255 0 0 255 0 0 255 0 0 255 0 0 255 0 0 255 0 0 255 0 0 255 0 0 255 0 0 255 0 0 255 0 0 255 0 0 255 0 0 255 0 0 255 0 0 255 0 0 255 0 0 255 0 0 255 0 0 255 0 0 255 0 0 255 0 0 255 0 0 255 2 0 253 33 0 222 60 0 195 83 0 172 99 0 156 109 0 146 116 0 139 119 0 136 120 0 135 121 0 134 121 0 134 122 0 133 123 0 132 124 0 131 126 0 129 126 0 129 127 0 128 126 0 129 125 0 130 124 0 131 124 0 131 124 0 131 124 0 131 125 0 130 125 0 130 126 0 129 126 0 129 126 0 129 126 0 129 126 0 129 126 0 129 127 0 128 127 0 128 128 0 127 128 0 127 129 0 126 129 0 126 129 0 126 128 0 127 127 0 128 127 0 128 126 0 129 125 0 130 125 0 130 124 0 131 125 0 130 125 0 130 126 0 129 127 0 128 128 0 127 128 0 127 129 0 126 129 0 126 130 0 125 131 0 124 132 0 123 133 0 122 134 0 121 134 0 121 133 0 122 131 0 124 130 0 125 128 0 127 127 0 128 125 0 130 125 0 130 129 0 126 160 0 95 
66 0 189 103 0 152 114 0 141 118 0 137 121 0 134 122 0 133 123 0 132 123 0 132 124 0 131 125 0 130 125 0 130 126 0 129 126 0 129 126 0 129 126 0 129 125 0 130 124 0 131 124 0 131 123 0 132 124 0 131 124 0 131 124 0 131 124 0 131 125 0 130 125 0 130 125 0 130 125 0 130 126 0 129 127 0 128 128 0 127 129 0 126 130 0 125 131 0 124 131 0 124 131 0 124 131 0 124 131 0 124 130 0 125 129 0 126 127 0 128 126 0 129 125 0 130 123 0 132 122 0 133 121 0 134 121 0 134 120 0 135 119 0 136 119 0 136 119 0 136 120 0 135 121 0 134 122 0 133 123 0 132 124 0 131 125 0 130 125 0 130 125 0 130 124 0 131 123 0 132 121 0 134 118 0 137 111 0 144 101 0 154 85 0 170 62 0 193 34 0 221 2 0 253 0 0 255 0 0 255 0 0 255 0 0 255 0 0 255 0 0 255 0 0 255 0 0 255 0 0 255 0 0 255 0 0 255 0 0 255 0 0 255 0 0 255 0 0 255 0 0 255 0 0 255 0 0 255 0 0 255 0 0 255 0 0 255 0 0 255 0 0 255 0 0 255 0 0 255 0 0 255 0 0 255 0 0 255 0 0 255 0 0 255 0 0 255 0 0 255 0 0 255 0 0 255 0 0 255 0 0 255 0 0 255 0 0 255 0 0 255 0 0 255 0 0 255 0 0 255 0 0 255 0 0 255 0 0 255 0 0 255 0 0 255 0 0 255 0 0 255 0 0 255 0 0 255 0 0 255 0 0 255 0 0 255 0 0 255 0 0 255 0 0 255 0 0 255 0 0 255 0 0 255 0 0 255 0 0 255 0 0 255 0 0 255 2 0 253 33 0 222 60 0 195 82 0 173 98 0 157 108 0 147 114 0 141 118 0 137 119 0 136 120 0 135 120 0 135 121 0 134 122 0 133 124 0 131 125 0 130 127 0 128 127 0 128 127 0 128 126 0 129 125 0 130 124 0 131 124 0 131 124 0 131 125 0 130 126 0 129 127 0 128 127 0 128 127 0 128 127 0 128 127 0 128 128 0 127 128 0 127 129 0 126 129 0 126 130 0 125 130 0 125 130 0 125 130 0 125 129 0 126 128 0 127 127 0 128 126 0 129 125 0 130 124 0 131 124 0 131 124 0 131 124 0 131 125 0 130 126 0 129 127 0 128 128 0 127 129 0 126 129 0 126 130 0 125 131 0 124 132 0 123 133 0 122 134 0 121 133 0 122 132 0 123 131 0 124 129 0 126 128 0 127 127 0 128 126 0 129 126 0 129 128 0 127 132 0 123 
100 0 155 111 0 144 118 0 137 121 0 134 122 0 133 123 0 132 124 0 131 124 0 131 125 0 130 125 0 130 126 0 129 126 0 129 126 0 129 126 0 129 126 0 129 125 0 130 124 0 131 124 0 131 123 0 132 123 0 132 124 0 131 124 0 131 124 0 131 125 0 130 125 0 130 125 0 130 126 0 129 127 0 128 127 0 128 128 0 127 129 0 126 130 0 125 130 0 125 131 0 124 131 0 124 131 0 124 131 0 124 130 0 125 129 0 126 128 0 127 127 0 128 126 0 129 125 0 130 124 0 131 123 0 132 122 0 133 122 0 133 121 0 134 121 0 134 121 0 134 122 0 133 122 0 133 123 0 132 124 0 131 125 0 130 125 0 130 125 0 130 125 0 130 124 0 131 123 0 132 121 0 134 117 0 138 111 0 144 101 0 154 84 0 171 62 0 193 34 0 221 2 0 253 0 0 255 0 0 255 0 0 255 0 0 255 0 0 255 0 0 255 0 0 255 0 0 255 0 0 255 0 0 255 0 0 255 0 0 255 0 0 255 0 0 255 0 0 255 0 0 255 0 0 255 0 0 255 0 0 255 0 0 255 0 0 255 0 0 255 0 0 255 0 0 255 0 0 255 0 0 255 0 0 255 0 0 255 0 0 255 0 0 255 0 0 255 0 0 255 0 0 255 0 0 255 0 0 255 0 0 255 0 0 255 0 0 255 0 0 255 0 0 255 0 0 255 0 0 255 0 0 255 0 0 255 0 0 255 0 0 255 0 0 255 0 0 255 0 0 255 0 0 255 0 0 255 0 0 255 0 0 255 0 0 255 0 0 255 0 0 255 0 0 255 0 0 255 0 0 255 0 0 255 0 0 255 0 0 255 0 0 255 0 0 255 2 0 253 33 0 222 60 0 195 82 0 173 97 0 158 108 0 147 114 0 141 117 0 138 118 0 137 119 0 136 120 0 135 121 0 134 122 0 133 124 0 131 125 0 130 127 0 128 127 0 128 127 0 128 126 0 129 125 0 130 125 0 130 124 0 131 125 0 130 125 0 130 126 0 129 127 0 128 128 0 127 128 0 127 128 0 127 129 0 126 129 0 126 130 0 125 130 0 125 130 0 125 131 0 124 131 0 124 131 0 124 130 0 125 130 0 125 129 0 126 128 0 127 127 0 128 125 0 130 124 0 131 124 0 131 123 0 132 124 0 131 125 0 130 126 0 129 126 0 129 127 0 128 128 0 127 129 0 126 130 0 125 131 0 124 132 0 123 132 0 123 133 0 122 133 0 122 132 0 123 130 0 125 129 0 126 127 0 128 126 0 129 126 0 129 126 0 129 127 0 128 133 0 122 
130 0 125 125 0 130 125 0 130 125 0 130 125 0 130 125 0 130 125 0 130 125 0 130 125 0 130 126 0 129 126 0 129 126 0 129 127 0 128 127 0 128 126 0 129 126 0 129 125 0 130 124 0 131 124 0 131 124 0 131 124 0 131 124 0 131 124 0 131 124 0 131 125 0 130 125 0 130 126 0 129 126 0 129 127 0 128 128 0 127 128 0 127 129 0 126 130 0 125 130 0 125 131 0 124 131 0 124 131 0 124 130 0 125 129 0 126 128 0 127 127 0 128 126 0 129 126 0 129 125 0 130 124 0 131 124 0 131 123 0 132 123 0 132 123 0 132 123 0 132 124 0 131 124 0 131 125 0 130 125 0 130 126 0 129 126 0 129 126 0 129 125 0 130 124 0 131 123 0 132 121 0 134 117 0 138 111 0 144 101 0 154 85 0 170 62 0 193 34 0 221 2 0 253 0 0 255 0 0 255 0 0 255 0 0 255 0 0 255 0 0 255 0 0 255 0 0 255 0 0 255 0 0 255 0 0 255 0 0 255 0 0 255 0 0 255 0 0 255 0 0 255 0 0 255 0 0 255 0 0 255 0 0 255 0 0 255 0 0 255 0 0 255 0 0 255 0 0 255 0 0 255 0 0 255 0 0 255 0 0 255 0 0 255 0 0 255 0 0 255 0 0 255 0 0 255 0 0 255 0 0 255 0 0 255 0 0 255 0 0 255 0 0 255 0 0 255 0 0 255 0 0 255 0 0 255 0 0 255 0 0 255 0 0 255 0 0 255 0 0 255 0 0 255 0 0 255 0 0 255 0 0 255 0 0 255 0 0 255 0 0 255 0 0 255 0 0 255 0 0 255 0 0 255 0 0 255 0 0 255 0 0 255 0 0 255 2 0 253 33 0 222 60 0 195 81 0 174 97 0 158 107 0 148 113 0 142 117 0 138 118 0 137 119 0 136 120 0 135 120 0 135 122 0 133 124 0 131 125 0 130 127 0 128 128 0 127 128 0 127 127 0 128 126 0 129 125 0 130 125 0 130 125 0 130 126 0 129 127 0 128 127 0 128 128 0 127 129 0 126 129 0 126 130 0 125 131 0 124 131 0 124 131 0 124 131 0 124 131 0 124 131 0 124 131 0 124 131 0 124 130 0 125 129 0 126 128 0 127 127 0 128 126 0 129 124 0 131 124 0 131 123 0 132 123 0 132 124 0 131 125 0 130 126 0 129 127 0 128 127 0 128 128 0 127 128 0 127 129 0 126 130 0 125 131 0 124 132 0 123 131 0 124 131 0 124 129 0 126 128 0 127 127 0 128 126 0 129 125 0 130 125 0 130 120 0 135 95 0 160 
121 0 134 134 0 121 132 0 123 129 0 126 127 0 128 127 0 128 126 0 129 126 0 129 126 0 129 126 0 129 126 0 129 126 0 129 127 0 128 127 0 128 126 0 129 126 0 129 125 0 130 124 0 131 124 0 131 124 0 131 124 0 131 124 0 131 124 0 131 124 0 131 124 0 131 124 0 131 125 0 130 126 0 129 126 0 129 127 0 128 128 0 127 129 0 126 129 0 126 130 0 125 131 0 124 131 0 124 130 0 125 130 0 125 129 0 126 129 0 126 128 0 127 127 0 128 126 0 129 126 0 129 125 0 130 125 0 130 125 0 130 125 0 130 125 0 130 125 0 130 125 0 130 126 0 129 126 0 129 127 0 128 127 0 128 126 0 129 126 0 129 125 0 130 124 0 131 122 0 133 121 0 134 117 0 138 111 0 144 101 0 154 85 0 170 62 0 193 34 0 221 2 0 253 0 0 255 0 0 255 0 0 255 0 0 255 0 0 255 0 0 255 0 0 255 0 0 255 0 0 255 0 0 255 0 0 255 0 0 255 0 0 255 0 0 255 0 0 255 0 0 255 0 0 255 0 0 255 0 0 255 0 0 255 0 0 255 0 0 255 0 0 255 0 0 255 0 0 255 0 0 255 0 0 255 0 0 255 0 0 255 0 0 255 0 0 255 0 0 255 0 0 255 0 0 255 0 0 255 0 0 255 0 0 255 0 0 255 0 0 255 0 0 255 0 0 255 0 0 255 0 0 255 0 0 255 0 0 255 0 0 255 0 0 255 0 0 255 0 0 255 0 0 255 0 0 255 0 0 255 0 0 255 0 0 255 0 0 255 0 0 255 0 0 255 0 0 255 0 0 255 0 0 255 0 0 255 0 0 255 0 0 255 0 0 255 2 0 253 33 0 222 60 0 195 82 0 173 98 0 157 108 0 147 114 0 141 117 0 138 119 0 136 120 0 135 120 0 135 121 0 134 122 0 133 124 0 131 126 0 129 127 0 128 128 0 127 128 0 127 128 0 127 127 0 128 126 0 129 125 0 130 125 0 130 126 0 129 127 0 128 127 0 128 128 0 127 129 0 126 130 0 125 131 0 124 132 0 123 132 0 123 133 0 122 132 0 123 132 0 123 132 0 123 131 0 124 131 0 124 130 0 125 129 0 126 128 0 127 127 0 128 126 0 129 125 0 130 124 0 131 123 0 132 124 0 131 124 0 131 125 0 130 125 0 130 126 0 129 126 0 129 126 0 129 127 0 128 127 0 128 128 0 127 129 0 126 130 0 125 130 0 125 129 0 126 128 0 127 127 0 128 126 0 129 125 0 130 126 0 129 127 0 128 133 0 122 157 0 98 
212 0 43 158 0 97 140 0 115 133 0 122 129 0 126 128 0 127 127 0 128 127 0 128 127 0 128 126 0 129 126 0 129 126 0 129 126 0 129 126 0 129 126 0 129 126 0 129 125 0 130 125 0 130 124 0 131 124 0 131 124 0 131 124 0 131 124 0 131 123 0 132 124 0 131 124 0 131 124 0 131 125 0 130 126 0 129 126 0 129 127 0 128 128 0 127 129 0 126 130 0 125 130 0 125 131 0 124 131 0 124 130 0 125 130 0 125 129 0 126 128 0 127 127 0 128 127 0 128 126 0 129 126 0 129 126 0 129 126 0 129 126 0 129 126 0 129 126 0 129 126 0 129 127 0 128 127 0 128 127 0 128 127 0 128 127 0 128 126 0 129 125 0 130 124 0 131 122 0 133 120 0 135 117 0 138 111 0 144 101 0 154 85 0 170 62 0 193 34 0 221 2 0 253 0 0 255 0 0 255 0 0 255 0 0 255 0 0 255 0 0 255 0 0 255 0 0 255 0 0 255 0 0 255 0 0 255 0 0 255 0 0 255 0 0 255 0 0 255 0 0 255 0 0 255 0 0 255 0 0 255 0 0 255 0 0 255 0 0 255 0 0 255 0 0 255 0 0 255 0 0 255 0 0 255 0 0 255 0 0 255 0 0 255 0 0 255 0 0 255 0 0 255 0 0 255 0 0 255 0 0 255 0 0 255 0 0 255 0 0 255 0 0 255 0 0 255 0 0 255 0 0 255 0 0 255 0 0 255 0 0 255 0 0 255 0 0 255 0 0 255 0 0 255 0 0 255 0 0 255 0 0 255 0 0 255 0 0 255 0 0 255 0 0 255 0 0 255 0 0 255 0 0 255 0 0 255 0 0 255 0 0 255 0 0 255 2 0 253 33 0 222 61 0 194 83 0 172 98 0 157 109 0 146 115 0 140 119 0 136 120 0 135 121 0 134 121 0 134 122 0 133 123 0 132 124 0 131 126 0 129 128 0 127 129 0 126 129 0 126 128 0 127 127 0 128 126 0 129 126 0 129 126 0 129 126 0 129 127 0 128 127 0 128 129 0 126 130 0 125 131 0 124 132 0 123 133 0 122 134 0 121 134 0 121 133 0 122 133 0 122 132 0 123 131 0 124 130 0 125 130 0 125 129 0 126 128 0 127 127 0 128 126 0 129 125 0 130 124 0 131 124 0 131 124 0 131 124 0 131 125 0 130 125 0 130 125 0 130 125 0 130 125 0 130 125 0 130 125 0 130 126 0 129 127 0 128 128 0 127 128 0 127 127 0 128 126 0 129 125 0 130 124 0 131 124 0 131 125 0 130 127 0 128 129 0 126 131 0 124 
136 0 119 145 0 110 140 0 115 134 0 121 130 0 125 128 0 127 128 0 127 127 0 128 127 0 128 127 0 128 126 0 129 126 0 129 126 0 129 125 0 130 125 0 130 125 0 130 124 0 131 124 0 131 124 0 131 124 0 131 124 0 131 124 0 131 123 0 132 123 0 132 123 0 132 123 0 132 124 0 131 124 0 131 125 0 130 126 0 129 127 0 128 128 0 127 129 0 126 130 0 125 130 0 125 131 0 124 131 0 124 130 0 125 130 0 125 129 0 126 128 0 127 127 0 128 127 0 128 126 0 129 126 0 129 126 0 129 126 0 129 126 0 129 126 0 129 126 0 129 127 0 128 127 0 128 128 0 127 128 0 127 128 0 127 127 0 128 126 0 129 125 0 130 123 0 132 122 0 133 120 0 135 117 0 138 111 0 144 101 0 154 85 0 170 63 0 192 34 0 221 2 0 253 0 0 255 0 0 255 0 0 255 0 0 255 0 0 255 0 0 255 0 0 255 0 0 255 0 0 255 0 0 255 0 0 255 0 0 255 0 0 255 0 0 255 0 0 255 0 0 255 0 0 255 0 0 255 0 0 255 0 0 255 0 0 255 0 0 255 0 0 255 0 0 255 0 0 255 0 0 255 0 0 255 0 0 255 0 0 255 0 0 255 0 0 255 0 0 255 0 0 255 0 0 255 0 0 255 0 0 255 0 0 255 0 0 255 0 0 255 0 0 255 0 0 255 0 0 255 0 0 255 0 0 255 0 0 255 0 0 255 0 0 255 0 0 255 0 0 255 0 0 255 0 0 255 0 0 255 0 0 255 0 0 255 0 0 255 0 0 255 0 0 255 0 0 255 0 0 255 0 0 255 0 0 255 0 0 255 0 0 255 0 0 255 2 0 253 34 0 221 62 0 193 84 0 171 100 0 155 110 0 145 117 0 138 120 0 135 122 0 133 123 0 132 123 0 132 123 0 132 124 0 131 125 0 130 127 0 128 128 0 127 129 0 126 130 0 125 129 0 126 128 0 127 127 0 128 126 0 129 126 0 129 126 0 129 127 0 128 127 0 128 129 0 126 130 0 125 132 0 123 133 0 122 134 0 121 134 0 121 134 0 121 134 0 121 133 0 122 132 0 123 131 0 124 130 0 125 129 0 126 128 0 127 128 0 127 127 0 128 126 0 129 125 0 130 124 0 131 124 0 131 124 0 131 124 0 131 124 0 131 125 0 130 124 0 131 124 0 131 124 0 131 123 0 132 124 0 131 124 0 131 125 0 130 126 0 129 126 0 129 125 0 130 125 0 130 124 0 131 123 0 132 124 0 131 124 0 131 125 0 130 127 0 128 133 0 122 
158 0 97 149 0 106 140 0 115 134 0 121 130 0 125 128 0 127 128 0 127 127 0 128 127 0 128 126 0 129 126 0 129 125 0 130 125 0 130 124 0 131 124 0 131 124 0 131 123 0 132 123 0 132 123 0 132 123 0 132 123 0 132 123 0 132 123 0 132 123 0 132 123 0 132 123 0 132 124 0 131 124 0 131 125 0 130 125 0 130 126 0 129 127 0 128 128 0 127 129 0 126 130 0 125 130 0 125 131 0 124 130 0 125 130 0 125 129 0 126 128 0 127 127 0 128 126 0 129 126 0 129 125 0 130 125 0 130 125 0 130 125 0 130 125 0 130 125 0 130 126 0 129 127 0 128 127 0 128 127 0 128 127 0 128 127 0 128 126 0 129 125 0 130 123 0 132 122 0 133 120 0 135 117 0 138 111 0 144 101 0 154 86 0 169 63 0 192 35 0 220 2 0 253 0 0 255 0 0 255 0 0 255 0 0 255 0 0 255 0 0 255 0 0 255 0 0 255 0 0 255 0 0 255 0 0 255 0 0 255 0 0 255 0 0 255 0 0 255 0 0 255 0 0 255 0 0 255 0 0 255 0 0 255 0 0 255 0 0 255 0 0 255 0 0 255 0 0 255 0 0 255 0 0 255 0 0 255 0 0 255 0 0 255 0 0 255 0 0 255 0 0 255 0 0 255 0 0 255 0 0 255 0 0 255 0 0 255 0 0 255 0 0 255 0 0 255 0 0 255 0 0 255 0 0 255 0 0 255 0 0 255 0 0 255 0 0 255 0 0 255 0 0 255 0 0 255 0 0 255 0 0 255 0 0 255 0 0 255 0 0 255 0 0 255 0 0 255 0 0 255 0 0 255 0 0 255 0 0 255 0 0 255 0 0 255 2 0 253 34 0 221 63 0 192 85 0 170 102 0 153 112 0 143 119 0 136 122 0 133 124 0 131 125 0 130 125 0 130 125 0 130 125 0 130 126 0 129 128 0 127 129 0 126 130 0 125 130 0 125 129 0 126 128 0 127 127 0 128 127 0 128 126 0 129 126 0 129 127 0 128 128 0 127 129 0 126 131 0 124 132 0 123 134 0 121 134 0 121 135 0 120 134 0 121 134 0 121 133 0 122 132 0 123 131 0 124 130 0 125 129 0 126 128 0 127 127 0 128 126 0 129 126 0 129 125 0 130 124 0 131 124 0 131 124 0 131 124 0 131 124 0 131 124 0 131 124 0 131 123 0 132 123 0 132 122 0 133 122 0 133 123 0 132 124 0 131 124 0 131 124 0 131 124 0 131 123 0 132 123 0 132 123 0 132 123 0 132 124 0 131 124 0 131 119 0 136 90 0 165 
195 0 60 155 0 100 139 0 116 133 0 122 129 0 126 128 0 127 127 0 128 127 0 128 126 0 129 126 0 129 125 0 130 125 0 130 124 0 131 123 0 132 123 0 132 122 0 133 122 0 133 122 0 133 122 0 133 123 0 132 123 0 132 123 0 132 124 0 131 124 0 131 124 0 131 124 0 131 124 0 131 125 0 130 125 0 130 126 0 129 126 0 129 127 0 128 128 0 127 129 0 126 129 0 126 130 0 125 130 0 125 130 0 125 130 0 125 129 0 126 128 0 127 127 0 128 125 0 130 125 0 130 124 0 131 124 0 131 124 0 131 124 0 131 124 0 131 124 0 131 125 0 130 125 0 130 126 0 129 127 0 128 127 0 128 126 0 129 125 0 130 124 0 131 123 0 132 122 0 133 120 0 135 117 0 138 112 0 143 102 0 153 86 0 169 63 0 192 35 0 220 2 0 253 0 0 255 0 0 255 0 0 255 0 0 255 0 0 255 0 0 255 0 0 255 0 0 255 0 0 255 0 0 255 0 0 255 0 0 255 0 0 255 0 0 255 0 0 255 0 0 255 0 0 255 0 0 255 0 0 255 0 0 255 0 0 255 0 0 255 0 0 255 0 0 255 0 0 255 0 0 255 0 0 255 0 0 255 0 0 255 0 0 255 0 0 255 0 0 255 0 0 255 0 0 255 0 0 255 0 0 255 0 0 255 0 0 255 0 0 255 0 0 255 0 0 255 0 0 255 0 0 255 0 0 255 0 0 255 0 0 255 0 0 255 0 0 255 0 0 255 0 0 255 0 0 255 0 0 255 0 0 255 0 0 255 0 0 255 0 0 255 0 0 255 0 0 255 0 0 255 0 0 255 0 0 255 0 0 255 0 0 255 0 0 255 3 0 252 35 0 220 64 0 191 87 0 168 103 0 152 114 0 141 120 0 135 124 0 131 126 0 129 126 0 129 127 0 128 126 0 129 127 0 128 127 0 128 128 0 127 129 0 126 130 0 125 130 0 125 130 0 125 129 0 126 128 0 127 127 0 128 127 0 128 127 0 128 127 0 128 128 0 127 130 0 125 131 0 124 133 0 122 134 0 121 135 0 120 135 0 120 134 0 121 133 0 122 133 0 122 131 0 124 130 0 125 129 0 126 128 0 127 128 0 127 127 0 128 126 0 129 126 0 129 125 0 130 124 0 131 124 0 131 124 0 131 124 0 131 124 0 131 124 0 131 124 0 131 123 0 132 122 0 133 122 0 133 122 0 133 122 0 133 123 0 132 123 0 132 123 0 132 123 0 132 123 0 132 123 0 132 123 0 132 124 0 131 126 0 129 129 0 126 136 0 119 152 0 103 
141 0 114 135 0 120 131 0 124 129 0 126 127 0 128 127 0 128 126 0 129 126 0 129 126 0 129 126 0 129 125 0 130 124 0 131 123 0 132 123 0 132 122 0 133 121 0 134 121 0 134 121 0 134 122 0 133 122 0 133 123 0 132 124 0 131 125 0 130 125 0 130 126 0 129 126 0 129 126 0 129 126 0 129 126 0 129 126 0 129 127 0 128 127 0 128 128 0 127 128 0 127 129 0 126 129 0 126 129 0 126 129 0 126 129 0 126 128 0 127 127 0 128 125 0 130 124 0 131 124 0 131 123 0 132 123 0 132 123 0 132 123 0 132 123 0 132 123 0 132 123 0 132 124 0 131 125 0 130 126 0 129 126 0 129 126 0 129 125 0 130 124 0 131 123 0 132 122 0 133 121 0 134 118 0 137 112 0 143 102 0 153 86 0 169 64 0 191 35 0 220 3 0 252 0 0 255 0 0 255 0 0 255 0 0 255 0 0 255 0 0 255 0 0 255 0 0 255 0 0 255 0 0 255 0 0 255 0 0 255 0 0 255 0 0 255 0 0 255 0 0 255 0 0 255 0 0 255 0 0 255 0 0 255 0 0 255 0 0 255 0 0 255 0 0 255 0 0 255 0 0 255 0 0 255 0 0 255 0 0 255 0 0 255 0 0 255 0 0 255 0 0 255 0 0 255 0 0 255 0 0 255 0 0 255 0 0 255 0 0 255 0 0 255 0 0 255 0 0 255 0 0 255 0 0 255 0 0 255 0 0 255 0 0 255 0 0 255 0 0 255 0 0 255 0 0 255 0 0 255 0 0 255 0 0 255 0 0 255 0 0 255 0 0 255 0 0 255 0 0 255 0 0 255 0 0 255 0 0 255 0 0 255 0 0 255 3 0 252 36 0 219 65 0 190 88 0 167 105 0 150 115 0 140 122 0 133 125 0 130 127 0 128 127 0 128 128 0 127 127 0 128 128 0 127 128 0 127 129 0 126 129 0 126 130 0 125 130 0 125 129 0 126 129 0 126 128 0 127 128 0 127 128 0 127 128 0 127 128 0 127 129 0 126 130 0 125 131 0 124 133 0 122 134 0 121 134 0 121 134 0 121 134 0 121 133 0 122 132 0 123 131 0 124 130 0 125 129 0 126 128 0 127 127 0 128 127 0 128 126 0 129 125 0 130 125 0 130 125 0 130 124 0 131 124 0 131 124 0 131 124 0 131 124 0 131 123 0 132 123 0 132 122 0 133 122 0 133 122 0 133 122 0 133 123 0 132 123 0 132 124 0 131 123 0 132 123 0 132 123 0 132 123 0 132 124 0 131 127 0 128 132 0 123 144 0 111 183 0 72 
90 0 165 115 0 140 122 0 133 124 0 131 125 0 130 125 0 130 126 0 129 126 0 129 126 0 129 126 0 129 125 0 130 124 0 131 123 0 132 122 0 133 121 0 134 121 0 134 121 0 134 121 0 134 121 0 134 122 0 133 123 0 132 124 0 131 126 0 129 127 0 128 128 0 127 128 0 127 128 0 127 128 0 127 127 0 128 127 0 128 127 0 128 127 0 128 128 0 127 128 0 127 128 0 127 128 0 127 129 0 126 129 0 126 128 0 127 127 0 128 125 0 130 124 0 131 123 0 132 122 0 133 122 0 133 122 0 133 122 0 133 122 0 133 121 0 134 122 0 133 122 0 133 123 0 132 124 0 131 125 0 130 125 0 130 125 0 130 125 0 130 124 0 131 124 0 131 123 0 132 121 0 134 118 0 137 113 0 142 103 0 152 87 0 168 64 0 191 35 0 220 3 0 252 0 0 255 0 0 255 0 0 255 0 0 255 0 0 255 0 0 255 0 0 255 0 0 255 0 0 255 0 0 255 0 0 255 0 0 255 0 0 255 0 0 255 0 0 255 0 0 255 0 0 255 0 0 255 0 0 255 0 0 255 0 0 255 0 0 255 0 0 255 0 0 255 0 0 255 0 0 255 0 0 255 0 0 255 0 0 255 0 0 255 0 0 255 0 0 255 0 0 255 0 0 255 0 0 255 0 0 255 0 0 255 0 0 255 0 0 255 0 0 255 0 0 255 0 0 255 0 0 255 0 0 255 0 0 255 0 0 255 0 0 255 0 0 255 0 0 255 0 0 255 0 0 255 0 0 255 0 0 255 0 0 255 0 0 255 0 0 255 0 0 255 0 0 255 0 0 255 0 0 255 0 0 255 0 0 255 0 0 255 0 0 255 3 0 252 36 0 219 66 0 189 89 0 166 106 0 149 116 0 139 122 0 133 126 0 129 127 0 128 128 0 127 128 0 127 128 0 127 128 0 127 128 0 127 129 0 126 129 0 126 130 0 125 129 0 126 129 0 126 129 0 126 128 0 127 129 0 126 129 0 126 129 0 126 130 0 125 130 0 125 131 0 124 132 0 123 132 0 123 133 0 122 133 0 122 133 0 122 133 0 122 132 0 123 132 0 123 131 0 124 130 0 125 129 0 126 128 0 127 127 0 128 127 0 128 126 0 129 125 0 130 125 0 130 125 0 130 124 0 131 124 0 131 124 0 131 124 0 131 123 0 132 123 0 132 123 0 132 122 0 133 122 0 133 123 0 132 123 0 132 124 0 131 124 0 131 124 0 131 124 0 131 124 0 131 124 0 131 124 0 131 124 0 131 125 0 130 126 0 129 128 0 127 125 0 130 
109 0 146 114 0 141 119 0 136 122 0 133 123 0 132 124 0 131 125 0 130 126 0 129 126 0 129 126 0 129 126 0 129 125 0 130 124 0 131 123 0 132 122 0 133 121 0 134 120 0 135 120 0 135 121 0 134 122 0 133 124 0 131 125 0 130 127 0 128 129 0 126 130 0 125 130 0 125 130 0 125 129 0 126 129 0 126 129 0 126 128 0 127 128 0 127 128 0 127 128 0 127 128 0 127 128 0 127 128 0 127 128 0 127 127 0 128 126 0 129 124 0 131 122 0 133 121 0 134 121 0 134 120 0 135 121 0 134 121 0 134 121 0 134 121 0 134 121 0 134 121 0 134 122 0 133 123 0 132 124 0 131 124 0 131 125 0 130 125 0 130 125 0 130 124 0 131 123 0 132 122 0 133 119 0 136 113 0 142 103 0 152 87 0 168 64 0 191 35 0 220 3 0 252 0 0 255 0 0 255 0 0 255 0 0 255 0 0 255 0 0 255 0 0 255 0 0 255 0 0 255 0 0 255 0 0 255 0 0 255 0 0 255 0 0 255 0 0 255 0 0 255 0 0 255 0 0 255 0 0 255 0 0 255 0 0 255 0 0 255 0 0 255 0 0 255 0 0 255 0 0 255 0 0 255 0 0 255 0 0 255 0 0 255 0 0 255 0 0 255 0 0 255 0 0 255 0 0 255 0 0 255 0 0 255 0 0 255 0 0 255 0 0 255 0 0 255 0 0 255 0 0 255 0 0 255 0 0 255 0 0 255 0 0 255 0 0 255 0 0 255 0 0 255 0 0 255 0 0 255 0 0 255 0 0 255 0 0 255 0 0 255 0 0 255 0 0 255 0 0 255 0 0 255 0 0 255 0 0 255 0 0 255 0 0 255 3 0 252 36 0 219 66 0 189 90 0 165 106 0 149 116 0 139 122 0 133 125 0 130 127 0 128 128 0 127 128 0 127 128 0 127 128 0 127 129 0 126 129 0 126 129 0 126 129 0 126 129 0 126 129 0 126 129 0 126 129 0 126 129 0 126 130 0 125 130 0 125 131 0 124 131 0 124 131 0 124 132 0 123 132 0 123 132 0 123 132 0 123 132 0 123 132 0 123 132 0 123 131 0 124 131 0 124 130 0 125 129 0 126 129 0 126 128 0 127 127 0 128 126 0 129 126 0 129 125 0 130 125 0 130 124 0 131 124 0 131 124 0 131 124 0 131 123 0 132 123 0 132 123 0 132 123 0 132 123 0 132 123 0 132 124 0 131 125 0 130 125 0 130 126 0 129 126 0 129 125 0 130 125 0 130 125 0 130 124 0 131 124 0 131 121 0 134 114 0 141 89 0 166 
109 0 146 112 0 143 118 0 137 121 0 134 123 0 132 124 0 131 125 0 130 126 0 129 126 0 129 127 0 128 127 0 128 126 0 129 125 0 130 123 0 132 122 0 133 121 0 134 121 0 134 121 0 134 121 0 134 122 0 133 124 0 131 126 0 129 128 0 127 130 0 125 131 0 124 131 0 124 131 0 124 131 0 124 130 0 125 130 0 125 129 0 126 129 0 126 129 0 126 128 0 127 128 0 127 128 0 127 128 0 127 127 0 128 126 0 129 124 0 131 123 0 132 121 0 134 120 0 135 119 0 136 119 0 136 120 0 135 120 0 135 120 0 135 120 0 135 120 0 135 120 0 135 121 0 134 122 0 133 123 0 132 123 0 132 124 0 131 124 0 131 125 0 130 124 0 131 124 0 131 122 0 133 119 0 136 113 0 142 103 0 152 87 0 168 64 0 191 35 0 220 3 0 252 0 0 255 0 0 255 0 0 255 0 0 255 0 0 255 0 0 255 0 0 255 0 0 255 0 0 255 0 0 255 0 0 255 0 0 255 0 0 255 0 0 255 0 0 255 0 0 255 0 0 255 0 0 255 0 0 255 0 0 255 0 0 255 0 0 255 0 0 255 0 0 255 0 0 255 0 0 255 0 0 255 0 0 255 0 0 255 0 0 255 0 0 255 0 0 255 0 0 255 0 0 255 0 0 255 0 0 255 0 0 255 0 0 255 0 0 255 0 0 255 0 0 255 0 0 255 0 0 255 0 0 255 0 0 255 0 0 255 0 0 255 0 0 255 0 0 255 0 0 255 0 0 255 0 0 255 0 0 255 0 0 255 0 0 255 0 0 255 0 0 255 0 0 255 0 0 255 0 0 255 0 0 255 0 0 255 0 0 255 0 0 255 3 0 252 36 0 219 66 0 189 90 0 165 106 0 149 116 0 139 122 0 133 125 0 130 127 0 128 127 0 128 128 0 127 128 0 127 129 0 126 129 0 126 129 0 126 129 0 126 129 0 126 129 0 126 128 0 127 128 0 127 129 0 126 130 0 125 130 0 125 131 0 124 132 0 123 132 0 123 132 0 123 132 0 123 132 0 123 131 0 124 131 0 124 131 0 124 131 0 124 131 0 124 131 0 124 131 0 124 131 0 124 130 0 125 129 0 126 128 0 127 127 0 128 126 0 129 126 0 129 125 0 130 125 0 130 125 0 130 125 0 130 124 0 131 124 0 131 124 0 131 123 0 132 123 0 132 123 0 132 123 0 132 124 0 131 125 0 130 126 0 129 127 0 128 127 0 128 127 0 128 127 0 128 126 0 129 126 0 129 125 0 130 124 0 131 122 0 133 119 0 136 126 0 129 
64 0 191 108 0 147 118 0 137 121 0 134 122 0 133 123 0 132 124 0 131 125 0 130 126 0 129 127 0 128 127 0 128 127 0 128 126 0 129 124 0 131 123 0 132 122 0 133 121 0 134 121 0 134 122 0 133 123 0 132 125 0 130 127 0 128 129 0 126 130 0 125 131 0 124 132 0 123 132 0 123 132 0 123 131 0 124 131 0 124 131 0 124 130 0 125 130 0 125 130 0 125 129 0 126 129 0 126 128 0 127 127 0 128 125 0 130 124 0 131 122 0 133 120 0 135 119 0 136 119 0 136 119 0 136 119 0 136 120 0 135 120 0 135 120 0 135 120 0 135 120 0 135 120 0 135 121 0 134 122 0 133 123 0 132 123 0 132 124 0 131 124 0 131 124 0 131 124 0 131 122 0 133 119 0 136 113 0 142 103 0 152 87 0 168 64 0 191 35 0 220 3 0 252 0 0 255 0 0 255 0 0 255 0 0 255 0 0 255 0 0 255 0 0 255 0 0 255 0 0 255 0 0 255 0 0 255 0 0 255 0 0 255 0 0 255 0 0 255 0 0 255 0 0 255 0 0 255 0 0 255 0 0 255 0 0 255 0 0 255 0 0 255 0 0 255 0 0 255 0 0 255 0 0 255 0 0 255 0 0 255 0 0 255 0 0 255 0 0 255 0 0 255 0 0 255 0 0 255 0 0 255 0 0 255 0 0 255 0 0 255 0 0 255 0 0 255 0 0 255 0 0 255 0 0 255 0 0 255 0 0 255 0 0 255 0 0 255 0 0 255 0 0 255 0 0 255 0 0 255 0 0 255 0 0 255 0 0 255 0 0 255 0 0 255 0 0 255 0 0 255 0 0 255 0 0 255 0 0 255 0 0 255 0 0 255 3 0 252 36 0 219 66 0 189 90 0 165 106 0 149 116 0 139 122 0 133 125 0 130 126 0 129 127 0 128 128 0 127 129 0 126 129 0 126 129 0 126 129 0 126 129 0 126 129 0 126 128 0 127 128 0 127 128 0 127 129 0 126 130 0 125 131 0 124 132 0 123 133 0 122 133 0 122 132 0 123 132 0 123 131 0 124 131 0 124 131 0 124 131 0 124 131 0 124 131 0 124 132 0 123 132 0 123 131 0 124 131 0 124 130 0 125 129 0 126 128 0 127 127 0 128 126 0 129 126 0 129 126 0 129 126 0 129 125 0 130 125 0 130 125 0 130 124 0 131 124 0 131 123 0 132 123 0 132 124 0 131 125 0 130 126 0 129 127 0 128 128 0 127 128 0 127 129 0 126 128 0 127 128 0 127 127 0 128 127 0 128 126 0 129 123 0 132 115 0 140 85 0 170 
175 0 80 137 0 118 126 0 129 123 0 132 122 0 133 123 0 132 123 0 132 125 0 130 126 0 129 127 0 128 128 0 127 127 0 128 126 0 129 125 0 130 124 0 131 123 0 132 122 0 133 122 0 133 123 0 132 124 0 131 125 0 130 127 0 128 128 0 127 130 0 125 131 0 124 131 0 124 131 0 124 132 0 123 132 0 123 132 0 123 132 0 123 132 0 123 131 0 124 131 0 124 130 0 125 130 0 125 129 0 126 127 0 128 126 0 129 124 0 131 122 0 133 120 0 135 119 0 136 119 0 136 119 0 136 120 0 135 120 0 135 121 0 134 120 0 135 120 0 135 120 0 135 120 0 135 120 0 135 121 0 134 122 0 133 123 0 132 124 0 131 124 0 131 124 0 131 124 0 131 122 0 133 119 0 136 113 0 142 103 0 152 87 0 168 64 0 191 35 0 220 3 0 252 0 0 255 0 0 255 0 0 255 0 0 255 0 0 255 0 0 255 0 0 255 0 0 255 0 0 255 0 0 255 0 0 255 0 0 255 0 0 255 0 0 255 0 0 255 0 0 255 0 0 255 0 0 255 0 0 255 0 0 255 0 0 255 0 0 255 0 0 255 0 0 255 0 0 255 0 0 255 0 0 255 0 0 255 0 0 255 0 0 255 0 0 255 0 0 255 0 0 255 0 0 255 0 0 255 0 0 255 0 0 255 0 0 255 0 0 255 0 0 255 0 0 255 0 0 255 0 0 255 0 0 255 0 0 255 0 0 255 0 0 255 0 0 255 0 0 255 0 0 255 0 0 255 0 0 255 0 0 255 0 0 255 0 0 255 0 0 255 0 0 255 0 0 255 0 0 255 0 0 255 0 0 255 0 0 255 0 0 255 0 0 255 3 0 252 37 0 218 66 0 189 90 0 165 106 0 149 116 0 139 122 0 133 125 0 130 127 0 128 128 0 127 128 0 127 129 0 126 130 0 125 130 0 125 130 0 125 129 0 126 129 0 126 128 0 127 128 0 127 128 0 127 129 0 126 130 0 125 131 0 124 133 0 122 133 0 122 133 0 122 132 0 123 131 0 124 131 0 124 130 0 125 131 0 124 131 0 124 131 0 124 132 0 123 132 0 123 133 0 122 132 0 123 132 0 123 131 0 124 130 0 125 128 0 127 128 0 127 127 0 128 127 0 128 127 0 128 127 0 128 126 0 129 126 0 129 126 0 129 125 0 130 125 0 130 124 0 131 124 0 131 125 0 130 125 0 130 127 0 128 128 0 127 129 0 126 129 0 126 130 0 125 130 0 125 129 0 126 129 0 126 129 0 126 129 0 126 131 0 124 134 0 121 158 0 97 
159 0 96 137 0 118 127 0 128 123 0 132 122 0 133 122 0 133 122 0 133 124 0 131 125 0 130 127 0 128 127 0 128 127 0 128 127 0 128 126 0 129 125 0 130 124 0 131 123 0 132 123 0 132 124 0 131 124 0 131 125 0 130 126 0 129 127 0 128 128 0 127 129 0 126 130 0 125 130 0 125 131 0 124 131 0 124 132 0 123 132 0 123 132 0 123 132 0 123 132 0 123 132 0 123 131 0 124 130 0 125 128 0 127 126 0 129 124 0 131 122 0 133 121 0 134 120 0 135 119 0 136 120 0 135 121 0 134 121 0 134 121 0 134 121 0 134 121 0 134 120 0 135 120 0 135 120 0 135 121 0 134 122 0 133 123 0 132 124 0 131 124 0 131 124 0 131 124 0 131 122 0 133 119 0 136 113 0 142 103 0 152 87 0 168 65 0 190 36 0 219 3 0 252 0 0 255 0 0 255 0 0 255 0 0 255 0 0 255 0 0 255 0 0 255 0 0 255 0 0 255 0 0 255 0 0 255 0 0 255 0 0 255 0 0 255 0 0 255 0 0 255 0 0 255 0 0 255 0 0 255 0 0 255 0 0 255 0 0 255 0 0 255 0 0 255 0 0 255 0 0 255 0 0 255 0 0 255 0 0 255 0 0 255 0 0 255 0 0 255 0 0 255 0 0 255 0 0 255 0 0 255 0 0 255 0 0 255 0 0 255 0 0 255 0 0 255 0 0 255 0 0 255 0 0 255 0 0 255 0 0 255 0 0 255 0 0 255 0 0 255 0 0 255 0 0 255 0 0 255 0 0 255 0 0 255 0 0 255 0 0 255 0 0 255 0 0 255 0 0 255 0 0 255 0 0 255 0 0 255 0 0 255 0 0 255 3 0 252 37 0 218 67 0 188 90 0 165 106 0 149 117 0 138 122 0 133 126 0 129 127 0 128 128 0 127 129 0 126 130 0 125 130 0 125 131 0 124 130 0 125 130 0 125 129 0 126 128 0 127 127 0 128 128 0 127 128 0 127 130 0 125 132 0 123 133 0 122 133 0 122 133 0 122 132 0 123 131 0 124 131 0 124 130 0 125 131 0 124 131 0 124 132 0 123 133 0 122 133 0 122 134 0 121 134 0 121 133 0 122 132 0 123 130 0 125 129 0 126 128 0 127 128 0 127 128 0 127 128 0 127 128 0 127 128 0 127 128 0 127 127 0 128 127 0 128 126 0 129 125 0 130 125 0 130 126 0 129 126 0 129 127 0 128 129 0 126 130 0 125 130 0 125 131 0 124 131 0 124 131 0 124 131 0 124 131 0 124 133 0 122 136 0 119 135 0 120 104 0 151 
127 0 128 125 0 130 122 0 133 120 0 135 120 0 135 120 0 135 121 0 134 123 0 132 125 0 130 126 0 129 127 0 128 127 0 128 127 0 128 126 0 129 126 0 129 125 0 130 125 0 130 125 0 130 125 0 130 125 0 130 125 0 130 125 0 130 126 0 129 126 0 129 126 0 129 127 0 128 128 0 127 129 0 126 130 0 125 131 0 124 132 0 123 133 0 122 133 0 122 133 0 122 132 0 123 132 0 123 131 0 124 129 0 126 128 0 127 126 0 129 124 0 131 122 0 133 121 0 134 121 0 134 121 0 134 122 0 133 122 0 133 123 0 132 122 0 133 121 0 134 121 0 134 120 0 135 120 0 135 121 0 134 122 0 133 123 0 132 123 0 132 124 0 131 124 0 131 124 0 131 123 0 132 120 0 135 114 0 141 104 0 151 89 0 166 67 0 188 37 0 218 3 0 252 0 0 255 0 0 255 0 0 255 0 0 255 0 0 255 0 0 255 0 0 255 0 0 255 0 0 255 0 0 255 0 0 255 0 0 255 0 0 255 0 0 255 0 0 255 0 0 255 0 0 255 0 0 255 0 0 255 0 0 255 0 0 255 0 0 255 0 0 255 0 0 255 0 0 255 0 0 255 0 0 255 0 0 255 0 0 255 0 0 255 0 0 255 0 0 255 0 0 255 0 0 255 0 0 255 0 0 255 0 0 255 0 0 255 0 0 255 0 0 255 0 0 255 0 0 255 0 0 255 0 0 255 0 0 255 0 0 255 0 0 255 0 0 255 0 0 255 0 0 255 0 0 255 0 0 255 0 0 255 0 0 255 0 0 255 0 0 255 0 0 255 0 0 255 0 0 255 0 0 255 0 0 255 0 0 255 0 0 255 0 0 255 3 0 252 39 0 216 69 0 186 92 0 163 108 0 147 118 0 137 123 0 132 126 0 129 128 0 127 129 0 126 130 0 125 131 0 124 131 0 124 131 0 124 131 0 124 130 0 125 129 0 126 128 0 127 127 0 128 127 0 128 128 0 127 130 0 125 131 0 124 133 0 122 133 0 122 133 0 122 132 0 123 131 0 124 131 0 124 131 0 124 131 0 124 132 0 123 132 0 123 133 0 122 134 0 121 135 0 120 134 0 121 134 0 121 133 0 122 131 0 124 130 0 125 129 0 126 128 0 127 128 0 127 128 0 127 129 0 126 129 0 126 129 0 126 128 0 127 128 0 127 127 0 128 127 0 128 126 0 129 127 0 128 127 0 128 128 0 127 129 0 126 130 0 125 131 0 124 131 0 124 131 0 124 131 0 124 132 0 123 133 0 122 137 0 118 146 0 109 166 0 89 222 0 33 
114 0 141 113 0 142 115 0 140 117 0 138 118 0 137 119 0 136 120 0 135 122 0 133 124 0 131 125 0 130 126 0 129 127 0 128 127 0 128 127 0 128 126 0 129 126 0 129 126 0 129 126 0 129 126 0 129 125 0 130 125 0 130 124 0 131 124 0 131 124 0 131 124 0 131 125 0 130 126 0 129 127 0 128 129 0 126 131 0 124 132 0 123 133 0 122 133 0 122 133 0 122 133 0 122 133 0 122 132 0 123 131 0 124 129 0 126 127 0 128 125 0 130 124 0 131 123 0 132 122 0 133 123 0 132 123 0 132 124 0 131 124 0 131 123 0 132 122 0 133 122 0 133 121 0 134 121 0 134 121 0 134 122 0 133 123 0 132 124 0 131 124 0 131 125 0 130 124 0 131 123 0 132 120 0 135 115 0 140 107 0 148 92 0 163 71 0 184 41 0 214 3 0 252 0 0 255 0 0 255 0 0 255 0 0 255 0 0 255 0 0 255 0 0 255 0 0 255 0 0 255 0 0 255 0 0 255 0 0 255 0 0 255 0 0 255 0 0 255 0 0 255 0 0 255 0 0 255 0 0 255 0 0 255 0 0 255 0 0 255 0 0 255 0 0 255 0 0 255 0 0 255 0 0 255 0 0 255 0 0 255 0 0 255 0 0 255 0 0 255 0 0 255 0 0 255 0 0 255 0 0 255 0 0 255 0 0 255 0 0 255 0 0 255 0 0 255 0 0 255 0 0 255 0 0 255 0 0 255 0 0 255 0 0 255 0 0 255 0 0 255 0 0 255 0 0 255 0 0 255 0 0 255 0 0 255 0 0 255 0 0 255 0 0 255 0 0 255 0 0 255 0 0 255 0 0 255 0 0 255 0 0 255 0 0 255 3 0 252 42 0 213 73 0 182 95 0 160 110 0 145 119 0 136 125 0 130 128 0 127 130 0 125 131 0 124 132 0 123 132 0 123 132 0 123 132 0 123 132 0 123 131 0 124 129 0 126 128 0 127 127 0 128 127 0 128 128 0 127 129 0 126 131 0 124 132 0 123 133 0 122 133 0 122 132 0 123 131 0 124 131 0 124 131 0 124 131 0 124 132 0 123 133 0 122 134 0 121 135 0 120 135 0 120 135 0 120 134 0 121 133 0 122 132 0 123 130 0 125 129 0 126 129 0 126 128 0 127 129 0 126 129 0 126 129 0 126 129 0 126 129 0 126 129 0 126 128 0 127 128 0 127 128 0 127 128 0 127 128 0 127 129 0 126 130 0 125 131 0 124 131 0 124 132 0 123 132 0 123 132 0 123 132 0 123 134 0 121 138 0 117 146 0 109 161 0 94 192 0 63 
62 0 193 97 0 158 109 0 146 114 0 141 117 0 138 118 0 137 120 0 135 121 0 134 123 0 132 125 0 130 126 0 129 127 0 128 127 0 128 127 0 128 127 0 128 127 0 128 127 0 128 127 0 128 126 0 129 126 0 129 125 0 130 124 0 131 123 0 132 122 0 133 122 0 133 123 0 132 124 0 131 126 0 129 128 0 127 130 0 125 131 0 124 132 0 123 133 0 122 133 0 122 133 0 122 133 0 122 132 0 123 131 0 124 130 0 125 128 0 127 127 0 128 125 0 130 125 0 130 124 0 131 124 0 131 125 0 130 125 0 130 125 0 130 124 0 131 123 0 132 122 0 133 122 0 133 121 0 134 122 0 133 122 0 133 123 0 132 124 0 131 124 0 131 125 0 130 125 0 130 124 0 131 122 0 133 118 0 137 110 0 145 98 0 157 79 0 176 51 0 204 8 0 247 4 0 251 3 0 252 3 0 252 3 0 252 3 0 252 3 0 252 3 0 252 3 0 252 3 0 252 3 0 252 3 0 252 3 0 252 3 0 252 3 0 252 3 0 252 3 0 252 3 0 252 2 0 253 2 0 253 2 0 253 2 0 253 2 0 253 2 0 253 2 0 253 2 0 253 2 0 253 2 0 253 2 0 253 2 0 253 2 0 253 2 0 253 2 0 253 2 0 253 2 0 253 2 0 253 2 0 253 3 0 252 3 0 252 3 0 252 3 0 252 3 0 252 3 0 252 3 0 252 3 0 252 2 0 253 2 0 253 2 0 253 2 0 253 2 0 253 2 0 253 2 0 253 2 0 253 2 0 253 2 0 253 2 0 253 2 0 253 2 0 253 2 0 253 2 0 253 2 0 253 2 0 253 3 0 252 3 0 252 3 0 252 7 0 248 51 0 204 80 0 175 100 0 155 113 0 142 121 0 134 126 0 129 129 0 126 131 0 124 132 0 123 133 0 122 133 0 122 133 0 122 133 0 122 132 0 123 131 0 124 129 0 126 128 0 127 127 0 128 127 0 128 128 0 127 129 0 126 131 0 124 132 0 123 132 0 123 132 0 123 132 0 123 131 0 124 130 0 125 131 0 124 131 0 124 132 0 123 133 0 122 134 0 121 135 0 120 136 0 119 135 0 120 135 0 120 133 0 122 132 0 123 130 0 125 129 0 126 129 0 126 128 0 127 128 0 127 129 0 126 129 0 126 129 0 126 129 0 126 129 0 126 129 0 126 129 0 126 129 0 126 129 0 126 129 0 126 130 0 125 130 0 125 131 0 124 131 0 124 131 0 124 131 0 124 131 0 124 131 0 124 133 0 122 135 0 120 139 0 116 141 0 114 121 0 134 
90 0 165 103 0 152 111 0 144 114 0 141 117 0 138 118 0 137 120 0 135 121 0 134 123 0 132 124 0 131 126 0 129 127 0 128 128 0 127 128 0 127 128 0 127 128 0 127 128 0 127 127 0 128 127 0 128 126 0 129 124 0 131 123 0 132 122 0 133 121 0 134 120 0 135 121 0 134 123 0 132 125 0 130 127 0 128 129 0 126 131 0 124 132 0 123 132 0 123 133 0 122 133 0 122 133 0 122 132 0 123 132 0 123 131 0 124 129 0 126 128 0 127 127 0 128 126 0 129 126 0 129 126 0 129 126 0 129 126 0 129 125 0 130 125 0 130 124 0 131 123 0 132 122 0 133 122 0 133 122 0 133 122 0 133 123 0 132 124 0 131 125 0 130 126 0 129 126 0 129 125 0 130 124 0 131 121 0 134 115 0 140 106 0 149 92 0 163 73 0 182 52 0 203 43 0 212 39 0 216 38 0 217 37 0 218 36 0 219 36 0 219 36 0 219 36 0 219 35 0 220 35 0 220 35 0 220 35 0 220 35 0 220 35 0 220 35 0 220 35 0 220 35 0 220 35 0 220 35 0 220 35 0 220 34 0 221 34 0 221 34 0 221 34 0 221 33 0 222 33 0 222 33 0 222 33 0 222 33 0 222 33 0 222 33 0 222 33 0 222 33 0 222 33 0 222 34 0 221 34 0 221 35 0 220 35 0 220 36 0 219 36 0 219 36 0 219 36 0 219 35 0 220 35 0 220 35 0 220 35 0 220 34 0 221 34 0 221 33 0 222 33 0 222 33 0 222 33 0 222 33 0 222 33 0 222 33 0 222 33 0 222 34 0 221 34 0 221 34 0 221 35 0 220 35 0 220 36 0 219 37 0 218 41 0 214 51 0 204 72 0 183 92 0 163 107 0 148 117 0 138 124 0 131 128 0 127 131 0 124 132 0 123 133 0 122 133 0 122 134 0 121 134 0 121 133 0 122 132 0 123 131 0 124 130 0 125 128 0 127 127 0 128 127 0 128 127 0 128 128 0 127 130 0 125 131 0 124 132 0 123 131 0 124 131 0 124 130 0 125 130 0 125 130 0 125 131 0 124 132 0 123 133 0 122 134 0 121 135 0 120 136 0 119 135 0 120 135 0 120 133 0 122 132 0 123 130 0 125 129 0 126 128 0 127 128 0 127 128 0 127 128 0 127 129 0 126 129 0 126 129 0 126 129 0 126 129 0 126 130 0 125 130 0 125 130 0 125 130 0 125 130 0 125 131 0 124 131 0 124 131 0 124 131 0 124 131 0 124 130 0 125 130 0 125 131 0 124 132 0 123 136 0 119 144 0 111 165 0 90 
131 0 124 117 0 138 115 0 140 116 0 139 118 0 137 119 0 136 120 0 135 122 0 133 123 0 132 125 0 130 126 0 129 127 0 128 128 0 127 129 0 126 129 0 126 129 0 126 128 0 127 128 0 127 127 0 128 126 0 129 124 0 131 123 0 132 121 0 134 120 0 135 120 0 135 121 0 134 122 0 133 124 0 131 126 0 129 128 0 127 130 0 125 131 0 124 131 0 124 132 0 123 132 0 123 132 0 123 132 0 123 132 0 123 131 0 124 130 0 125 129 0 126 128 0 127 127 0 128 127 0 128 127 0 128 127 0 128 127 0 128 126 0 129 125 0 130 124 0 131 123 0 132 123 0 132 122 0 133 122 0 133 122 0 133 123 0 132 124 0 131 125 0 130 126 0 129 127 0 128 127 0 128 126 0 129 124 0 131 120 0 135 114 0 141 105 0 150 93 0 162 82 0 173 74 0 181 70 0 185 68 0 187 67 0 188 66 0 189 66 0 189 65 0 190 65 0 190 64 0 191 64 0 191 64 0 191 65 0 190 65 0 190 65 0 190 65 0 190 64 0 191 64 0 191 64 0 191 64 0 191 63 0 192 63 0 192 62 0 193 62 0 193 61 0 194 61 0 194 61 0 194 61 0 194 60 0 195 60 0 195 60 0 195 60 0 195 60 0 195 60 0 195 61 0 194 62 0 193 63 0 192 64 0 191 65 0 190 65 0 190 66 0 189 66 0 189 65 0 190 65 0 190 64 0 191 64 0 191 63 0 192 63 0 192 62 0 193 61 0 194 61 0 194 60 0 195 60 0 195 60 0 195 60 0 195 61 0 194 61 0 194 62 0 193 63 0 192 63 0 192 63 0 192 64 0 191 64 0 191 67 0 188 71 0 184 79 0 176 91 0 164 104 0 151 114 0 141 122 0 133 127 0 128 130 0 125 132 0 123 133 0 122 134 0 121 134 0 121 134 0 121 134 0 121 133 0 122 133 0 122 131 0 124 130 0 125 128 0 127 127 0 128 126 0 129 127 0 128 128 0 127 129 0 126 130 0 125 131 0 124 131 0 124 130 0 125 130 0 125 129 0 126 130 0 125 131 0 124 132 0 123 133 0 122 134 0 121 135 0 120 135 0 120 135 0 120 134 0 121 133 0 122 132 0 123 130 0 125 129 0 126 128 0 127 127 0 128 127 0 128 127 0 128 128 0 127 128 0 127 128 0 127 129 0 126 129 0 126 130 0 125 130 0 125 130 0 125 131 0 124 131 0 124 131 0 124 131 0 124 131 0 124 130 0 125 130 0 125 129 0 126 129 0 126 128 0 127 128 0 127 129 0 126 134 0 121 153 0 102 
127 0 128 117 0 138 116 0 139 117 0 138 119 0 136 120 0 135 121 0 134 122 0 133 124 0 131 125 0 130 127 0 128 128 0 127 129 0 126 130 0 125 130 0 125 129 0 126 129 0 126 128 0 127 127 0 128 125 0 130 124 0 131 123 0 132 121 0 134 120 0 135 120 0 135 121 0 134 122 0 133 123 0 132 125 0 130 127 0 128 129 0 126 130 0 125 131 0 124 131 0 124 132 0 123 132 0 123 132 0 123 131 0 124 130 0 125 129 0 126 129 0 126 128 0 127 128 0 127 128 0 127 128 0 127 127 0 128 127 0 128 126 0 129 126 0 129 125 0 130 124 0 131 123 0 132 122 0 133 122 0 133 123 0 132 123 0 132 124 0 131 125 0 130 126 0 129 127 0 128 128 0 127 128 0 127 127 0 128 125 0 130 121 0 134 115 0 140 109 0 146 102 0 153 97 0 158 93 0 162 91 0 164 90 0 165 89 0 166 89 0 166 88 0 167 88 0 167 87 0 168 87 0 168 88 0 167 88 0 167 88 0 167 88 0 167 88 0 167 88 0 167 88 0 167 88 0 167 87 0 168 87 0 168 86 0 169 85 0 170 85 0 170 84 0 171 83 0 172 83 0 172 83 0 172 82 0 173 82 0 173 82 0 173 81 0 174 81 0 174 82 0 173 83 0 172 84 0 171 86 0 169 87 0 168 89 0 166 89 0 166 90 0 165 89 0 166 89 0 166 88 0 167 88 0 167 87 0 168 86 0 169 86 0 169 85 0 170 84 0 171 83 0 172 83 0 172 82 0 173 83 0 172 83 0 172 84 0 171 84 0 171 85 0 170 86 0 169 86 0 169 86 0 169 87 0 168 87 0 168 89 0 166 92 0 163 98 0 157 105 0 150 113 0 142 120 0 135 125 0 130 129 0 126 132 0 123 133 0 122 134 0 121 134 0 121 134 0 121 134 0 121 134 0 121 133 0 122 133 0 122 131 0 124 130 0 125 128 0 127 127 0 128 126 0 129 127 0 128 127 0 128 128 0 127 129 0 126 129 0 126 129 0 126 129 0 126 129 0 126 129 0 126 129 0 126 130 0 125 131 0 124 132 0 123 133 0 122 134 0 121 134 0 121 134 0 121 134 0 121 133 0 122 131 0 124 130 0 125 128 0 127 127 0 128 126 0 129 126 0 129 126 0 129 127 0 128 127 0 128 127 0 128 128 0 127 129 0 126 129 0 126 130 0 125 130 0 125 130 0 125 131 0 124 130 0 125 130 0 125 130 0 125 130 0 125 129 0 126 128 0 127 127 0 128 126 0 129 124 0 131 121 0 134 110 0 145 71 0 184 
86 0 169 107 0 148 114 0 141 118 0 137 120 0 135 121 0 134 122 0 133 123 0 132 125 0 130 126 0 129 128 0 127 129 0 126 130 0 125 131 0 124 130 0 125 130 0 125 129 0 126 128 0 127 126 0 129 125 0 130 124 0 131 123 0 132 122 0 133 121 0 134 121 0 134 121 0 134 122 0 133 123 0 132 125 0 130 126 0 129 128 0 127 129 0 126 130 0 125 131 0 124 131 0 124 131 0 124 131 0 124 130 0 125 130 0 125 129 0 126 128 0 127 128 0 127 128 0 127 128 0 127 128 0 127 128 0 127 128 0 127 127 0 128 126 0 129 125 0 130 124 0 131 123 0 132 123 0 132 123 0 132 123 0 132 124 0 131 124 0 131 125 0 130 126 0 129 127 0 128 128 0 127 129 0 126 128 0 127 128 0 127 126 0 129 123 0 132 119 0 136 115 0 140 112 0 143 109 0 146 107 0 148 106 0 149 105 0 150 104 0 151 104 0 151 103 0 152 103 0 152 104 0 151 104 0 151 105 0 150 105 0 150 105 0 150 106 0 149 105 0 150 105 0 150 105 0 150 105 0 150 104 0 151 103 0 152 102 0 153 101 0 154 100 0 155 100 0 155 99 0 156 99 0 156 98 0 157 98 0 157 97 0 158 97 0 158 97 0 158 98 0 157 99 0 156 101 0 154 103 0 152 104 0 151 106 0 149 107 0 148 107 0 148 107 0 148 106 0 149 105 0 150 105 0 150 104 0 151 103 0 152 102 0 153 101 0 154 101 0 154 100 0 155 100 0 155 99 0 156 100 0 155 100 0 155 101 0 154 101 0 154 102 0 153 103 0 152 103 0 152 103 0 152 103 0 152 104 0 151 105 0 150 107 0 148 110 0 145 115 0 140 120 0 135 124 0 131 128 0 127 131 0 124 132 0 123 134 0 121 134 0 121 134 0 121 134 0 121 134 0 121 133 0 122 133 0 122 132 0 123 131 0 124 130 0 125 129 0 126 127 0 128 127 0 128 127 0 128 127 0 128 128 0 127 128 0 127 128 0 127 128 0 127 128 0 127 127 0 128 128 0 127 128 0 127 129 0 126 130 0 125 131 0 124 132 0 123 133 0 122 133 0 122 133 0 122 133 0 122 132 0 123 131 0 124 129 0 126 128 0 127 126 0 129 126 0 129 125 0 130 125 0 130 125 0 130 126 0 129 126 0 129 127 0 128 128 0 127 128 0 127 129 0 126 130 0 125 130 0 125 130 0 125 130 0 125 130 0 125 130 0 125 129 0 126 129 0 126 128 0 127 126 0 129 125 0 130 123 0 132 121 0 134 115 0 140 102 0 153 
92 0 163 110 0 145 116 0 139 119 0 136 121 0 134 122 0 133 123 0 132 124 0 131 125 0 130 127 0 128 128 0 127 130 0 125 131 0 124 131 0 124 131 0 124 130 0 125 129 0 126 127 0 128 126 0 129 125 0 130 124 0 131 124 0 131 123 0 132 122 0 133 122 0 133 122 0 133 122 0 133 123 0 132 124 0 131 125 0 130 127 0 128 128 0 127 129 0 126 130 0 125 130 0 125 130 0 125 130 0 125 130 0 125 129 0 126 128 0 127 128 0 127 128 0 127 128 0 127 128 0 127 129 0 126 129 0 126 128 0 127 128 0 127 127 0 128 126 0 129 125 0 130 124 0 131 124 0 131 124 0 131 124 0 131 124 0 131 125 0 130 125 0 130 126 0 129 127 0 128 128 0 127 128 0 127 129 0 126 129 0 126 128 0 127 127 0 128 125 0 130 122 0 133 120 0 135 118 0 137 117 0 138 115 0 140 114 0 141 113 0 142 113 0 142 113 0 142 113 0 142 113 0 142 114 0 141 115 0 140 116 0 139 116 0 139 116 0 139 117 0 138 116 0 139 116 0 139 116 0 139 115 0 140 115 0 140 113 0 142 112 0 143 111 0 144 110 0 145 110 0 145 109 0 146 109 0 146 108 0 147 108 0 147 108 0 147 108 0 147 109 0 146 110 0 145 112 0 143 114 0 141 116 0 139 117 0 138 118 0 137 118 0 137 118 0 137 117 0 138 116 0 139 115 0 140 114 0 141 114 0 141 113 0 142 112 0 143 111 0 144 111 0 144 111 0 144 111 0 144 111 0 144 112 0 143 112 0 143 113 0 142 114 0 141 114 0 141 114 0 141 114 0 141 114 0 141 114 0 141 115 0 140 116 0 139 118 0 137 121 0 134 124 0 131 127 0 128 129 0 126 131 0 124 133 0 122 134 0 121 134 0 121 134 0 121 134 0 121 134 0 121 133 0 122 133 0 122 132 0 123 131 0 124 130 0 125 129 0 126 128 0 127 127 0 128 127 0 128 127 0 128 127 0 128 127 0 128 127 0 128 127 0 128 126 0 129 126 0 129 127 0 128 127 0 128 128 0 127 129 0 126 130 0 125 131 0 124 132 0 123 132 0 123 132 0 123 132 0 123 131 0 124 130 0 125 128 0 127 127 0 128 126 0 129 125 0 130 124 0 131 124 0 131 124 0 131 125 0 130 125 0 130 126 0 129 127 0 128 128 0 127 129 0 126 129 0 126 130 0 125 130 0 125 130 0 125 130 0 125 130 0 125 129 0 126 129 0 126 128 0 127 126 0 129 126 0 129 125 0 130 126 0 129 126 0 129 129 0 126 
165 0 90 126 0 129 120 0 135 121 0 134 122 0 133 123 0 132 124 0 131 125 0 130 126 0 129 127 0 128 129 0 126 130 0 125 131 0 124 131 0 124 131 0 124 130 0 125 129 0 126 127 0 128 126 0 129 125 0 130 125 0 130 124 0 131 124 0 131 124 0 131 123 0 132 123 0 132 123 0 132 123 0 132 124 0 131 124 0 131 126 0 129 127 0 128 128 0 127 129 0 126 130 0 125 130 0 125 129 0 126 129 0 126 128 0 127 127 0 128 127 0 128 128 0 127 128 0 127 129 0 126 129 0 126 129 0 126 129 0 126 128 0 127 127 0 128 126 0 129 126 0 129 125 0 130 125 0 130 124 0 131 124 0 131 124 0 131 125 0 130 125 0 130 125 0 130 126 0 129 127 0 128 128 0 127 128 0 127 129 0 126 129 0 126 128 0 127 127 0 128 126 0 129 124 0 131 123 0 132 121 0 134 120 0 135 119 0 136 118 0 137 117 0 138 117 0 138 118 0 137 118 0 137 119 0 136 121 0 134 121 0 134 122 0 133 122 0 133 122 0 133 123 0 132 123 0 132 122 0 133 122 0 133 121 0 134 120 0 135 119 0 136 118 0 137 117 0 138 116 0 139 116 0 139 115 0 140 115 0 140 114 0 141 115 0 140 115 0 140 116 0 139 117 0 138 119 0 136 121 0 134 122 0 133 123 0 132 124 0 131 124 0 131 124 0 131 123 0 132 122 0 133 121 0 134 120 0 135 119 0 136 118 0 137 118 0 137 117 0 138 117 0 138 117 0 138 118 0 137 118 0 137 119 0 136 119 0 136 120 0 135 120 0 135 121 0 134 121 0 134 121 0 134 121 0 134 121 0 134 121 0 134 121 0 134 123 0 132 124 0 131 126 0 129 127 0 128 129 0 126 131 0 124 132 0 123 133 0 122 134 0 121 134 0 121 134 0 121 133 0 122 133 0 122 133 0 122 132 0 123 131 0 124 130 0 125 129 0 126 128 0 127 127 0 128 127 0 128 126 0 129 126 0 129 126 0 129 126 0 129 125 0 130 125 0 130 125 0 130 126 0 129 126 0 129 127 0 128 128 0 127 129 0 126 130 0 125 130 0 125 131 0 124 131 0 124 131 0 124 130 0 125 129 0 126 128 0 127 126 0 129 125 0 130 124 0 131 123 0 132 123 0 132 123 0 132 123 0 132 124 0 131 125 0 130 126 0 129 127 0 128 128 0 127 129 0 126 130 0 125 131 0 124 131 0 124 131 0 124 131 0 124 130 0 125 129 0 126 128 0 127 127 0 128 127 0 128 128 0 127 131 0 124 137 0 118 143 0 112 
77 0 178 109 0 146 117 0 138 121 0 134 122 0 133 124 0 131 124 0 131 125 0 130 126 0 129 127 0 128 129 0 126 130 0 125 131 0 124 131 0 124 130 0 125 129 0 126 128 0 127 127 0 128 126 0 129 125 0 130 125 0 130 125 0 130 126 0 129 125 0 130 125 0 130 124 0 131 123 0 132 123 0 132 123 0 132 124 0 131 125 0 130 126 0 129 127 0 128 128 0 127 129 0 126 129 0 126 128 0 127 128 0 127 127 0 128 127 0 128 127 0 128 127 0 128 128 0 127 129 0 126 130 0 125 130 0 125 130 0 125 129 0 126 128 0 127 127 0 128 126 0 129 126 0 129 125 0 130 125 0 130 125 0 130 125 0 130 124 0 131 124 0 131 124 0 131 124 0 131 125 0 130 126 0 129 127 0 128 128 0 127 128 0 127 128 0 127 128 0 127 127 0 128 125 0 130 124 0 131 123 0 132 121 0 134 120 0 135 119 0 136 118 0 137 118 0 137 119 0 136 120 0 135 121 0 134 123 0 132 123 0 132 124 0 131 124 0 131 125 0 130 125 0 130 125 0 130 125 0 130 125 0 130 124 0 131 123 0 132 122 0 133 121 0 134 120 0 135 119 0 136 119 0 136 118 0 137 118 0 137 118 0 137 119 0 136 120 0 135 121 0 134 122 0 133 124 0 131 125 0 130 126 0 129 127 0 128 127 0 128 127 0 128 126 0 129 125 0 130 124 0 131 123 0 132 122 0 133 121 0 134 120 0 135 120 0 135 120 0 135 120 0 135 120 0 135 121 0 134 122 0 133 122 0 133 123 0 132 123 0 132 124 0 131 124 0 131 124 0 131 124 0 131 124 0 131 124 0 131 124 0 131 124 0 131 124 0 131 125 0 130 126 0 129 127 0 128 128 0 127 130 0 125 131 0 124 132 0 123 133 0 122 134 0 121 134 0 121 133 0 122 133 0 122 132 0 123 132 0 123 131 0 124 130 0 125 129 0 126 128 0 127 127 0 128 126 0 129 126 0 129 126 0 129 125 0 130 125 0 130 124 0 131 124 0 131 124 0 131 125 0 130 125 0 130 126 0 129 127 0 128 128 0 127 128 0 127 129 0 126 129 0 126 130 0 125 129 0 126 129 0 126 128 0 127 127 0 128 126 0 129 124 0 131 123 0 132 123 0 132 122 0 133 122 0 133 122 0 133 123 0 132 124 0 131 125 0 130 126 0 129 128 0 127 129 0 126 130 0 125 131 0 124 132 0 123 132 0 123 131 0 124 131 0 124 130 0 125 129 0 126 128 0 127 129 0 126 131 0 124 137 0 118 147 0 108 157 0 98 
114 0 141 114 0 141 119 0 136 121 0 134 123 0 132 124 0 131 125 0 130 125 0 130 126 0 129 127 0 128 128 0 127 129 0 126 130 0 125 130 0 125 129 0 126 128 0 127 127 0 128 126 0 129 125 0 130 125 0 130 126 0 129 126 0 129 127 0 128 127 0 128 126 0 129 125 0 130 124 0 131 123 0 132 123 0 132 123 0 132 124 0 131 125 0 130 127 0 128 128 0 127 128 0 127 128 0 127 128 0 127 127 0 128 126 0 129 126 0 129 126 0 129 127 0 128 128 0 127 130 0 125 130 0 125 131 0 124 130 0 125 130 0 125 129 0 126 128 0 127 127 0 128 126 0 129 126 0 129 126 0 129 125 0 130 125 0 130 124 0 131 123 0 132 123 0 132 123 0 132 123 0 132 124 0 131 125 0 130 126 0 129 127 0 128 127 0 128 127 0 128 126 0 129 125 0 130 124 0 131 122 0 133 121 0 134 120 0 135 119 0 136 118 0 137 118 0 137 119 0 136 120 0 135 122 0 133 123 0 132 123 0 132 124 0 131 124 0 131 125 0 130 125 0 130 125 0 130 126 0 129 126 0 129 125 0 130 124 0 131 123 0 132 122 0 133 121 0 134 120 0 135 120 0 135 120 0 135 120 0 135 121 0 134 122 0 133 123 0 132 124 0 131 125 0 130 127 0 128 128 0 127 128 0 127 129 0 126 128 0 127 128 0 127 127 0 128 126 0 129 124 0 131 123 0 132 122 0 133 121 0 134 120 0 135 120 0 135 120 0 135 120 0 135 121 0 134 122 0 133 123 0 132 124 0 131 124 0 131 125 0 130 125 0 130 126 0 129 126 0 129 125 0 130 125 0 130 125 0 130 125 0 130 125 0 130 125 0 130 125 0 130 126 0 129 126 0 129 127 0 128 129 0 126 130 0 125 131 0 124 132 0 123 133 0 122 133 0 122 133 0 122 133 0 122 132 0 123 132 0 123 131 0 124 130 0 125 129 0 126 128 0 127 127 0 128 126 0 129 125 0 130 125 0 130 124 0 131 124 0 131 123 0 132 123 0 132 123 0 132 124 0 131 124 0 131 125 0 130 125 0 130 126 0 129 126 0 129 127 0 128 128 0 127 128 0 127 128 0 127 128 0 127 127 0 128 126 0 129 125 0 130 124 0 131 123 0 132 122 0 133 121 0 134 121 0 134 121 0 134 121 0 134 123 0 132 124 0 131 126 0 129 128 0 127 130 0 125 131 0 124 132 0 123 133 0 122 133 0 122 133 0 122 132 0 123 131 0 124 130 0 125 129 0 126 129 0 126 131 0 124 139 0 116 160 0 95 223 0 32 
86 0 169 115 0 140 121 0 134 123 0 132 124 0 131 124 0 131 125 0 130 125 0 130 125 0 130 126 0 129 127 0 128 128 0 127 129 0 126 129 0 126 128 0 127 127 0 128 126 0 129 125 0 130 125 0 130 125 0 130 126 0 129 127 0 128 128 0 127 128 0 127 128 0 127 126 0 129 125 0 130 124 0 131 123 0 132 124 0 131 124 0 131 125 0 130 127 0 128 127 0 128 128 0 127 128 0 127 127 0 128 126 0 129 126 0 129 126 0 129 126 0 129 128 0 127 129 0 126 130 0 125 131 0 124 131 0 124 131 0 124 130 0 125 129 0 126 128 0 127 127 0 128 127 0 128 126 0 129 126 0 129 125 0 130 124 0 131 123 0 132 122 0 133 122 0 133 121 0 134 121 0 134 122 0 133 124 0 131 125 0 130 126 0 129 126 0 129 126 0 129 125 0 130 124 0 131 123 0 132 122 0 133 121 0 134 120 0 135 119 0 136 118 0 137 118 0 137 119 0 136 120 0 135 121 0 134 122 0 133 122 0 133 123 0 132 123 0 132 123 0 132 124 0 131 124 0 131 125 0 130 125 0 130 125 0 130 124 0 131 123 0 132 122 0 133 121 0 134 121 0 134 120 0 135 121 0 134 121 0 134 122 0 133 124 0 131 125 0 130 126 0 129 128 0 127 129 0 126 129 0 126 130 0 125 129 0 126 129 0 126 128 0 127 126 0 129 125 0 130 123 0 132 122 0 133 121 0 134 120 0 135 119 0 136 119 0 136 119 0 136 120 0 135 120 0 135 121 0 134 123 0 132 124 0 131 125 0 130 125 0 130 126 0 129 126 0 129 126 0 129 126 0 129 125 0 130 125 0 130 125 0 130 125 0 130 125 0 130 125 0 130 125 0 130 126 0 129 126 0 129 128 0 127 129 0 126 130 0 125 132 0 123 133 0 122 133 0 122 134 0 121 133 0 122 133 0 122 132 0 123 130 0 125 129 0 126 128 0 127 127 0 128 126 0 129 125 0 130 125 0 130 124 0 131 123 0 132 123 0 132 122 0 133 122 0 133 122 0 133 123 0 132 123 0 132 123 0 132 124 0 131 124 0 131 124 0 131 125 0 130 126 0 129 126 0 129 127 0 128 127 0 128 126 0 129 125 0 130 124 0 131 123 0 132 122 0 133 121 0 134 121 0 134 120 0 135 120 0 135 120 0 135 122 0 133 123 0 132 125 0 130 128 0 127 130 0 125 131 0 124 133 0 122 133 0 122 133 0 122 133 0 122 133 0 122 132 0 123 130 0 125 129 0 126 128 0 127 127 0 128 128 0 127 132 0 123 144 0 111 
165 0 90 138 0 117 129 0 126 125 0 130 124 0 131 124 0 131 124 0 131 124 0 131 125 0 130 125 0 130 126 0 129 127 0 128 127 0 128 127 0 128 126 0 129 126 0 129 125 0 130 124 0 131 124 0 131 125 0 130 126 0 129 128 0 127 129 0 126 129 0 126 129 0 126 127 0 128 126 0 129 125 0 130 124 0 131 124 0 131 125 0 130 126 0 129 127 0 128 127 0 128 127 0 128 127 0 128 126 0 129 126 0 129 125 0 130 126 0 129 126 0 129 128 0 127 129 0 126 130 0 125 131 0 124 131 0 124 131 0 124 130 0 125 129 0 126 128 0 127 127 0 128 126 0 129 126 0 129 126 0 129 125 0 130 124 0 131 123 0 132 122 0 133 120 0 135 120 0 135 120 0 135 121 0 134 122 0 133 123 0 132 124 0 131 125 0 130 125 0 130 125 0 130 124 0 131 123 0 132 122 0 133 121 0 134 120 0 135 119 0 136 119 0 136 119 0 136 119 0 136 120 0 135 121 0 134 121 0 134 121 0 134 121 0 134 121 0 134 122 0 133 122 0 133 123 0 132 124 0 131 124 0 131 124 0 131 123 0 132 122 0 133 121 0 134 121 0 134 120 0 135 120 0 135 121 0 134 122 0 133 124 0 131 125 0 130 127 0 128 129 0 126 130 0 125 130 0 125 131 0 124 130 0 125 130 0 125 129 0 126 127 0 128 126 0 129 124 0 131 123 0 132 121 0 134 120 0 135 119 0 136 118 0 137 118 0 137 118 0 137 118 0 137 119 0 136 120 0 135 122 0 133 123 0 132 124 0 131 125 0 130 126 0 129 126 0 129 126 0 129 126 0 129 125 0 130 125 0 130 125 0 130 125 0 130 125 0 130 125 0 130 125 0 130 126 0 129 126 0 129 127 0 128 128 0 127 130 0 125 131 0 124 133 0 122 134 0 121 134 0 121 134 0 121 133 0 122 132 0 123 130 0 125 128 0 127 127 0 128 126 0 129 125 0 130 124 0 131 123 0 132 123 0 132 122 0 133 121 0 134 121 0 134 121 0 134 121 0 134 122 0 133 122 0 133 122 0 133 122 0 133 122 0 133 122 0 133 123 0 132 124 0 131 124 0 131 125 0 130 125 0 130 125 0 130 125 0 130 124 0 131 123 0 132 122 0 133 121 0 134 120 0 135 119 0 136 119 0 136 119 0 136 120 0 135 122 0 133 125 0 130 127 0 128 130 0 125 131 0 124 133 0 122 133 0 122 134 0 121 133 0 122 132 0 123 131 0 124 130 0 125 128 0 127 126 0 129 122 0 133 114 0 141 94 0 161 36 0 219 
174 0 81 142 0 113 130 0 125 125 0 130 124 0 131 124 0 131 124 0 131 124 0 131 124 0 131 124 0 131 125 0 130 125 0 130 126 0 129 126 0 129 125 0 130 125 0 130 124 0 131 124 0 131 124 0 131 125 0 130 127 0 128 128 0 127 130 0 125 130 0 125 129 0 126 128 0 127 127 0 128 126 0 129 125 0 130 125 0 130 126 0 129 127 0 128 127 0 128 128 0 127 127 0 128 127 0 128 126 0 129 125 0 130 125 0 130 126 0 129 127 0 128 128 0 127 129 0 126 131 0 124 131 0 124 131 0 124 131 0 124 130 0 125 129 0 126 128 0 127 127 0 128 126 0 129 126 0 129 126 0 129 125 0 130 124 0 131 123 0 132 121 0 134 120 0 135 119 0 136 119 0 136 120 0 135 121 0 134 123 0 132 124 0 131 124 0 131 125 0 130 125 0 130 124 0 131 124 0 131 123 0 132 122 0 133 121 0 134 120 0 135 120 0 135 120 0 135 120 0 135 120 0 135 120 0 135 121 0 134 120 0 135 120 0 135 120 0 135 120 0 135 120 0 135 121 0 134 122 0 133 122 0 133 123 0 132 122 0 133 122 0 133 121 0 134 120 0 135 120 0 135 121 0 134 122 0 133 123 0 132 125 0 130 127 0 128 129 0 126 130 0 125 131 0 124 132 0 123 132 0 123 131 0 124 130 0 125 129 0 126 127 0 128 125 0 130 124 0 131 122 0 133 120 0 135 119 0 136 118 0 137 117 0 138 117 0 138 117 0 138 117 0 138 118 0 137 119 0 136 121 0 134 122 0 133 124 0 131 125 0 130 126 0 129 126 0 129 126 0 129 125 0 130 125 0 130 124 0 131 124 0 131 125 0 130 125 0 130 125 0 130 126 0 129 126 0 129 126 0 129 127 0 128 129 0 126 130 0 125 132 0 123 133 0 122 134 0 121 134 0 121 134 0 121 133 0 122 131 0 124 129 0 126 127 0 128 126 0 129 124 0 131 123 0 132 122 0 133 121 0 134 121 0 134 120 0 135 120 0 135 120 0 135 120 0 135 120 0 135 120 0 135 120 0 135 120 0 135 120 0 135 120 0 135 120 0 135 121 0 134 122 0 133 122 0 133 123 0 132 123 0 132 124 0 131 123 0 132 123 0 132 122 0 133 121 0 134 120 0 135 119 0 136 118 0 137 118 0 137 118 0 137 119 0 136 121 0 134 124 0 131 126 0 129 128 0 127 130 0 125 132 0 123 132 0 123 133 0 122 132 0 123 131 0 124 130 0 125 128 0 127 127 0 128 124 0 131 120 0 135 111 0 144 96 0 159 79 0 176 
141 0 114 127 0 128 123 0 132 122 0 133 122 0 133 123 0 132 123 0 132 123 0 132 124 0 131 124 0 131 124 0 131 125 0 130 125 0 130 125 0 130 125 0 130 124 0 131 124 0 131 124 0 131 124 0 131 126 0 129 127 0 128 129 0 126 130 0 125 130 0 125 130 0 125 129 0 126 128 0 127 127 0 128 126 0 129 126 0 129 127 0 128 127 0 128 128 0 127 128 0 127 127 0 128 127 0 128 126 0 129 125 0 130 125 0 130 126 0 129 127 0 128 128 0 127 129 0 126 130 0 125 131 0 124 131 0 124 130 0 125 129 0 126 128 0 127 128 0 127 127 0 128 127 0 128 127 0 128 126 0 129 126 0 129 125 0 130 123 0 132 122 0 133 120 0 135 119 0 136 119 0 136 120 0 135 121 0 134 123 0 132 124 0 131 125 0 130 125 0 130 125 0 130 125 0 130 125 0 130 124 0 131 124 0 131 123 0 132 122 0 133 122 0 133 121 0 134 121 0 134 121 0 134 121 0 134 120 0 135 120 0 135 119 0 136 118 0 137 118 0 137 119 0 136 119 0 136 120 0 135 121 0 134 121 0 134 121 0 134 121 0 134 120 0 135 120 0 135 120 0 135 121 0 134 122 0 133 124 0 131 126 0 129 128 0 127 130 0 125 131 0 124 132 0 123 133 0 122 132 0 123 132 0 123 131 0 124 129 0 126 127 0 128 125 0 130 123 0 132 122 0 133 120 0 135 119 0 136 117 0 138 117 0 138 116 0 139 116 0 139 116 0 139 117 0 138 118 0 137 120 0 135 122 0 133 124 0 131 125 0 130 126 0 129 126 0 129 126 0 129 125 0 130 125 0 130 124 0 131 124 0 131 125 0 130 126 0 129 126 0 129 127 0 128 127 0 128 127 0 128 128 0 127 129 0 126 131 0 124 132 0 123 133 0 122 134 0 121 134 0 121 134 0 121 133 0 122 131 0 124 128 0 127 126 0 129 124 0 131 122 0 133 121 0 134 120 0 135 119 0 136 119 0 136 118 0 137 118 0 137 118 0 137 118 0 137 119 0 136 119 0 136 118 0 137 118 0 137 117 0 138 117 0 138 117 0 138 118 0 137 119 0 136 120 0 135 121 0 134 121 0 134 121 0 134 122 0 133 121 0 134 121 0 134 120 0 135 119 0 136 118 0 137 117 0 138 116 0 139 116 0 139 117 0 138 119 0 136 121 0 134 124 0 131 126 0 129 128 0 127 129 0 126 130 0 125 130 0 125 129 0 126 128 0 127 127 0 128 126 0 129 124 0 131 123 0 132 120 0 135 114 0 141 99 0 156 51 0 204 
64 0 191 103 0 152 114 0 141 118 0 137 120 0 135 122 0 133 122 0 133 123 0 132 123 0 132 124 0 131 124 0 131 124 0 131 125 0 130 125 0 130 125 0 130 125 0 130 124 0 131 125 0 130 125 0 130 126 0 129 128 0 127 129 0 126 130 0 125 130 0 125 130 0 125 129 0 126 128 0 127 128 0 127 127 0 128 127 0 128 128 0 127 128 0 127 128 0 127 128 0 127 128 0 127 127 0 128 126 0 129 126 0 129 126 0 129 126 0 129 127 0 128 128 0 127 129 0 126 130 0 125 130 0 125 130 0 125 129 0 126 129 0 126 129 0 126 128 0 127 128 0 127 128 0 127 128 0 127 127 0 128 127 0 128 126 0 129 124 0 131 123 0 132 122 0 133 121 0 134 120 0 135 121 0 134 122 0 133 123 0 132 125 0 130 126 0 129 126 0 129 126 0 129 126 0 129 126 0 129 126 0 129 126 0 129 125 0 130 124 0 131 124 0 131 123 0 132 123 0 132 122 0 133 121 0 134 120 0 135 119 0 136 118 0 137 117 0 138 117 0 138 117 0 138 118 0 137 119 0 136 119 0 136 120 0 135 120 0 135 120 0 135 120 0 135 120 0 135 120 0 135 121 0 134 123 0 132 125 0 130 127 0 128 129 0 126 131 0 124 132 0 123 133 0 122 133 0 122 133 0 122 132 0 123 131 0 124 129 0 126 127 0 128 125 0 130 123 0 132 121 0 134 120 0 135 118 0 137 117 0 138 116 0 139 116 0 139 115 0 140 116 0 139 116 0 139 118 0 137 120 0 135 122 0 133 123 0 132 125 0 130 126 0 129 126 0 129 126 0 129 125 0 130 124 0 131 124 0 131 124 0 131 125 0 130 126 0 129 127 0 128 128 0 127 128 0 127 129 0 126 129 0 126 130 0 125 131 0 124 132 0 123 133 0 122 134 0 121 134 0 121 134 0 121 132 0 123 130 0 125 127 0 128 124 0 131 121 0 134 119 0 136 117 0 138 116 0 139 115 0 140 115 0 140 115 0 140 115 0 140 115 0 140 115 0 140 115 0 140 115 0 140 115 0 140 114 0 141 113 0 142 113 0 142 113 0 142 114 0 141 115 0 140 116 0 139 116 0 139 117 0 138 118 0 137 118 0 137 118 0 137 117 0 138 117 0 138 116 0 139 115 0 140 114 0 141 113 0 142 113 0 142 114 0 141 115 0 140 117 0 138 119 0 136 122 0 133 123 0 132 125 0 130 125 0 130 125 0 130 124 0 131 123 0 132 122 0 133 121 0 134 121 0 134 120 0 135 121 0 134 124 0 131 134 0 121 171 0 84 
107 0 148 106 0 149 111 0 144 116 0 139 119 0 136 121 0 134 122 0 133 123 0 132 124 0 131 124 0 131 124 0 131 124 0 131 125 0 130 125 0 130 125 0 130 125 0 130 125 0 130 125 0 130 126 0 129 127 0 128 128 0 127 129 0 126 130 0 125 130 0 125 130 0 125 129 0 126 129 0 126 128 0 127 128 0 127 128 0 127 129 0 126 129 0 126 129 0 126 128 0 127 128 0 127 127 0 128 126 0 129 126 0 129 126 0 129 126 0 129 127 0 128 128 0 127 128 0 127 129 0 126 129 0 126 129 0 126 129 0 126 129 0 126 129 0 126 129 0 126 129 0 126 129 0 126 129 0 126 129 0 126 129 0 126 128 0 127 127 0 128 125 0 130 124 0 131 123 0 132 123 0 132 123 0 132 124 0 131 125 0 130 126 0 129 127 0 128 127 0 128 128 0 127 128 0 127 128 0 127 128 0 127 127 0 128 127 0 128 127 0 128 126 0 129 125 0 130 124 0 131 123 0 132 122 0 133 121 0 134 119 0 136 118 0 137 117 0 138 116 0 139 116 0 139 116 0 139 117 0 138 118 0 137 119 0 136 120 0 135 120 0 135 120 0 135 120 0 135 121 0 134 122 0 133 123 0 132 125 0 130 127 0 128 129 0 126 131 0 124 132 0 123 132 0 123 133 0 122 132 0 123 132 0 123 131 0 124 129 0 126 127 0 128 125 0 130 123 0 132 121 0 134 120 0 135 119 0 136 117 0 138 116 0 139 116 0 139 116 0 139 116 0 139 117 0 138 118 0 137 120 0 135 121 0 134 123 0 132 125 0 130 125 0 130 126 0 129 125 0 130 125 0 130 124 0 131 124 0 131 125 0 130 126 0 129 127 0 128 128 0 127 129 0 126 129 0 126 130 0 125 130 0 125 131 0 124 132 0 123 132 0 123 133 0 122 133 0 122 133 0 122 133 0 122 131 0 124 129 0 126 125 0 130 122 0 133 118 0 137 114 0 141 112 0 143 110 0 145 109 0 146 109 0 146 109 0 146 109 0 146 109 0 146 109 0 146 109 0 146 109 0 146 108 0 147 108 0 147 107 0 148 107 0 148 107 0 148 107 0 148 108 0 147 109 0 146 110 0 145 110 0 145 111 0 144 111 0 144 111 0 144 111 0 144 110 0 145 110 0 145 109 0 146 108 0 147 107 0 148 107 0 148 107 0 148 108 0 147 110 0 145 112 0 143 114 0 141 115 0 140 116 0 139 117 0 138 117 0 138 116 0 139 115 0 140 114 0 141 113 0 142 113 0 142 115 0 140 117 0 138 123 0 132 140 0 115 192 0 63 
94 0 161 103 0 152 109 0 146 115 0 140 118 0 137 121 0 134 123 0 132 123 0 132 124 0 131 124 0 131 124 0 131 125 0 130 125 0 130 125 0 130 125 0 130 126 0 129 126 0 129 126 0 129 127 0 128 128 0 127 129 0 126 129 0 126 130 0 125 130 0 125 130 0 125 129 0 126 129 0 126 129 0 126 129 0 126 129 0 126 129 0 126 129 0 126 129 0 126 129 0 126 128 0 127 127 0 128 126 0 129 126 0 129 126 0 129 126 0 129 127 0 128 127 0 128 127 0 128 127 0 128 127 0 128 128 0 127 128 0 127 128 0 127 129 0 126 130 0 125 130 0 125 131 0 124 131 0 124 131 0 124 131 0 124 130 0 125 129 0 126 128 0 127 127 0 128 126 0 129 126 0 129 126 0 129 126 0 129 127 0 128 128 0 127 128 0 127 129 0 126 129 0 126 129 0 126 129 0 126 129 0 126 129 0 126 129 0 126 128 0 127 128 0 127 127 0 128 125 0 130 124 0 131 123 0 132 121 0 134 120 0 135 118 0 137 117 0 138 116 0 139 116 0 139 116 0 139 117 0 138 118 0 137 118 0 137 119 0 136 119 0 136 120 0 135 120 0 135 121 0 134 122 0 133 124 0 131 125 0 130 127 0 128 129 0 126 130 0 125 131 0 124 131 0 124 132 0 123 132 0 123 131 0 124 130 0 125 129 0 126 127 0 128 125 0 130 123 0 132 122 0 133 120 0 135 119 0 136 118 0 137 117 0 138 117 0 138 117 0 138 117 0 138 118 0 137 119 0 136 120 0 135 121 0 134 123 0 132 124 0 131 125 0 130 125 0 130 125 0 130 124 0 131 124 0 131 124 0 131 125 0 130 126 0 129 127 0 128 128 0 127 129 0 126 130 0 125 130 0 125 131 0 124 131 0 124 131 0 124 132 0 123 132 0 123 132 0 123 132 0 123 131 0 124 129 0 126 127 0 128 123 0 132 118 0 137 113 0 142 108 0 147 104 0 151 101 0 154 99 0 156 99 0 156 99 0 156 99 0 156 99 0 156 99 0 156 99 0 156 98 0 157 98 0 157 97 0 158 96 0 159 96 0 159 96 0 159 96 0 159 97 0 158 98 0 157 99 0 156 99 0 156 100 0 155 100 0 155 100 0 155 100 0 155 100 0 155 99 0 156 98 0 157 97 0 158 97 0 158 96 0 159 97 0 158 98 0 157 99 0 156 100 0 155 102 0 153 103 0 152 104 0 151 104 0 151 104 0 151 103 0 152 102 0 153 101 0 154 101 0 154 102 0 153 103 0 152 106 0 149 109 0 146 110 0 145 88 0 167 
94 0 161 101 0 154 109 0 146 115 0 140 119 0 136 121 0 134 123 0 132 124 0 131 124 0 131 125 0 130 125 0 130 125 0 130 125 0 130 125 0 130 126 0 129 126 0 129 126 0 129 127 0 128 127 0 128 128 0 127 129 0 126 129 0 126 130 0 125 130 0 125 129 0 126 129 0 126 129 0 126 129 0 126 130 0 125 130 0 125 130 0 125 130 0 125 129 0 126 129 0 126 128 0 127 127 0 128 127 0 128 126 0 129 126 0 129 126 0 129 126 0 129 126 0 129 126 0 129 126 0 129 126 0 129 127 0 128 127 0 128 128 0 127 129 0 126 131 0 124 132 0 123 133 0 122 133 0 122 133 0 122 133 0 122 133 0 122 132 0 123 131 0 124 130 0 125 129 0 126 128 0 127 128 0 127 128 0 127 129 0 126 129 0 126 130 0 125 130 0 125 130 0 125 130 0 125 130 0 125 130 0 125 130 0 125 129 0 126 129 0 126 129 0 126 128 0 127 126 0 129 125 0 130 124 0 131 122 0 133 120 0 135 119 0 136 117 0 138 116 0 139 116 0 139 116 0 139 116 0 139 117 0 138 118 0 137 118 0 137 119 0 136 119 0 136 120 0 135 121 0 134 122 0 133 123 0 132 125 0 130 126 0 129 127 0 128 128 0 127 129 0 126 130 0 125 130 0 125 130 0 125 130 0 125 130 0 125 128 0 127 127 0 128 125 0 130 123 0 132 122 0 133 120 0 135 119 0 136 119 0 136 118 0 137 118 0 137 118 0 137 119 0 136 119 0 136 120 0 135 121 0 134 122 0 133 123 0 132 123 0 132 124 0 131 124 0 131 124 0 131 123 0 132 123 0 132 124 0 131 125 0 130 126 0 129 127 0 128 128 0 127 129 0 126 130 0 125 130 0 125 130 0 125 130 0 125 130 0 125 130 0 125 130 0 125 130 0 125 130 0 125 129 0 126 127 0 128 125 0 130 120 0 135 114 0 141 107 0 148 99 0 156 91 0 164 87 0 168 84 0 171 83 0 172 83 0 172 83 0 172 83 0 172 83 0 172 83 0 172 82 0 173 82 0 173 81 0 174 80 0 175 80 0 175 80 0 175 80 0 175 81 0 174 82 0 173 82 0 173 83 0 172 83 0 172 83 0 172 83 0 172 83 0 172 83 0 172 82 0 173 82 0 173 81 0 174 81 0 174 80 0 175 80 0 175 81 0 174 82 0 173 83 0 172 84 0 171 85 0 170 86 0 169 86 0 169 86 0 169 85 0 170 84 0 171 84 0 171 84 0 171 84 0 171 86 0 169 89 0 166 94 0 161 101 0 154 113 0 142 
73 0 182 98 0 157 109 0 146 115 0 140 119 0 136 122 0 133 124 0 131 124 0 131 125 0 130 125 0 130 125 0 130 125 0 130 125 0 130 126 0 129 126 0 129 126 0 129 127 0 128 127 0 128 127 0 128 128 0 127 128 0 127 129 0 126 129 0 126 129 0 126 129 0 126 129 0 126 129 0 126 129 0 126 130 0 125 130 0 125 130 0 125 130 0 125 130 0 125 129 0 126 129 0 126 128 0 127 127 0 128 126 0 129 126 0 129 126 0 129 125 0 130 125 0 130 125 0 130 125 0 130 125 0 130 126 0 129 127 0 128 128 0 127 129 0 126 131 0 124 132 0 123 134 0 121 134 0 121 135 0 120 135 0 120 135 0 120 134 0 121 134 0 121 133 0 122 132 0 123 131 0 124 130 0 125 130 0 125 130 0 125 130 0 125 130 0 125 130 0 125 130 0 125 130 0 125 130 0 125 130 0 125 129 0 126 129 0 126 129 0 126 129 0 126 128 0 127 127 0 128 126 0 129 124 0 131 123 0 132 121 0 134 120 0 135 118 0 137 117 0 138 117 0 138 117 0 138 117 0 138 117 0 138 118 0 137 118 0 137 119 0 136 119 0 136 119 0 136 120 0 135 121 0 134 122 0 133 123 0 132 125 0 130 126 0 129 127 0 128 127 0 128 128 0 127 129 0 126 129 0 126 129 0 126 129 0 126 128 0 127 127 0 128 125 0 130 124 0 131 122 0 133 121 0 134 121 0 134 120 0 135 120 0 135 120 0 135 120 0 135 121 0 134 121 0 134 122 0 133 122 0 133 123 0 132 123 0 132 123 0 132 123 0 132 123 0 132 123 0 132 123 0 132 123 0 132 124 0 131 125 0 130 126 0 129 127 0 128 128 0 127 128 0 127 129 0 126 129 0 126 129 0 126 129 0 126 129 0 126 128 0 127 128 0 127 128 0 127 128 0 127 127 0 128 125 0 130 122 0 133 117 0 138 109 0 146 98 0 157 85 0 170 73 0 182 66 0 189 62 0 193 61 0 194 61 0 194 61 0 194 61 0 194 60 0 195 60 0 195 60 0 195 59 0 196 59 0 196 58 0 197 58 0 197 58 0 197 58 0 197 59 0 196 59 0 196 59 0 196 60 0 195 60 0 195 60 0 195 60 0 195 60 0 195 60 0 195 60 0 195 59 0 196 59 0 196 59 0 196 58 0 197 58 0 197 59 0 196 59 0 196 60 0 195 61 0 194 61 0 194 62 0 193 62 0 193 61 0 194 61 0 194 60 0 195 60 0 195 60 0 195 61 0 194 63 0 192 66 0 189 72 0 183 84 0 171 111 0 144 
115 0 140 109 0 146 113 0 142 117 0 138 121 0 134 123 0 132 124 0 131 125 0 130 125 0 130 125 0 130 125 0 130 125 0 130 126 0 129 126 0 129 126 0 129 126 0 129 126 0 129 127 0 128 127 0 128 127 0 128 128 0 127 128 0 127 129 0 126 129 0 126 129 0 126 129 0 126 129 0 126 129 0 126 130 0 125 130 0 125 131 0 124 131 0 124 131 0 124 130 0 125 129 0 126 128 0 127 127 0 128 127 0 128 126 0 129 125 0 130 125 0 130 124 0 131 124 0 131 124 0 131 124 0 131 125 0 130 126 0 129 128 0 127 129 0 126 131 0 124 133 0 122 134 0 121 135 0 120 136 0 119 136 0 119 136 0 119 136 0 119 135 0 120 134 0 121 133 0 122 133 0 122 132 0 123 131 0 124 131 0 124 131 0 124 131 0 124 130 0 125 130 0 125 130 0 125 129 0 126 129 0 126 129 0 126 129 0 126 129 0 126 129 0 126 128 0 127 127 0 128 126 0 129 125 0 130 124 0 131 122 0 133 121 0 134 120 0 135 119 0 136 118 0 137 118 0 137 118 0 137 118 0 137 118 0 137 118 0 137 118 0 137 119 0 136 119 0 136 120 0 135 121 0 134 121 0 134 122 0 133 123 0 132 124 0 131 125 0 130 126 0 129 126 0 129 127 0 128 128 0 127 128 0 127 128 0 127 127 0 128 126 0 129 125 0 130 124 0 131 123 0 132 123 0 132 122 0 133 122 0 133 122 0 133 123 0 132 123 0 132 123 0 132 124 0 131 124 0 131 124 0 131 123 0 132 123 0 132 123 0 132 122 0 133 122 0 133 122 0 133 123 0 132 123 0 132 124 0 131 125 0 130 126 0 129 127 0 128 127 0 128 127 0 128 127 0 128 127 0 128 127 0 128 127 0 128 126 0 129 126 0 129 126 0 129 126 0 129 126 0 129 125 0 130 123 0 132 120 0 135 113 0 142 102 0 153 87 0 168 67 0 188 45 0 210 37 0 218 34 0 221 33 0 222 32 0 223 32 0 223 32 0 223 32 0 223 32 0 223 32 0 223 31 0 224 31 0 224 31 0 224 31 0 224 31 0 224 31 0 224 31 0 224 31 0 224 31 0 224 32 0 223 32 0 223 32 0 223 32 0 223 32 0 223 32 0 223 32 0 223 31 0 224 31 0 224 31 0 224 31 0 224 31 0 224 31 0 224 31 0 224 32 0 223 32 0 223 32 0 223 32 0 223 32 0 223 32 0 223 32 0 223 32 0 223 32 0 223 32 0 223 32 0 223 33 0 222 36 0 219 41 0 214 53 0 202 81 0 174 
119 0 136 110 0 145 114 0 141 119 0 136 122 0 133 124 0 131 124 0 131 125 0 130 125 0 130 125 0 130 125 0 130 125 0 130 126 0 129 126 0 129 126 0 129 126 0 129 126 0 129 126 0 129 126 0 129 126 0 129 127 0 128 128 0 127 128 0 127 128 0 127 129 0 126 129 0 126 129 0 126 129 0 126 130 0 125 130 0 125 131 0 124 131 0 124 131 0 124 131 0 124 130 0 125 129 0 126 128 0 127 127 0 128 126 0 129 125 0 130 124 0 131 124 0 131 124 0 131 124 0 131 124 0 131 125 0 130 126 0 129 127 0 128 129 0 126 131 0 124 132 0 123 134 0 121 135 0 120 136 0 119 136 0 119 136 0 119 136 0 119 136 0 119 135 0 120 134 0 121 133 0 122 132 0 123 132 0 123 131 0 124 131 0 124 130 0 125 130 0 125 129 0 126 129 0 126 128 0 127 128 0 127 128 0 127 128 0 127 128 0 127 128 0 127 128 0 127 127 0 128 127 0 128 126 0 129 125 0 130 123 0 132 122 0 133 121 0 134 120 0 135 119 0 136 119 0 136 118 0 137 118 0 137 118 0 137 118 0 137 118 0 137 118 0 137 119 0 136 119 0 136 120 0 135 121 0 134 121 0 134 122 0 133 123 0 132 124 0 131 125 0 130 125 0 130 126 0 129 126 0 129 127 0 128 127 0 128 127 0 128 126 0 129 126 0 129 125 0 130 125 0 130 125 0 130 125 0 130 125 0 130 125 0 130 125 0 130 126 0 129 126 0 129 126 0 129 126 0 129 125 0 130 125 0 130 124 0 131 123 0 132 123 0 132 122 0 133 123 0 132 123 0 132 124 0 131 124 0 131 125 0 130 126 0 129 126 0 129 126 0 129 126 0 129 126 0 129 125 0 130 125 0 130 125 0 130 124 0 131 124 0 131 124 0 131 124 0 131 124 0 131 123 0 132 122 0 133 117 0 138 110 0 145 96 0 159 76 0 179 47 0 208 2 0 253 0 0 255 0 0 255 0 0 255 0 0 255 0 0 255 0 0 255 0 0 255 0 0 255 0 0 255 0 0 255 0 0 255 0 0 255 0 0 255 0 0 255 0 0 255 0 0 255 0 0 255 0 0 255 0 0 255 0 0 255 0 0 255 0 0 255 0 0 255 0 0 255 0 0 255 0 0 255 0 0 255 0 0 255 0 0 255 0 0 255 0 0 255 0 0 255 0 0 255 0 0 255 0 0 255 0 0 255 0 0 255 0 0 255 0 0 255 0 0 255 0 0 255 0 0 255 0 0 255 0 0 255 0 0 255 1 0 254 4 0 251 124 0 131 
39 0 216 98 0 157 115 0 140 121 0 134 124 0 131 124 0 131 124 0 131 124 0 131 124 0 131 124 0 131 124 0 131 125 0 130 125 0 130 126 0 129 126 0 129 126 0 129 125 0 130 125 0 130 125 0 130 125 0 130 126 0 129 126 0 129 127 0 128 128 0 127 128 0 127 128 0 127 128 0 127 128 0 127 129 0 126 130 0 125 130 0 125 131 0 124 131 0 124 131 0 124 130 0 125 129 0 126 128 0 127 127 0 128 126 0 129 125 0 130 124 0 131 124 0 131 124 0 131 124 0 131 124 0 131 125 0 130 126 0 129 127 0 128 128 0 127 130 0 125 132 0 123 133 0 122 134 0 121 135 0 120 136 0 119 136 0 119 136 0 119 135 0 120 134 0 121 133 0 122 133 0 122 132 0 123 131 0 124 131 0 124 130 0 125 130 0 125 129 0 126 129 0 126 128 0 127 127 0 128 127 0 128 127 0 128 127 0 128 127 0 128 127 0 128 127 0 128 127 0 128 127 0 128 126 0 129 125 0 130 124 0 131 123 0 132 122 0 133 121 0 134 120 0 135 119 0 136 119 0 136 119 0 136 118 0 137 118 0 137 118 0 137 118 0 137 118 0 137 119 0 136 120 0 135 120 0 135 121 0 134 122 0 133 123 0 132 123 0 132 124 0 131 125 0 130 125 0 130 126 0 129 126 0 129 126 0 129 126 0 129 126 0 129 126 0 129 127 0 128 127 0 128 127 0 128 127 0 128 128 0 127 128 0 127 128 0 127 128 0 127 128 0 127 128 0 127 128 0 127 127 0 128 126 0 129 125 0 130 124 0 131 123 0 132 123 0 132 123 0 132 124 0 131 124 0 131 125 0 130 126 0 129 126 0 129 126 0 129 125 0 130 125 0 130 124 0 131 123 0 132 123 0 132 122 0 133 122 0 133 122 0 133 122 0 133 122 0 133 122 0 133 121 0 134 120 0 135 115 0 140 107 0 148 92 0 163 70 0 185 39 0 216 0 0 255 0 0 255 0 0 255 0 0 255 0 0 255 0 0 255 0 0 255 0 0 255 0 0 255 0 0 255 0 0 255 0 0 255 0 0 255 0 0 255 0 0 255 0 0 255 0 0 255 0 0 255 0 0 255 0 0 255 0 0 255 0 0 255 0 0 255 0 0 255 0 0 255 0 0 255 0 0 255 0 0 255 0 0 255 0 0 255 0 0 255 0 0 255 0 0 255 0 0 255 0 0 255 0 0 255 0 0 255 0 0 255 0 0 255 0 0 255 0 0 255 0 0 255 0 0 255 0 0 255 0 0 255 0 0 255 0 0 255 3 0 252 145 0 110 
129 0 126 126 0 129 126 0 129 126 0 129 126 0 129 125 0 130 124 0 131 124 0 131 123 0 132 123 0 132 123 0 132 124 0 131 125 0 130 126 0 129 126 0 129 126 0 129 125 0 130 124 0 131 124 0 131 124 0 131 124 0 131 125 0 130 126 0 129 126 0 129 127 0 128 127 0 128 127 0 128 128 0 127 128 0 127 129 0 126 129 0 126 130 0 125 131 0 124 131 0 124 130 0 125 129 0 126 128 0 127 127 0 128 126 0 129 125 0 130 125 0 130 124 0 131 124 0 131 124 0 131 125 0 130 125 0 130 126 0 129 127 0 128 128 0 127 129 0 126 130 0 125 132 0 123 133 0 122 134 0 121 134 0 121 134 0 121 134 0 121 134 0 121 133 0 122 132 0 123 131 0 124 131 0 124 130 0 125 130 0 125 129 0 126 129 0 126 129 0 126 128 0 127 127 0 128 127 0 128 126 0 129 126 0 129 126 0 129 126 0 129 126 0 129 127 0 128 127 0 128 126 0 129 126 0 129 125 0 130 124 0 131 123 0 132 122 0 133 121 0 134 121 0 134 120 0 135 120 0 135 119 0 136 119 0 136 118 0 137 118 0 137 118 0 137 118 0 137 119 0 136 120 0 135 120 0 135 121 0 134 122 0 133 123 0 132 124 0 131 124 0 131 125 0 130 125 0 130 126 0 129 126 0 129 126 0 129 126 0 129 127 0 128 127 0 128 128 0 127 129 0 126 129 0 126 130 0 125 130 0 125 130 0 125 130 0 125 130 0 125 130 0 125 130 0 125 129 0 126 128 0 127 127 0 128 126 0 129 125 0 130 124 0 131 124 0 131 124 0 131 125 0 130 125 0 130 126 0 129 126 0 129 126 0 129 126 0 129 125 0 130 124 0 131 123 0 132 122 0 133 121 0 134 121 0 134 120 0 135 120 0 135 120 0 135 120 0 135 120 0 135 120 0 135 118 0 137 113 0 142 104 0 151 89 0 166 66 0 189 36 0 219 0 0 255 0 0 255 0 0 255 0 0 255 0 0 255 0 0 255 0 0 255 0 0 255 0 0 255 0 0 255 0 0 255 0 0 255 0 0 255 0 0 255 0 0 255 0 0 255 0 0 255 0 0 255 0 0 255 0 0 255 0 0 255 0 0 255 0 0 255 0 0 255 0 0 255 0 0 255 0 0 255 0 0 255 0 0 255 0 0 255 0 0 255 0 0 255 0 0 255 0 0 255 0 0 255 0 0 255 0 0 255 0 0 255 0 0 255 0 0 255 0 0 255 0 0 255 0 0 255 0 0 255 0 0 255 0 0 255 0 0 255 1 0 254 69 0 186 
191 0 64 150 0 105 137 0 118 131 0 124 128 0 127 126 0 129 124 0 131 123 0 132 122 0 133 122 0 133 122 0 133 124 0 131 125 0 130 125 0 130 126 0 129 126 0 129 125 0 130 124 0 131 123 0 132 123 0 132 123 0 132 123 0 132 124 0 131 125 0 130 125 0 130 126 0 129 126 0 129 126 0 129 127 0 128 127 0 128 128 0 127 129 0 126 129 0 126 130 0 125 129 0 126 129 0 126 128 0 127 127 0 128 126 0 129 126 0 129 125 0 130 125 0 130 125 0 130 125 0 130 125 0 130 125 0 130 126 0 129 126 0 129 127 0 128 128 0 127 129 0 126 130 0 125 131 0 124 132 0 123 132 0 123 133 0 122 132 0 123 132 0 123 131 0 124 130 0 125 130 0 125 130 0 125 129 0 126 129 0 126 129 0 126 129 0 126 128 0 127 128 0 127 127 0 128 126 0 129 126 0 129 126 0 129 126 0 129 126 0 129 126 0 129 126 0 129 126 0 129 126 0 129 126 0 129 125 0 130 124 0 131 123 0 132 122 0 133 122 0 133 121 0 134 121 0 134 120 0 135 120 0 135 119 0 136 118 0 137 118 0 137 118 0 137 119 0 136 119 0 136 120 0 135 120 0 135 121 0 134 122 0 133 123 0 132 124 0 131 125 0 130 126 0 129 126 0 129 126 0 129 126 0 129 127 0 128 127 0 128 127 0 128 128 0 127 129 0 126 130 0 125 131 0 124 132 0 123 132 0 123 132 0 123 132 0 123 132 0 123 132 0 123 131 0 124 130 0 125 129 0 126 128 0 127 127 0 128 126 0 129 125 0 130 125 0 130 126 0 129 126 0 129 127 0 128 127 0 128 127 0 128 127 0 128 126 0 129 125 0 130 124 0 131 122 0 133 121 0 134 120 0 135 120 0 135 119 0 136 119 0 136 118 0 137 118 0 137 118 0 137 118 0 137 116 0 139 111 0 144 102 0 153 87 0 168 64 0 191 34 0 221 0 0 255 0 0 255 0 0 255 0 0 255 0 0 255 0 0 255 0 0 255 0 0 255 0 0 255 0 0 255 0 0 255 0 0 255 0 0 255 0 0 255 0 0 255 0 0 255 0 0 255 0 0 255 0 0 255 0 0 255 0 0 255 0 0 255 0 0 255 0 0 255 0 0 255 0 0 255 0 0 255 0 0 255 0 0 255 0 0 255 0 0 255 0 0 255 0 0 255 0 0 255 0 0 255 0 0 255 0 0 255 0 0 255 0 0 255 0 0 255 0 0 255 0 0 255 0 0 255 0 0 255 0 0 255 0 0 255 0 0 255 2 0 253 91 0 164 
160 0 95 148 0 107 140 0 115 134 0 121 130 0 125 126 0 129 124 0 131 122 0 133 121 0 134 121 0 134 121 0 134 123 0 132 124 0 131 125 0 130 126 0 129 126 0 129 125 0 130 124 0 131 122 0 133 122 0 133 121 0 134 121 0 134 122 0 133 123 0 132 124 0 131 125 0 130 125 0 130 125 0 130 126 0 129 126 0 129 127 0 128 127 0 128 128 0 127 128 0 127 128 0 127 128 0 127 127 0 128 127 0 128 126 0 129 126 0 129 126 0 129 126 0 129 126 0 129 126 0 129 126 0 129 126 0 129 126 0 129 126 0 129 126 0 129 127 0 128 127 0 128 128 0 127 129 0 126 129 0 126 130 0 125 130 0 125 130 0 125 130 0 125 129 0 126 128 0 127 128 0 127 128 0 127 128 0 127 128 0 127 128 0 127 128 0 127 128 0 127 128 0 127 127 0 128 127 0 128 126 0 129 126 0 129 126 0 129 126 0 129 126 0 129 126 0 129 126 0 129 126 0 129 125 0 130 125 0 130 124 0 131 123 0 132 123 0 132 122 0 133 122 0 133 121 0 134 121 0 134 120 0 135 120 0 135 119 0 136 119 0 136 119 0 136 119 0 136 119 0 136 120 0 135 121 0 134 121 0 134 123 0 132 124 0 131 125 0 130 126 0 129 126 0 129 127 0 128 127 0 128 127 0 128 127 0 128 127 0 128 127 0 128 128 0 127 129 0 126 130 0 125 132 0 123 133 0 122 133 0 122 133 0 122 133 0 122 133 0 122 133 0 122 132 0 123 132 0 123 130 0 125 129 0 126 128 0 127 127 0 128 127 0 128 126 0 129 127 0 128 127 0 128 128 0 127 128 0 127 128 0 127 128 0 127 127 0 128 126 0 129 124 0 131 123 0 132 121 0 134 120 0 135 119 0 136 118 0 137 118 0 137 117 0 138 117 0 138 117 0 138 116 0 139 114 0 141 110 0 145 100 0 155 85 0 170 62 0 193 33 0 222 0 0 255 0 0 255 0 0 255 0 0 255 0 0 255 0 0 255 0 0 255 0 0 255 0 0 255 0 0 255 0 0 255 0 0 255 0 0 255 0 0 255 0 0 255 0 0 255 0 0 255 0 0 255 0 0 255 0 0 255 0 0 255 0 0 255 0 0 255 0 0 255 0 0 255 0 0 255 0 0 255 0 0 255 0 0 255 0 0 255 0 0 255 0 0 255 0 0 255 0 0 255 0 0 255 0 0 255 0 0 255 0 0 255 0 0 255 0 0 255 0 0 255 0 0 255 0 0 255 0 0 255 0 0 255 0 0 255 0 0 255 5 0 250 219 0 36 
129 0 126 142 0 113 140 0 115 136 0 119 131 0 124 127 0 128 124 0 131 121 0 134 120 0 135 120 0 135 121 0 134 122 0 133 124 0 131 125 0 130 126 0 129 126 0 129 125 0 130 123 0 132 122 0 133 121 0 134 120 0 135 120 0 135 121 0 134 122 0 133 123 0 132 124 0 131 124 0 131 125 0 130 125 0 130 125 0 130 126 0 129 126 0 129 126 0 129 127 0 128 127 0 128 127 0 128 126 0 129 126 0 129 126 0 129 127 0 128 127 0 128 128 0 127 127 0 128 127 0 128 126 0 129 126 0 129 126 0 129 126 0 129 125 0 130 125 0 130 126 0 129 126 0 129 126 0 129 127 0 128 128 0 127 128 0 127 128 0 127 127 0 128 127 0 128 126 0 129 126 0 129 126 0 129 127 0 128 127 0 128 128 0 127 128 0 127 128 0 127 128 0 127 127 0 128 127 0 128 127 0 128 127 0 128 127 0 128 127 0 128 127 0 128 126 0 129 126 0 129 126 0 129 125 0 130 125 0 130 124 0 131 123 0 132 123 0 132 123 0 132 122 0 133 122 0 133 122 0 133 121 0 134 121 0 134 120 0 135 119 0 136 119 0 136 119 0 136 119 0 136 120 0 135 120 0 135 122 0 133 123 0 132 124 0 131 125 0 130 126 0 129 127 0 128 127 0 128 127 0 128 127 0 128 127 0 128 127 0 128 127 0 128 128 0 127 129 0 126 130 0 125 131 0 124 132 0 123 133 0 122 134 0 121 134 0 121 134 0 121 134 0 121 133 0 122 132 0 123 131 0 124 130 0 125 129 0 126 128 0 127 127 0 128 127 0 128 128 0 127 128 0 127 129 0 126 129 0 126 129 0 126 129 0 126 128 0 127 127 0 128 125 0 130 124 0 131 122 0 133 120 0 135 119 0 136 118 0 137 117 0 138 116 0 139 116 0 139 115 0 140 115 0 140 113 0 142 108 0 147 99 0 156 84 0 171 61 0 194 33 0 222 0 0 255 0 0 255 0 0 255 0 0 255 0 0 255 0 0 255 0 0 255 0 0 255 0 0 255 0 0 255 0 0 255 0 0 255 0 0 255 0 0 255 0 0 255 0 0 255 0 0 255 0 0 255 0 0 255 0 0 255 0 0 255 0 0 255 0 0 255 0 0 255 0 0 255 0 0 255 0 0 255 0 0 255 0 0 255 0 0 255 0 0 255 0 0 255 0 0 255 0 0 255 0 0 255 0 0 255 0 0 255 0 0 255 0 0 255 0 0 255 0 0 255 0 0 255 0 0 255 0 0 255 0 0 255 0 0 255 0 0 255 3 0 252 158 0 97 
157 0 98 151 0 104 144 0 111 138 0 117 132 0 123 127 0 128 123 0 132 121 0 134 119 0 136 119 0 136 120 0 135 122 0 133 124 0 131 125 0 130 126 0 129 126 0 129 125 0 130 123 0 132 122 0 133 120 0 135 119 0 136 119 0 136 120 0 135 121 0 134 122 0 133 123 0 132 124 0 131 124 0 131 124 0 131 124 0 131 125 0 130 125 0 130 125 0 130 126 0 129 126 0 129 126 0 129 126 0 129 126 0 129 127 0 128 128 0 127 129 0 126 129 0 126 129 0 126 128 0 127 127 0 128 126 0 129 126 0 129 125 0 130 124 0 131 124 0 131 124 0 131 124 0 131 124 0 131 125 0 130 125 0 130 125 0 130 125 0 130 125 0 130 125 0 130 124 0 131 125 0 130 125 0 130 126 0 129 126 0 129 127 0 128 127 0 128 128 0 127 128 0 127 128 0 127 128 0 127 128 0 127 127 0 128 128 0 127 127 0 128 127 0 128 127 0 128 126 0 129 126 0 129 125 0 130 125 0 130 124 0 131 124 0 131 124 0 131 124 0 131 123 0 132 123 0 132 123 0 132 123 0 132 122 0 133 121 0 134 120 0 135 120 0 135 119 0 136 119 0 136 120 0 135 120 0 135 121 0 134 123 0 132 124 0 131 125 0 130 126 0 129 127 0 128 127 0 128 127 0 128 127 0 128 126 0 129 126 0 129 126 0 129 127 0 128 128 0 127 129 0 126 130 0 125 132 0 123 133 0 122 134 0 121 134 0 121 135 0 120 134 0 121 134 0 121 133 0 122 132 0 123 131 0 124 130 0 125 129 0 126 128 0 127 128 0 127 129 0 126 129 0 126 130 0 125 130 0 125 130 0 125 130 0 125 129 0 126 128 0 127 126 0 129 125 0 130 123 0 132 121 0 134 119 0 136 118 0 137 117 0 138 116 0 139 115 0 140 114 0 141 114 0 141 112 0 143 107 0 148 98 0 157 83 0 172 61 0 194 32 0 223 0 0 255 0 0 255 0 0 255 0 0 255 0 0 255 0 0 255 0 0 255 0 0 255 0 0 255 0 0 255 0 0 255 0 0 255 0 0 255 0 0 255 0 0 255 0 0 255 0 0 255 0 0 255 0 0 255 0 0 255 0 0 255 0 0 255 0 0 255 0 0 255 0 0 255 0 0 255 0 0 255 0 0 255 0 0 255 0 0 255 0 0 255 0 0 255 0 0 255 0 0 255 0 0 255 0 0 255 0 0 255 0 0 255 0 0 255 0 0 255 0 0 255 0 0 255 0 0 255 0 0 255 0 0 255 0 0 255 0 0 255 1 0 254 56 0 199 
170 0 85 162 0 93 149 0 106 139 0 116 132 0 123 127 0 128 123 0 132 121 0 134 119 0 136 119 0 136 120 0 135 121 0 134 123 0 132 125 0 130 126 0 129 126 0 129 125 0 130 123 0 132 122 0 133 120 0 135 119 0 136 119 0 136 119 0 136 120 0 135 121 0 134 122 0 133 123 0 132 124 0 131 124 0 131 124 0 131 124 0 131 124 0 131 125 0 130 125 0 130 125 0 130 125 0 130 126 0 129 127 0 128 128 0 127 129 0 126 130 0 125 130 0 125 130 0 125 129 0 126 128 0 127 127 0 128 126 0 129 124 0 131 124 0 131 123 0 132 122 0 133 122 0 133 122 0 133 123 0 132 123 0 132 123 0 132 123 0 132 123 0 132 123 0 132 123 0 132 123 0 132 124 0 131 125 0 130 126 0 129 126 0 129 127 0 128 128 0 127 128 0 127 128 0 127 128 0 127 128 0 127 129 0 126 129 0 126 129 0 126 128 0 127 128 0 127 127 0 128 126 0 129 125 0 130 125 0 130 125 0 130 124 0 131 124 0 131 125 0 130 125 0 130 125 0 130 125 0 130 124 0 131 123 0 132 122 0 133 121 0 134 121 0 134 120 0 135 120 0 135 120 0 135 120 0 135 121 0 134 122 0 133 123 0 132 124 0 131 125 0 130 126 0 129 126 0 129 126 0 129 126 0 129 125 0 130 125 0 130 125 0 130 125 0 130 126 0 129 127 0 128 129 0 126 130 0 125 132 0 123 133 0 122 134 0 121 135 0 120 135 0 120 135 0 120 134 0 121 133 0 122 132 0 123 131 0 124 130 0 125 129 0 126 129 0 126 129 0 126 130 0 125 131 0 124 131 0 124 131 0 124 130 0 125 130 0 125 128 0 127 127 0 128 125 0 130 124 0 131 122 0 133 120 0 135 118 0 137 117 0 138 116 0 139 115 0 140 114 0 141 113 0 142 111 0 144 106 0 149 97 0 158 82 0 173 60 0 195 32 0 223 0 0 255 0 0 255 0 0 255 0 0 255 0 0 255 0 0 255 0 0 255 0 0 255 0 0 255 0 0 255 0 0 255 0 0 255 0 0 255 0 0 255 0 0 255 0 0 255 0 0 255 0 0 255 0 0 255 0 0 255 0 0 255 0 0 255 0 0 255 0 0 255 0 0 255 0 0 255 0 0 255 0 0 255 0 0 255 0 0 255 0 0 255 0 0 255 0 0 255 0 0 255 0 0 255 0 0 255 0 0 255 0 0 255 0 0 255 0 0 255 0 0 255 0 0 255 0 0 255 0 0 255 0 0 255 0 0 255 0 0 255 3 0 252 151 0 104 
244 0 11 177 0 78 152 0 103 139 0 116 132 0 123 127 0 128 123 0 132 121 0 134 119 0 136 119 0 136 120 0 135 121 0 134 123 0 132 125 0 130 126 0 129 126 0 129 125 0 130 123 0 132 122 0 133 120 0 135 119 0 136 119 0 136 119 0 136 120 0 135 120 0 135 121 0 134 122 0 133 123 0 132 124 0 131 124 0 131 124 0 131 124 0 131 125 0 130 125 0 130 125 0 130 126 0 129 126 0 129 127 0 128 129 0 126 130 0 125 131 0 124 132 0 123 131 0 124 130 0 125 129 0 126 127 0 128 126 0 129 124 0 131 123 0 132 122 0 133 121 0 134 121 0 134 121 0 134 121 0 134 121 0 134 121 0 134 121 0 134 121 0 134 121 0 134 121 0 134 122 0 133 123 0 132 124 0 131 125 0 130 126 0 129 127 0 128 128 0 127 128 0 127 129 0 126 129 0 126 129 0 126 130 0 125 130 0 125 130 0 125 129 0 126 128 0 127 128 0 127 127 0 128 126 0 129 125 0 130 125 0 130 125 0 130 125 0 130 126 0 129 126 0 129 126 0 129 126 0 129 126 0 129 125 0 130 124 0 131 123 0 132 122 0 133 121 0 134 120 0 135 120 0 135 120 0 135 121 0 134 122 0 133 122 0 133 123 0 132 124 0 131 124 0 131 125 0 130 125 0 130 124 0 131 124 0 131 123 0 132 123 0 132 124 0 131 124 0 131 126 0 129 127 0 128 129 0 126 131 0 124 133 0 122 134 0 121 135 0 120 136 0 119 135 0 120 135 0 120 134 0 121 133 0 122 131 0 124 130 0 125 130 0 125 130 0 125 130 0 125 131 0 124 132 0 123 132 0 123 131 0 124 131 0 124 130 0 125 129 0 126 127 0 128 126 0 129 124 0 131 123 0 132 121 0 134 119 0 136 118 0 137 116 0 139 116 0 139 115 0 140 114 0 141 112 0 143 107 0 148 97 0 158 82 0 173 60 0 195 32 0 223 0 0 255 0 0 255 0 0 255 0 0 255 0 0 255 0 0 255 0 0 255 0 0 255 0 0 255 0 0 255 0 0 255 0 0 255 0 0 255 0 0 255 0 0 255 0 0 255 0 0 255 0 0 255 0 0 255 0 0 255 0 0 255 0 0 255 0 0 255 0 0 255 0 0 255 0 0 255 0 0 255 0 0 255 0 0 255 0 0 255 0 0 255 0 0 255 0 0 255 0 0 255 0 0 255 0 0 255 0 0 255 0 0 255 0 0 255 0 0 255 0 0 255 0 0 255 0 0 255 0 0 255 0 0 255 0 0 255 0 0 255 2 0 253 90 0 165 
152 0 103 150 0 105 142 0 113 135 0 120 130 0 125 126 0 129 123 0 132 121 0 134 119 0 136 119 0 136 120 0 135 121 0 134 123 0 132 124 0 131 125 0 130 125 0 130 124 0 131 123 0 132 122 0 133 121 0 134 120 0 135 119 0 136 119 0 136 119 0 136 120 0 135 121 0 134 122 0 133 122 0 133 123 0 132 123 0 132 124 0 131 124 0 131 125 0 130 125 0 130 126 0 129 126 0 129 127 0 128 128 0 127 130 0 125 131 0 124 132 0 123 133 0 122 132 0 123 131 0 124 129 0 126 128 0 127 126 0 129 124 0 131 122 0 133 121 0 134 120 0 135 119 0 136 119 0 136 119 0 136 120 0 135 120 0 135 120 0 135 120 0 135 120 0 135 121 0 134 121 0 134 122 0 133 124 0 131 125 0 130 126 0 129 127 0 128 128 0 127 129 0 126 129 0 126 130 0 125 130 0 125 130 0 125 131 0 124 130 0 125 130 0 125 129 0 126 128 0 127 127 0 128 126 0 129 126 0 129 126 0 129 126 0 129 126 0 129 127 0 128 128 0 127 128 0 127 128 0 127 128 0 127 127 0 128 126 0 129 125 0 130 123 0 132 122 0 133 122 0 133 121 0 134 121 0 134 121 0 134 121 0 134 122 0 133 122 0 133 123 0 132 123 0 132 123 0 132 123 0 132 123 0 132 123 0 132 122 0 133 122 0 133 123 0 132 123 0 132 124 0 131 126 0 129 128 0 127 130 0 125 132 0 123 134 0 121 135 0 120 136 0 119 136 0 119 136 0 119 135 0 120 133 0 122 132 0 123 131 0 124 131 0 124 131 0 124 131 0 124 132 0 123 132 0 123 132 0 123 132 0 123 131 0 124 130 0 125 128 0 127 127 0 128 126 0 129 125 0 130 124 0 131 122 0 133 121 0 134 119 0 136 118 0 137 117 0 138 116 0 139 115 0 140 113 0 142 108 0 147 98 0 157 83 0 172 60 0 195 32 0 223 0 0 255 0 0 255 0 0 255 0 0 255 0 0 255 0 0 255 0 0 255 0 0 255 0 0 255 0 0 255 0 0 255 0 0 255 0 0 255 0 0 255 0 0 255 0 0 255 0 0 255 0 0 255 0 0 255 0 0 255 0 0 255 0 0 255 0 0 255 0 0 255 0 0 255 0 0 255 0 0 255 0 0 255 0 0 255 0 0 255 0 0 255 0 0 255 0 0 255 0 0 255 0 0 255 0 0 255 0 0 255 0 0 255 0 0 255 0 0 255 0 0 255 0 0 255 0 0 255 0 0 255 0 0 255 0 0 255 0 0 255 3 0 252 133 0 122 
117 0 138 129 0 126 131 0 124 129 0 126 127 0 128 125 0 130 122 0 133 121 0 134 120 0 135 119 0 136 120 0 135 121 0 134 122 0 133 123 0 132 124 0 131 124 0 131 124 0 131 123 0 132 123 0 132 122 0 133 121 0 134 120 0 135 120 0 135 119 0 136 120 0 135 120 0 135 121 0 134 121 0 134 122 0 133 123 0 132 123 0 132 124 0 131 125 0 130 126 0 129 127 0 128 127 0 128 128 0 127 129 0 126 130 0 125 132 0 123 133 0 122 133 0 122 133 0 122 132 0 123 130 0 125 128 0 127 125 0 130 123 0 132 122 0 133 120 0 135 119 0 136 118 0 137 118 0 137 118 0 137 118 0 137 119 0 136 119 0 136 119 0 136 119 0 136 120 0 135 121 0 134 122 0 133 124 0 131 125 0 130 126 0 129 127 0 128 128 0 127 129 0 126 130 0 125 130 0 125 131 0 124 131 0 124 131 0 124 131 0 124 130 0 125 129 0 126 128 0 127 127 0 128 126 0 129 126 0 129 126 0 129 126 0 129 127 0 128 128 0 127 129 0 126 129 0 126 129 0 126 129 0 126 128 0 127 127 0 128 126 0 129 125 0 130 124 0 131 124 0 131 123 0 132 123 0 132 122 0 133 122 0 133 122 0 133 122 0 133 122 0 133 122 0 133 122 0 133 122 0 133 122 0 133 122 0 133 122 0 133 122 0 133 122 0 133 123 0 132 124 0 131 126 0 129 128 0 127 130 0 125 132 0 123 134 0 121 135 0 120 136 0 119 136 0 119 136 0 119 135 0 120 134 0 121 133 0 122 132 0 123 132 0 123 132 0 123 133 0 122 133 0 122 133 0 122 133 0 122 132 0 123 131 0 124 129 0 126 128 0 127 127 0 128 126 0 129 125 0 130 125 0 130 123 0 132 122 0 133 121 0 134 120 0 135 119 0 136 118 0 137 117 0 138 115 0 140 110 0 145 100 0 155 84 0 171 61 0 194 32 0 223 0 0 255 0 0 255 0 0 255 0 0 255 0 0 255 0 0 255 0 0 255 0 0 255 0 0 255 0 0 255 0 0 255 0 0 255 0 0 255 0 0 255 0 0 255 0 0 255 0 0 255 0 0 255 0 0 255 0 0 255 0 0 255 0 0 255 0 0 255 0 0 255 0 0 255 0 0 255 0 0 255 0 0 255 0 0 255 0 0 255 0 0 255 0 0 255 0 0 255 0 0 255 0 0 255 0 0 255 0 0 255 0 0 255 0 0 255 0 0 255 0 0 255 0 0 255 0 0 255 0 0 255 0 0 255 0 0 255 0 0 255 3 0 252 148 0 107 
116 0 139 119 0 136 123 0 132 125 0 130 125 0 130 124 0 131 122 0 133 121 0 134 120 0 135 120 0 135 120 0 135 121 0 134 122 0 133 123 0 132 124 0 131 124 0 131 124 0 131 124 0 131 123 0 132 123 0 132 122 0 133 121 0 134 120 0 135 120 0 135 119 0 136 119 0 136 120 0 135 120 0 135 121 0 134 121 0 134 122 0 133 124 0 131 125 0 130 126 0 129 127 0 128 128 0 127 129 0 126 130 0 125 131 0 124 132 0 123 133 0 122 133 0 122 133 0 122 131 0 124 130 0 125 128 0 127 125 0 130 123 0 132 121 0 134 120 0 135 118 0 137 117 0 138 117 0 138 117 0 138 118 0 137 118 0 137 118 0 137 119 0 136 119 0 136 120 0 135 121 0 134 122 0 133 124 0 131 125 0 130 127 0 128 128 0 127 129 0 126 130 0 125 130 0 125 131 0 124 131 0 124 132 0 123 131 0 124 131 0 124 130 0 125 129 0 126 127 0 128 126 0 129 126 0 129 125 0 130 126 0 129 127 0 128 128 0 127 129 0 126 130 0 125 130 0 125 130 0 125 130 0 125 130 0 125 129 0 126 128 0 127 127 0 128 126 0 129 126 0 129 125 0 130 124 0 131 124 0 131 123 0 132 122 0 133 122 0 133 121 0 134 121 0 134 122 0 133 122 0 133 122 0 133 122 0 133 122 0 133 123 0 132 123 0 132 123 0 132 124 0 131 126 0 129 127 0 128 129 0 126 132 0 123 134 0 121 135 0 120 136 0 119 137 0 118 136 0 119 135 0 120 135 0 120 134 0 121 133 0 122 133 0 122 133 0 122 133 0 122 134 0 121 134 0 121 133 0 122 132 0 123 131 0 124 129 0 126 128 0 127 127 0 128 126 0 129 126 0 129 125 0 130 124 0 131 124 0 131 123 0 132 122 0 133 121 0 134 121 0 134 120 0 135 118 0 137 112 0 143 102 0 153 85 0 170 62 0 193 33 0 222 0 0 255 0 0 255 0 0 255 0 0 255 0 0 255 0 0 255 0 0 255 0 0 255 0 0 255 0 0 255 0 0 255 0 0 255 0 0 255 0 0 255 0 0 255 0 0 255 0 0 255 0 0 255 0 0 255 0 0 255 0 0 255 0 0 255 0 0 255 0 0 255 0 0 255 0 0 255 0 0 255 0 0 255 0 0 255 0 0 255 0 0 255 0 0 255 0 0 255 0 0 255 0 0 255 0 0 255 0 0 255 0 0 255 0 0 255 0 0 255 0 0 255 0 0 255 0 0 255 0 0 255 0 0 255 0 0 255 0 0 255 2 0 253 93 0 162 
96 0 159 109 0 146 118 0 137 122 0 133 123 0 132 123 0 132 122 0 133 121 0 134 121 0 134 120 0 135 120 0 135 121 0 134 122 0 133 122 0 133 123 0 132 124 0 131 124 0 131 124 0 131 124 0 131 124 0 131 123 0 132 122 0 133 121 0 134 120 0 135 119 0 136 119 0 136 119 0 136 119 0 136 119 0 136 120 0 135 121 0 134 123 0 132 124 0 131 126 0 129 127 0 128 128 0 127 129 0 126 130 0 125 130 0 125 131 0 124 132 0 123 132 0 123 132 0 123 131 0 124 129 0 126 127 0 128 125 0 130 123 0 132 121 0 134 120 0 135 118 0 137 117 0 138 117 0 138 117 0 138 118 0 137 118 0 137 119 0 136 119 0 136 120 0 135 121 0 134 122 0 133 123 0 132 124 0 131 126 0 129 127 0 128 128 0 127 129 0 126 130 0 125 131 0 124 131 0 124 132 0 123 132 0 123 131 0 124 130 0 125 129 0 126 128 0 127 126 0 129 125 0 130 125 0 130 125 0 130 125 0 130 126 0 129 128 0 127 129 0 126 130 0 125 131 0 124 131 0 124 131 0 124 130 0 125 130 0 125 129 0 126 129 0 126 128 0 127 128 0 127 127 0 128 127 0 128 125 0 130 124 0 131 123 0 132 122 0 133 122 0 133 122 0 133 122 0 133 122 0 133 122 0 133 123 0 132 123 0 132 124 0 131 124 0 131 124 0 131 125 0 130 126 0 129 128 0 127 129 0 126 131 0 124 133 0 122 135 0 120 136 0 119 136 0 119 136 0 119 136 0 119 135 0 120 134 0 121 133 0 122 133 0 122 133 0 122 134 0 121 134 0 121 134 0 121 133 0 122 132 0 123 130 0 125 129 0 126 127 0 128 127 0 128 126 0 129 126 0 129 126 0 129 125 0 130 125 0 130 124 0 131 124 0 131 124 0 131 124 0 131 123 0 132 121 0 134 115 0 140 104 0 151 87 0 168 63 0 192 34 0 221 0 0 255 0 0 255 0 0 255 0 0 255 0 0 255 0 0 255 0 0 255 0 0 255 0 0 255 0 0 255 0 0 255 0 0 255 0 0 255 0 0 255 0 0 255 0 0 255 0 0 255 0 0 255 0 0 255 0 0 255 0 0 255 0 0 255 0 0 255 0 0 255 0 0 255 0 0 255 0 0 255 0 0 255 0 0 255 0 0 255 0 0 255 0 0 255 0 0 255 0 0 255 0 0 255 0 0 255 0 0 255 0 0 255 0 0 255 0 0 255 0 0 255 0 0 255 0 0 255 0 0 255 0 0 255 0 0 255 0 0 255 2 0 253 107 0 148 
52 0 203 103 0 152 116 0 139 121 0 134 122 0 133 123 0 132 122 0 133 122 0 133 121 0 134 121 0 134 121 0 134 121 0 134 122 0 133 122 0 133 123 0 132 124 0 131 124 0 131 125 0 130 125 0 130 125 0 130 124 0 131 123 0 132 122 0 133 121 0 134 119 0 136 119 0 136 118 0 137 118 0 137 118 0 137 119 0 136 120 0 135 122 0 133 124 0 131 125 0 130 126 0 129 127 0 128 128 0 127 129 0 126 130 0 125 131 0 124 131 0 124 132 0 123 131 0 124 131 0 124 129 0 126 127 0 128 125 0 130 123 0 132 122 0 133 120 0 135 119 0 136 118 0 137 118 0 137 118 0 137 119 0 136 119 0 136 120 0 135 120 0 135 121 0 134 121 0 134 122 0 133 123 0 132 125 0 130 126 0 129 128 0 127 129 0 126 129 0 126 130 0 125 131 0 124 131 0 124 131 0 124 131 0 124 131 0 124 129 0 126 128 0 127 126 0 129 125 0 130 124 0 131 123 0 132 124 0 131 125 0 130 126 0 129 127 0 128 129 0 126 130 0 125 131 0 124 131 0 124 131 0 124 131 0 124 130 0 125 130 0 125 130 0 125 130 0 125 130 0 125 129 0 126 129 0 126 128 0 127 126 0 129 125 0 130 124 0 131 123 0 132 122 0 133 122 0 133 122 0 133 123 0 132 123 0 132 124 0 131 125 0 130 125 0 130 126 0 129 126 0 129 127 0 128 128 0 127 130 0 125 131 0 124 133 0 122 134 0 121 135 0 120 136 0 119 136 0 119 135 0 120 134 0 121 134 0 121 133 0 122 133 0 122 133 0 122 133 0 122 133 0 122 133 0 122 132 0 123 131 0 124 130 0 125 128 0 127 127 0 128 126 0 129 126 0 129 126 0 129 126 0 129 126 0 129 126 0 129 126 0 129 126 0 129 126 0 129 127 0 128 126 0 129 124 0 131 118 0 137 106 0 149 89 0 166 65 0 190 34 0 221 0 0 255 0 0 255 0 0 255 0 0 255 0 0 255 0 0 255 0 0 255 0 0 255 0 0 255 0 0 255 0 0 255 0 0 255 0 0 255 0 0 255 0 0 255 0 0 255 0 0 255 0 0 255 0 0 255 0 0 255 0 0 255 0 0 255 0 0 255 0 0 255 0 0 255 0 0 255 0 0 255 0 0 255 0 0 255 0 0 255 0 0 255 0 0 255 0 0 255 0 0 255 0 0 255 0 0 255 0 0 255 0 0 255 0 0 255 0 0 255 0 0 255 0 0 255 0 0 255 0 0 255 0 0 255 0 0 255 0 0 255 4 0 251 203 0 52 
192 0 63 133 0 122 122 0 133 122 0 133 123 0 132 123 0 132 123 0 132 123 0 132 122 0 133 122 0 133 122 0 133 122 0 133 122 0 133 122 0 133 123 0 132 124 0 131 124 0 131 125 0 130 126 0 129 126 0 129 125 0 130 124 0 131 123 0 132 121 0 134 120 0 135 119 0 136 118 0 137 118 0 137 118 0 137 119 0 136 120 0 135 121 0 134 123 0 132 124 0 131 125 0 130 126 0 129 127 0 128 128 0 127 129 0 126 130 0 125 131 0 124 131 0 124 131 0 124 130 0 125 129 0 126 127 0 128 126 0 129 124 0 131 122 0 133 121 0 134 120 0 135 120 0 135 120 0 135 121 0 134 121 0 134 121 0 134 122 0 133 122 0 133 122 0 133 122 0 133 123 0 132 124 0 131 125 0 130 127 0 128 128 0 127 129 0 126 130 0 125 130 0 125 131 0 124 131 0 124 131 0 124 131 0 124 130 0 125 128 0 127 127 0 128 125 0 130 124 0 131 123 0 132 122 0 133 123 0 132 124 0 131 125 0 130 127 0 128 128 0 127 129 0 126 130 0 125 130 0 125 130 0 125 130 0 125 130 0 125 131 0 124 131 0 124 131 0 124 131 0 124 131 0 124 130 0 125 129 0 126 128 0 127 126 0 129 125 0 130 124 0 131 123 0 132 123 0 132 123 0 132 123 0 132 124 0 131 125 0 130 125 0 130 126 0 129 126 0 129 127 0 128 128 0 127 129 0 126 130 0 125 131 0 124 132 0 123 133 0 122 134 0 121 135 0 120 135 0 120 134 0 121 134 0 121 133 0 122 133 0 122 132 0 123 132 0 123 132 0 123 132 0 123 132 0 123 131 0 124 130 0 125 129 0 126 128 0 127 127 0 128 126 0 129 126 0 129 126 0 129 126 0 129 127 0 128 127 0 128 127 0 128 128 0 127 128 0 127 129 0 126 128 0 127 126 0 129 120 0 135 108 0 147 90 0 165 65 0 190 35 0 220 0 0 255 0 0 255 0 0 255 0 0 255 0 0 255 0 0 255 0 0 255 0 0 255 0 0 255 0 0 255 0 0 255 0 0 255 0 0 255 0 0 255 0 0 255 0 0 255 0 0 255 0 0 255 0 0 255 0 0 255 0 0 255 0 0 255 0 0 255 0 0 255 0 0 255 0 0 255 0 0 255 0 0 255 0 0 255 0 0 255 0 0 255 0 0 255 0 0 255 0 0 255 0 0 255 0 0 255 0 0 255 0 0 255 0 0 255 0 0 255 0 0 255 0 0 255 0 0 255 0 0 255 0 0 255 0 0 255 0 0 255 3 0 252 141 0 114 
113 0 142 114 0 141 117 0 138 120 0 135 122 0 133 123 0 132 124 0 131 124 0 131 123 0 132 123 0 132 122 0 133 122 0 133 122 0 133 123 0 132 123 0 132 124 0 131 125 0 130 126 0 129 126 0 129 126 0 129 126 0 129 125 0 130 124 0 131 122 0 133 120 0 135 119 0 136 118 0 137 118 0 137 118 0 137 118 0 137 119 0 136 120 0 135 122 0 133 123 0 132 124 0 131 125 0 130 126 0 129 127 0 128 128 0 127 129 0 126 130 0 125 130 0 125 130 0 125 130 0 125 129 0 126 128 0 127 126 0 129 125 0 130 124 0 131 123 0 132 123 0 132 123 0 132 123 0 132 123 0 132 124 0 131 124 0 131 124 0 131 124 0 131 124 0 131 124 0 131 124 0 131 124 0 131 125 0 130 127 0 128 128 0 127 129 0 126 130 0 125 130 0 125 131 0 124 131 0 124 131 0 124 130 0 125 129 0 126 127 0 128 126 0 129 124 0 131 123 0 132 122 0 133 121 0 134 122 0 133 123 0 132 124 0 131 126 0 129 127 0 128 128 0 127 129 0 126 129 0 126 130 0 125 130 0 125 130 0 125 131 0 124 131 0 124 131 0 124 132 0 123 132 0 123 131 0 124 131 0 124 129 0 126 128 0 127 127 0 128 125 0 130 124 0 131 124 0 131 124 0 131 124 0 131 124 0 131 125 0 130 125 0 130 126 0 129 127 0 128 127 0 128 128 0 127 129 0 126 130 0 125 131 0 124 132 0 123 132 0 123 133 0 122 133 0 122 133 0 122 133 0 122 133 0 122 132 0 123 132 0 123 131 0 124 131 0 124 131 0 124 131 0 124 130 0 125 130 0 125 129 0 126 128 0 127 127 0 128 126 0 129 125 0 130 125 0 130 126 0 129 126 0 129 127 0 128 128 0 127 128 0 127 129 0 126 129 0 126 130 0 125 130 0 125 127 0 128 121 0 134 109 0 146 91 0 164 66 0 189 35 0 220 0 0 255 0 0 255 0 0 255 0 0 255 0 0 255 0 0 255 0 0 255 0 0 255 0 0 255 0 0 255 0 0 255 0 0 255 0 0 255 0 0 255 0 0 255 0 0 255 0 0 255 0 0 255 0 0 255 0 0 255 0 0 255 0 0 255 0 0 255 0 0 255 0 0 255 0 0 255 0 0 255 0 0 255 0 0 255 0 0 255 0 0 255 0 0 255 0 0 255 0 0 255 0 0 255 0 0 255 0 0 255 0 0 255 0 0 255 0 0 255 0 0 255 0 0 255 0 0 255 0 0 255 0 0 255 0 0 255 0 0 255 2 0 253 124 0 131 
42 0 213 94 0 161 111 0 144 118 0 137 122 0 133 124 0 131 124 0 131 125 0 130 124 0 131 124 0 131 124 0 131 123 0 132 123 0 132 123 0 132 124 0 131 125 0 130 125 0 130 126 0 129 127 0 128 127 0 128 126 0 129 125 0 130 124 0 131 123 0 132 121 0 134 120 0 135 119 0 136 118 0 137 118 0 137 119 0 136 119 0 136 120 0 135 121 0 134 122 0 133 123 0 132 124 0 131 125 0 130 126 0 129 127 0 128 129 0 126 130 0 125 130 0 125 130 0 125 130 0 125 129 0 126 128 0 127 127 0 128 126 0 129 125 0 130 125 0 130 125 0 130 125 0 130 126 0 129 126 0 129 127 0 128 127 0 128 127 0 128 126 0 129 126 0 129 125 0 130 125 0 130 125 0 130 125 0 130 126 0 129 127 0 128 129 0 126 129 0 126 130 0 125 131 0 124 131 0 124 130 0 125 130 0 125 129 0 126 127 0 128 126 0 129 124 0 131 123 0 132 122 0 133 121 0 134 121 0 134 122 0 133 123 0 132 125 0 130 126 0 129 127 0 128 128 0 127 128 0 127 129 0 126 129 0 126 130 0 125 130 0 125 130 0 125 131 0 124 131 0 124 132 0 123 131 0 124 131 0 124 130 0 125 129 0 126 127 0 128 126 0 129 125 0 130 125 0 130 124 0 131 124 0 131 124 0 131 124 0 131 124 0 131 125 0 130 126 0 129 127 0 128 127 0 128 128 0 127 129 0 126 130 0 125 131 0 124 132 0 123 132 0 123 132 0 123 132 0 123 132 0 123 131 0 124 131 0 124 130 0 125 130 0 125 129 0 126 129 0 126 129 0 126 128 0 127 128 0 127 127 0 128 126 0 129 126 0 129 125 0 130 125 0 130 125 0 130 125 0 130 126 0 129 127 0 128 127 0 128 128 0 127 129 0 126 130 0 125 130 0 125 130 0 125 127 0 128 121 0 134 109 0 146 91 0 164 65 0 190 35 0 220 0 0 255 0 0 255 0 0 255 0 0 255 0 0 255 0 0 255 0 0 255 0 0 255 0 0 255 0 0 255 0 0 255 0 0 255 0 0 255 0 0 255 0 0 255 0 0 255 0 0 255 0 0 255 0 0 255 0 0 255 0 0 255 0 0 255 0 0 255 0 0 255 0 0 255 0 0 255 0 0 255 0 0 255 0 0 255 0 0 255 0 0 255 0 0 255 0 0 255 0 0 255 0 0 255 0 0 255 0 0 255 0 0 255 0 0 255 0 0 255 0 0 255 0 0 255 0 0 255 0 0 255 0 0 255 0 0 255 0 0 255 2 0 253 99 0 156 
119 0 136 107 0 148 113 0 142 119 0 136 122 0 133 124 0 131 125 0 130 125 0 130 125 0 130 125 0 130 124 0 131 124 0 131 124 0 131 124 0 131 125 0 130 125 0 130 126 0 129 127 0 128 127 0 128 127 0 128 127 0 128 126 0 129 125 0 130 123 0 132 122 0 133 121 0 134 120 0 135 119 0 136 119 0 136 119 0 136 120 0 135 121 0 134 121 0 134 122 0 133 123 0 132 124 0 131 125 0 130 126 0 129 127 0 128 128 0 127 129 0 126 130 0 125 130 0 125 130 0 125 130 0 125 129 0 126 128 0 127 127 0 128 127 0 128 127 0 128 127 0 128 127 0 128 128 0 127 129 0 126 129 0 126 130 0 125 129 0 126 128 0 127 127 0 128 126 0 129 125 0 130 125 0 130 125 0 130 126 0 129 127 0 128 128 0 127 129 0 126 130 0 125 130 0 125 131 0 124 130 0 125 130 0 125 129 0 126 128 0 127 126 0 129 125 0 130 123 0 132 122 0 133 121 0 134 121 0 134 122 0 133 123 0 132 124 0 131 125 0 130 126 0 129 127 0 128 127 0 128 128 0 127 129 0 126 129 0 126 129 0 126 129 0 126 130 0 125 130 0 125 130 0 125 130 0 125 130 0 125 129 0 126 129 0 126 128 0 127 127 0 128 126 0 129 125 0 130 124 0 131 123 0 132 123 0 132 122 0 133 123 0 132 123 0 132 124 0 131 125 0 130 126 0 129 127 0 128 128 0 127 129 0 126 130 0 125 131 0 124 131 0 124 131 0 124 131 0 124 130 0 125 130 0 125 129 0 126 129 0 126 128 0 127 128 0 127 127 0 128 127 0 128 126 0 129 126 0 129 126 0 129 125 0 130 125 0 130 124 0 131 124 0 131 124 0 131 125 0 130 125 0 130 126 0 129 127 0 128 127 0 128 128 0 127 129 0 126 129 0 126 128 0 127 126 0 129 119 0 136 107 0 148 89 0 166 65 0 190 34 0 221 0 0 255 0 0 255 0 0 255 0 0 255 0 0 255 0 0 255 0 0 255 0 0 255 0 0 255 0 0 255 0 0 255 0 0 255 0 0 255 0 0 255 0 0 255 0 0 255 0 0 255 0 0 255 0 0 255 0 0 255 0 0 255 0 0 255 0 0 255 0 0 255 0 0 255 0 0 255 0 0 255 0 0 255 0 0 255 0 0 255 0 0 255 0 0 255 0 0 255 0 0 255 0 0 255 0 0 255 0 0 255 0 0 255 0 0 255 0 0 255 0 0 255 0 0 255 0 0 255 0 0 255 0 0 255 0 0 255 0 0 255 2 0 253 113 0 142 
83 0 172 103 0 152 114 0 141 120 0 135 123 0 132 125 0 130 126 0 129 126 0 129 126 0 129 125 0 130 125 0 130 125 0 130 124 0 131 125 0 130 125 0 130 126 0 129 127 0 128 127 0 128 127 0 128 127 0 128 127 0 128 126 0 129 125 0 130 124 0 131 122 0 133 121 0 134 120 0 135 120 0 135 120 0 135 120 0 135 120 0 135 121 0 134 122 0 133 122 0 133 123 0 132 123 0 132 124 0 131 125 0 130 127 0 128 128 0 127 129 0 126 130 0 125 131 0 124 131 0 124 130 0 125 130 0 125 129 0 126 128 0 127 128 0 127 128 0 127 129 0 126 129 0 126 130 0 125 131 0 124 131 0 124 131 0 124 131 0 124 130 0 125 128 0 127 127 0 128 126 0 129 125 0 130 125 0 130 125 0 130 126 0 129 127 0 128 128 0 127 129 0 126 130 0 125 130 0 125 130 0 125 130 0 125 129 0 126 128 0 127 127 0 128 126 0 129 125 0 130 123 0 132 122 0 133 122 0 133 122 0 133 123 0 132 123 0 132 124 0 131 125 0 130 126 0 129 127 0 128 127 0 128 128 0 127 128 0 127 128 0 127 128 0 127 128 0 127 128 0 127 128 0 127 128 0 127 128 0 127 128 0 127 128 0 127 127 0 128 126 0 129 125 0 130 124 0 131 123 0 132 122 0 133 121 0 134 120 0 135 121 0 134 121 0 134 122 0 133 124 0 131 125 0 130 126 0 129 127 0 128 129 0 126 129 0 126 130 0 125 130 0 125 130 0 125 130 0 125 129 0 126 129 0 126 128 0 127 128 0 127 127 0 128 127 0 128 126 0 129 125 0 130 125 0 130 125 0 130 124 0 131 124 0 131 124 0 131 124 0 131 124 0 131 124 0 131 124 0 131 125 0 130 125 0 130 126 0 129 126 0 129 127 0 128 127 0 128 127 0 128 126 0 129 123 0 132 117 0 138 105 0 150 88 0 167 63 0 192 33 0 222 0 0 255 0 0 255 0 0 255 0 0 255 0 0 255 0 0 255 0 0 255 0 0 255 0 0 255 0 0 255 0 0 255 0 0 255 0 0 255 0 0 255 0 0 255 0 0 255 0 0 255 0 0 255 0 0 255 0 0 255 0 0 255 0 0 255 0 0 255 0 0 255 0 0 255 0 0 255 0 0 255 0 0 255 0 0 255 0 0 255 0 0 255 0 0 255 0 0 255 0 0 255 0 0 255 0 0 255 0 0 255 0 0 255 0 0 255 0 0 255 0 0 255 0 0 255 0 0 255 0 0 255 0 0 255 0 0 255 0 0 255 3 0 252 158 0 97 
71 0 184 107 0 148 118 0 137 123 0 132 125 0 130 126 0 129 126 0 129 126 0 129 126 0 129 125 0 130 125 0 130 124 0 131 124 0 131 125 0 130 125 0 130 126 0 129 127 0 128 127 0 128 128 0 127 127 0 128 127 0 128 126 0 129 125 0 130 124 0 131 123 0 132 122 0 133 121 0 134 120 0 135 120 0 135 120 0 135 121 0 134 121 0 134 122 0 133 122 0 133 123 0 132 123 0 132 124 0 131 125 0 130 127 0 128 128 0 127 129 0 126 130 0 125 131 0 124 131 0 124 131 0 124 130 0 125 130 0 125 129 0 126 129 0 126 129 0 126 130 0 125 130 0 125 131 0 124 132 0 123 132 0 123 132 0 123 132 0 123 130 0 125 129 0 126 127 0 128 126 0 129 125 0 130 124 0 131 125 0 130 125 0 130 126 0 129 127 0 128 129 0 126 129 0 126 130 0 125 130 0 125 130 0 125 130 0 125 129 0 126 129 0 126 128 0 127 127 0 128 125 0 130 124 0 131 123 0 132 123 0 132 123 0 132 124 0 131 124 0 131 125 0 130 125 0 130 126 0 129 127 0 128 127 0 128 127 0 128 127 0 128 126 0 129 126 0 129 125 0 130 125 0 130 126 0 129 126 0 129 126 0 129 126 0 129 126 0 129 125 0 130 124 0 131 123 0 132 121 0 134 120 0 135 119 0 136 118 0 137 118 0 137 119 0 136 120 0 135 122 0 133 123 0 132 125 0 130 127 0 128 128 0 127 129 0 126 130 0 125 130 0 125 129 0 126 129 0 126 129 0 126 128 0 127 128 0 127 127 0 128 127 0 128 126 0 129 125 0 130 124 0 131 124 0 131 123 0 132 123 0 132 123 0 132 123 0 132 123 0 132 124 0 131 124 0 131 124 0 131 124 0 131 125 0 130 125 0 130 125 0 130 125 0 130 125 0 130 125 0 130 123 0 132 120 0 135 114 0 141 103 0 152 85 0 170 62 0 193 33 0 222 0 0 255 0 0 255 0 0 255 0 0 255 0 0 255 0 0 255 0 0 255 0 0 255 0 0 255 0 0 255 0 0 255 0 0 255 0 0 255 0 0 255 0 0 255 0 0 255 0 0 255 0 0 255 0 0 255 0 0 255 0 0 255 0 0 255 0 0 255 0 0 255 0 0 255 0 0 255 0 0 255 0 0 255 0 0 255 0 0 255 0 0 255 0 0 255 0 0 255 0 0 255 0 0 255 0 0 255 0 0 255 0 0 255 0 0 255 0 0 255 0 0 255 0 0 255 0 0 255 0 0 255 0 0 255 0 0 255 0 0 255 2 0 253 88 0 167 
149 0 106 134 0 121 129 0 126 128 0 127 127 0 128 127 0 128 126 0 129 126 0 129 125 0 130 124 0 131 124 0 131 124 0 131 124 0 131 124 0 131 125 0 130 126 0 129 127 0 128 128 0 127 128 0 127 127 0 128 127 0 128 126 0 129 125 0 130 124 0 131 123 0 132 122 0 133 121 0 134 120 0 135 120 0 135 120 0 135 121 0 134 121 0 134 122 0 133 122 0 133 123 0 132 123 0 132 124 0 131 125 0 130 127 0 128 128 0 127 129 0 126 130 0 125 131 0 124 131 0 124 131 0 124 131 0 124 130 0 125 130 0 125 130 0 125 130 0 125 130 0 125 131 0 124 131 0 124 132 0 123 132 0 123 132 0 123 132 0 123 130 0 125 129 0 126 127 0 128 125 0 130 124 0 131 124 0 131 124 0 131 124 0 131 125 0 130 126 0 129 128 0 127 129 0 126 129 0 126 130 0 125 130 0 125 130 0 125 130 0 125 130 0 125 130 0 125 129 0 126 128 0 127 126 0 129 126 0 129 125 0 130 124 0 131 124 0 131 124 0 131 125 0 130 125 0 130 126 0 129 127 0 128 127 0 128 127 0 128 126 0 129 125 0 130 124 0 131 123 0 132 123 0 132 124 0 131 124 0 131 125 0 130 125 0 130 125 0 130 124 0 131 123 0 132 121 0 134 119 0 136 118 0 137 116 0 139 116 0 139 116 0 139 117 0 138 118 0 137 120 0 135 122 0 133 124 0 131 126 0 129 127 0 128 129 0 126 129 0 126 129 0 126 129 0 126 129 0 126 128 0 127 128 0 127 128 0 127 127 0 128 126 0 129 125 0 130 124 0 131 124 0 131 123 0 132 123 0 132 123 0 132 123 0 132 123 0 132 124 0 131 124 0 131 124 0 131 124 0 131 124 0 131 124 0 131 124 0 131 123 0 132 123 0 132 123 0 132 122 0 133 121 0 134 118 0 137 111 0 144 100 0 155 83 0 172 60 0 195 32 0 223 0 0 255 0 0 255 0 0 255 0 0 255 0 0 255 0 0 255 0 0 255 0 0 255 0 0 255 0 0 255 0 0 255 0 0 255 0 0 255 0 0 255 0 0 255 0 0 255 0 0 255 0 0 255 0 0 255 0 0 255 0 0 255 0 0 255 0 0 255 0 0 255 0 0 255 0 0 255 0 0 255 0 0 255 0 0 255 0 0 255 0 0 255 0 0 255 0 0 255 0 0 255 0 0 255 0 0 255 0 0 255 0 0 255 0 0 255 0 0 255 0 0 255 0 0 255 0 0 255 0 0 255 0 0 255 0 0 255 0 0 255 4 0 251 170 0 85 
192 0 63 151 0 104 137 0 118 131 0 124 129 0 126 127 0 128 126 0 129 125 0 130 124 0 131 123 0 132 122 0 133 122 0 133 122 0 133 123 0 132 124 0 131 126 0 129 127 0 128 127 0 128 128 0 127 127 0 128 127 0 128 126 0 129 125 0 130 124 0 131 123 0 132 122 0 133 121 0 134 120 0 135 120 0 135 120 0 135 121 0 134 121 0 134 122 0 133 122 0 133 123 0 132 123 0 132 124 0 131 125 0 130 126 0 129 128 0 127 129 0 126 130 0 125 131 0 124 131 0 124 131 0 124 131 0 124 130 0 125 130 0 125 130 0 125 130 0 125 130 0 125 131 0 124 131 0 124 132 0 123 132 0 123 132 0 123 131 0 124 130 0 125 128 0 127 126 0 129 125 0 130 124 0 131 123 0 132 123 0 132 123 0 132 124 0 131 125 0 130 126 0 129 127 0 128 128 0 127 129 0 126 130 0 125 130 0 125 131 0 124 131 0 124 131 0 124 131 0 124 130 0 125 129 0 126 128 0 127 127 0 128 126 0 129 126 0 129 125 0 130 125 0 130 126 0 129 126 0 129 127 0 128 127 0 128 126 0 129 125 0 130 124 0 131 123 0 132 122 0 133 122 0 133 123 0 132 123 0 132 124 0 131 124 0 131 124 0 131 123 0 132 122 0 133 120 0 135 118 0 137 116 0 139 114 0 141 113 0 142 114 0 141 115 0 140 117 0 138 119 0 136 121 0 134 123 0 132 125 0 130 127 0 128 128 0 127 129 0 126 129 0 126 129 0 126 129 0 126 128 0 127 128 0 127 128 0 127 127 0 128 126 0 129 125 0 130 124 0 131 124 0 131 123 0 132 123 0 132 123 0 132 123 0 132 123 0 132 124 0 131 124 0 131 124 0 131 124 0 131 124 0 131 124 0 131 123 0 132 122 0 133 122 0 133 121 0 134 120 0 135 119 0 136 115 0 140 109 0 146 98 0 157 82 0 173 59 0 196 31 0 224 0 0 255 0 0 255 0 0 255 0 0 255 0 0 255 0 0 255 0 0 255 0 0 255 0 0 255 0 0 255 0 0 255 0 0 255 0 0 255 0 0 255 0 0 255 0 0 255 0 0 255 0 0 255 0 0 255 0 0 255 0 0 255 0 0 255 0 0 255 0 0 255 0 0 255 0 0 255 0 0 255 0 0 255 0 0 255 0 0 255 0 0 255 0 0 255 0 0 255 0 0 255 0 0 255 0 0 255 0 0 255 0 0 255 0 0 255 0 0 255 0 0 255 0 0 255 0 0 255 0 0 255 0 0 255 0 0 255 0 0 255 4 0 251 176 0 79 
157 0 98 142 0 113 135 0 120 131 0 124 128 0 127 127 0 128 125 0 130 124 0 131 122 0 133 121 0 134 121 0 134 121 0 134 121 0 134 122 0 133 123 0 132 125 0 130 126 0 129 127 0 128 127 0 128 127 0 128 127 0 128 126 0 129 125 0 130 124 0 131 123 0 132 122 0 133 120 0 135 120 0 135 119 0 136 119 0 136 120 0 135 120 0 135 121 0 134 122 0 133 122 0 133 123 0 132 124 0 131 125 0 130 126 0 129 128 0 127 129 0 126 130 0 125 131 0 124 131 0 124 131 0 124 131 0 124 130 0 125 130 0 125 130 0 125 130 0 125 130 0 125 130 0 125 131 0 124 131 0 124 131 0 124 131 0 124 130 0 125 129 0 126 127 0 128 126 0 129 124 0 131 123 0 132 122 0 133 122 0 133 122 0 133 123 0 132 124 0 131 125 0 130 126 0 129 127 0 128 128 0 127 129 0 126 130 0 125 131 0 124 132 0 123 132 0 123 132 0 123 132 0 123 131 0 124 130 0 125 129 0 126 128 0 127 127 0 128 126 0 129 126 0 129 126 0 129 126 0 129 127 0 128 127 0 128 126 0 129 125 0 130 124 0 131 123 0 132 123 0 132 123 0 132 123 0 132 124 0 131 124 0 131 125 0 130 124 0 131 123 0 132 121 0 134 119 0 136 116 0 139 114 0 141 112 0 143 112 0 143 112 0 143 113 0 142 116 0 139 118 0 137 121 0 134 123 0 132 125 0 130 127 0 128 128 0 127 129 0 126 129 0 126 129 0 126 129 0 126 129 0 126 128 0 127 128 0 127 128 0 127 127 0 128 126 0 129 125 0 130 124 0 131 123 0 132 123 0 132 123 0 132 123 0 132 124 0 131 124 0 131 125 0 130 125 0 130 125 0 130 124 0 131 123 0 132 123 0 132 122 0 133 121 0 134 120 0 135 119 0 136 117 0 138 114 0 141 107 0 148 97 0 158 80 0 175 58 0 197 31 0 224 0 0 255 0 0 255 0 0 255 0 0 255 0 0 255 0 0 255 0 0 255 0 0 255 0 0 255 0 0 255 0 0 255 0 0 255 0 0 255 0 0 255 0 0 255 0 0 255 0 0 255 0 0 255 0 0 255 0 0 255 0 0 255 0 0 255 0 0 255 0 0 255 0 0 255 0 0 255 0 0 255 0 0 255 0 0 255 0 0 255 0 0 255 0 0 255 0 0 255 0 0 255 0 0 255 0 0 255 0 0 255 0 0 255 0 0 255 0 0 255 0 0 255 0 0 255 0 0 255 0 0 255 0 0 255 0 0 255 0 0 255 3 0 252 152 0 103 
91 0 164 124 0 131 129 0 126 129 0 126 128 0 127 126 0 129 124 0 131 123 0 132 121 0 134 120 0 135 120 0 135 119 0 136 120 0 135 121 0 134 122 0 133 124 0 131 125 0 130 126 0 129 126 0 129 126 0 129 126 0 129 126 0 129 125 0 130 124 0 131 123 0 132 122 0 133 120 0 135 119 0 136 119 0 136 119 0 136 119 0 136 120 0 135 120 0 135 121 0 134 121 0 134 122 0 133 123 0 132 124 0 131 125 0 130 127 0 128 129 0 126 130 0 125 131 0 124 131 0 124 131 0 124 131 0 124 130 0 125 129 0 126 129 0 126 129 0 126 129 0 126 129 0 126 130 0 125 130 0 125 129 0 126 129 0 126 128 0 127 127 0 128 126 0 129 124 0 131 123 0 132 122 0 133 121 0 134 121 0 134 121 0 134 122 0 133 123 0 132 124 0 131 125 0 130 126 0 129 127 0 128 128 0 127 129 0 126 131 0 124 132 0 123 133 0 122 134 0 121 134 0 121 133 0 122 133 0 122 131 0 124 130 0 125 128 0 127 127 0 128 126 0 129 126 0 129 126 0 129 127 0 128 127 0 128 126 0 129 126 0 129 125 0 130 124 0 131 124 0 131 124 0 131 124 0 131 125 0 130 126 0 129 126 0 129 125 0 130 123 0 132 121 0 134 118 0 137 115 0 140 113 0 142 111 0 144 110 0 145 111 0 144 112 0 143 115 0 140 118 0 137 120 0 135 123 0 132 125 0 130 126 0 129 127 0 128 128 0 127 129 0 126 129 0 126 129 0 126 129 0 126 128 0 127 128 0 127 128 0 127 127 0 128 126 0 129 126 0 129 125 0 130 124 0 131 124 0 131 124 0 131 124 0 131 124 0 131 125 0 130 125 0 130 125 0 130 125 0 130 124 0 131 123 0 132 122 0 133 122 0 133 121 0 134 120 0 135 118 0 137 116 0 139 113 0 142 106 0 149 96 0 159 80 0 175 58 0 197 31 0 224 0 0 255 0 0 255 0 0 255 0 0 255 0 0 255 0 0 255 0 0 255 0 0 255 0 0 255 0 0 255 0 0 255 0 0 255 0 0 255 0 0 255 0 0 255 0 0 255 0 0 255 0 0 255 0 0 255 0 0 255 0 0 255 0 0 255 0 0 255 0 0 255 0 0 255 0 0 255 0 0 255 0 0 255 0 0 255 0 0 255 0 0 255 0 0 255 0 0 255 0 0 255 0 0 255 0 0 255 0 0 255 0 0 255 0 0 255 0 0 255 0 0 255 0 0 255 0 0 255 0 0 255 0 0 255 0 0 255 0 0 255 2 0 253 93 0 162 
146 0 109 132 0 123 130 0 125 129 0 126 127 0 128 125 0 130 124 0 131 122 0 133 121 0 134 120 0 135 119 0 136 119 0 136 119 0 136 120 0 135 121 0 134 123 0 132 124 0 131 124 0 131 125 0 130 125 0 130 126 0 129 125 0 130 125 0 130 124 0 131 123 0 132 122 0 133 120 0 135 119 0 136 119 0 136 118 0 137 119 0 136 119 0 136 120 0 135 120 0 135 121 0 134 121 0 134 122 0 133 123 0 132 125 0 130 126 0 129 128 0 127 129 0 126 130 0 125 131 0 124 131 0 124 130 0 125 129 0 126 129 0 126 128 0 127 128 0 127 128 0 127 128 0 127 128 0 127 128 0 127 128 0 127 127 0 128 127 0 128 126 0 129 124 0 131 123 0 132 122 0 133 121 0 134 120 0 135 120 0 135 121 0 134 121 0 134 122 0 133 123 0 132 124 0 131 125 0 130 126 0 129 127 0 128 128 0 127 130 0 125 131 0 124 133 0 122 134 0 121 135 0 120 135 0 120 134 0 121 133 0 122 131 0 124 129 0 126 127 0 128 126 0 129 126 0 129 126 0 129 126 0 129 127 0 128 127 0 128 126 0 129 126 0 129 125 0 130 125 0 130 126 0 129 127 0 128 127 0 128 128 0 127 128 0 127 126 0 129 124 0 131 121 0 134 118 0 137 115 0 140 112 0 143 111 0 144 110 0 145 110 0 145 112 0 143 115 0 140 117 0 138 120 0 135 122 0 133 124 0 131 126 0 129 127 0 128 128 0 127 128 0 127 128 0 127 129 0 126 128 0 127 128 0 127 128 0 127 128 0 127 127 0 128 127 0 128 126 0 129 125 0 130 125 0 130 124 0 131 124 0 131 124 0 131 124 0 131 125 0 130 125 0 130 125 0 130 124 0 131 124 0 131 123 0 132 122 0 133 122 0 133 121 0 134 120 0 135 118 0 137 116 0 139 113 0 142 106 0 149 95 0 160 80 0 175 58 0 197 30 0 225 0 0 255 0 0 255 0 0 255 0 0 255 0 0 255 0 0 255 0 0 255 0 0 255 0 0 255 0 0 255 0 0 255 0 0 255 0 0 255 0 0 255 0 0 255 0 0 255 0 0 255 0 0 255 0 0 255 0 0 255 0 0 255 0 0 255 0 0 255 0 0 255 0 0 255 0 0 255 0 0 255 0 0 255 0 0 255 0 0 255 0 0 255 0 0 255 0 0 255 0 0 255 0 0 255 0 0 255 0 0 255 0 0 255 0 0 255 0 0 255 0 0 255 0 0 255 0 0 255 0 0 255 0 0 255 0 0 255 0 0 255 2 0 253 99 0 156 
110 0 145 129 0 126 130 0 125 129 0 126 127 0 128 125 0 130 124 0 131 122 0 133 121 0 134 120 0 135 119 0 136 119 0 136 119 0 136 120 0 135 121 0 134 122 0 133 122 0 133 123 0 132 124 0 131 124 0 131 125 0 130 125 0 130 125 0 130 125 0 130 124 0 131 122 0 133 121 0 134 120 0 135 119 0 136 119 0 136 119 0 136 119 0 136 119 0 136 120 0 135 120 0 135 121 0 134 122 0 133 123 0 132 124 0 131 126 0 129 127 0 128 129 0 126 130 0 125 130 0 125 130 0 125 129 0 126 128 0 127 128 0 127 127 0 128 127 0 128 127 0 128 127 0 128 127 0 128 127 0 128 126 0 129 126 0 129 125 0 130 124 0 131 123 0 132 122 0 133 121 0 134 120 0 135 120 0 135 120 0 135 120 0 135 121 0 134 122 0 133 123 0 132 124 0 131 124 0 131 125 0 130 126 0 129 127 0 128 129 0 126 131 0 124 133 0 122 134 0 121 135 0 120 135 0 120 135 0 120 133 0 122 131 0 124 129 0 126 127 0 128 126 0 129 125 0 130 125 0 130 126 0 129 126 0 129 127 0 128 127 0 128 127 0 128 127 0 128 127 0 128 128 0 127 129 0 126 130 0 125 130 0 125 130 0 125 128 0 127 126 0 129 123 0 132 119 0 136 116 0 139 113 0 142 111 0 144 110 0 145 111 0 144 112 0 143 115 0 140 117 0 138 120 0 135 122 0 133 124 0 131 125 0 130 127 0 128 127 0 128 128 0 127 128 0 127 128 0 127 128 0 127 128 0 127 127 0 128 127 0 128 127 0 128 127 0 128 126 0 129 126 0 129 125 0 130 125 0 130 125 0 130 124 0 131 124 0 131 124 0 131 124 0 131 124 0 131 124 0 131 123 0 132 123 0 132 123 0 132 122 0 133 121 0 134 121 0 134 119 0 136 117 0 138 113 0 142 106 0 149 96 0 159 79 0 176 58 0 197 30 0 225 0 0 255 0 0 255 0 0 255 0 0 255 0 0 255 0 0 255 0 0 255 0 0 255 0 0 255 0 0 255 0 0 255 0 0 255 0 0 255 0 0 255 0 0 255 0 0 255 0 0 255 0 0 255 0 0 255 0 0 255 0 0 255 0 0 255 0 0 255 0 0 255 0 0 255 0 0 255 0 0 255 0 0 255 0 0 255 0 0 255 0 0 255 0 0 255 0 0 255 0 0 255 0 0 255 0 0 255 0 0 255 0 0 255 0 0 255 0 0 255 0 0 255 0 0 255 0 0 255 0 0 255 0 0 255 0 0 255 0 0 255 2 0 253 106 0 149 
165 0 90 143 0 112 133 0 122 129 0 126 126 0 129 125 0 130 124 0 131 123 0 132 122 0 133 121 0 134 120 0 135 120 0 135 120 0 135 120 0 135 120 0 135 121 0 134 122 0 133 122 0 133 123 0 132 123 0 132 124 0 131 125 0 130 125 0 130 125 0 130 124 0 131 123 0 132 122 0 133 121 0 134 120 0 135 120 0 135 120 0 135 120 0 135 120 0 135 120 0 135 120 0 135 121 0 134 121 0 134 123 0 132 124 0 131 125 0 130 127 0 128 128 0 127 129 0 126 129 0 126 129 0 126 128 0 127 127 0 128 127 0 128 126 0 129 126 0 129 126 0 129 126 0 129 126 0 129 125 0 130 125 0 130 124 0 131 124 0 131 123 0 132 122 0 133 122 0 133 121 0 134 120 0 135 120 0 135 120 0 135 121 0 134 122 0 133 122 0 133 123 0 132 123 0 132 124 0 131 125 0 130 125 0 130 127 0 128 128 0 127 130 0 125 132 0 123 134 0 121 135 0 120 135 0 120 134 0 121 133 0 122 130 0 125 128 0 127 126 0 129 124 0 131 124 0 131 124 0 131 125 0 130 126 0 129 127 0 128 127 0 128 127 0 128 128 0 127 128 0 127 129 0 126 130 0 125 131 0 124 132 0 123 131 0 124 130 0 125 127 0 128 124 0 131 120 0 135 117 0 138 114 0 141 112 0 143 112 0 143 112 0 143 113 0 142 115 0 140 117 0 138 120 0 135 122 0 133 124 0 131 125 0 130 126 0 129 127 0 128 127 0 128 127 0 128 127 0 128 127 0 128 127 0 128 126 0 129 126 0 129 126 0 129 126 0 129 126 0 129 126 0 129 126 0 129 125 0 130 125 0 130 124 0 131 124 0 131 124 0 131 123 0 132 123 0 132 123 0 132 123 0 132 123 0 132 123 0 132 123 0 132 123 0 132 122 0 133 120 0 135 118 0 137 114 0 141 107 0 148 96 0 159 80 0 175 58 0 197 31 0 224 0 0 255 0 0 255 0 0 255 0 0 255 0 0 255 0 0 255 0 0 255 0 0 255 0 0 255 0 0 255 0 0 255 0 0 255 0 0 255 0 0 255 0 0 255 0 0 255 0 0 255 0 0 255 0 0 255 0 0 255 0 0 255 0 0 255 0 0 255 0 0 255 0 0 255 0 0 255 0 0 255 0 0 255 0 0 255 0 0 255 0 0 255 0 0 255 0 0 255 0 0 255 0 0 255 0 0 255 0 0 255 0 0 255 0 0 255 0 0 255 0 0 255 0 0 255 0 0 255 0 0 255 0 0 255 0 0 255 0 0 255 2 0 253 118 0 137 
189 0 66 145 0 110 131 0 124 127 0 128 125 0 130 124 0 131 124 0 131 123 0 132 123 0 132 122 0 133 121 0 134 121 0 134 121 0 134 121 0 134 121 0 134 121 0 134 121 0 134 121 0 134 122 0 133 123 0 132 124 0 131 125 0 130 125 0 130 126 0 129 125 0 130 125 0 130 124 0 131 123 0 132 122 0 133 122 0 133 121 0 134 121 0 134 121 0 134 120 0 135 121 0 134 121 0 134 122 0 133 123 0 132 124 0 131 125 0 130 126 0 129 127 0 128 128 0 127 128 0 127 128 0 127 127 0 128 127 0 128 126 0 129 125 0 130 125 0 130 125 0 130 125 0 130 124 0 131 124 0 131 124 0 131 123 0 132 123 0 132 123 0 132 122 0 133 122 0 133 121 0 134 121 0 134 121 0 134 121 0 134 122 0 133 122 0 133 123 0 132 123 0 132 124 0 131 124 0 131 124 0 131 125 0 130 126 0 129 128 0 127 129 0 126 131 0 124 133 0 122 134 0 121 135 0 120 134 0 121 132 0 123 129 0 126 127 0 128 124 0 131 123 0 132 123 0 132 123 0 132 124 0 131 125 0 130 126 0 129 127 0 128 128 0 127 129 0 126 129 0 126 130 0 125 132 0 123 132 0 123 133 0 122 132 0 123 131 0 124 128 0 127 125 0 130 122 0 133 118 0 137 116 0 139 114 0 141 113 0 142 113 0 142 114 0 141 116 0 139 118 0 137 120 0 135 121 0 134 123 0 132 124 0 131 125 0 130 126 0 129 127 0 128 127 0 128 127 0 128 126 0 129 126 0 129 125 0 130 125 0 130 125 0 130 126 0 129 126 0 129 126 0 129 126 0 129 125 0 130 124 0 131 124 0 131 123 0 132 123 0 132 123 0 132 122 0 133 123 0 132 123 0 132 123 0 132 124 0 131 124 0 131 124 0 131 123 0 132 122 0 133 119 0 136 115 0 140 108 0 147 97 0 158 80 0 175 58 0 197 31 0 224 0 0 255 0 0 255 0 0 255 0 0 255 0 0 255 0 0 255 0 0 255 0 0 255 0 0 255 0 0 255 0 0 255 0 0 255 0 0 255 0 0 255 0 0 255 0 0 255 0 0 255 0 0 255 0 0 255 0 0 255 0 0 255 0 0 255 0 0 255 0 0 255 0 0 255 0 0 255 0 0 255 0 0 255 0 0 255 0 0 255 0 0 255 0 0 255 0 0 255 0 0 255 0 0 255 0 0 255 0 0 255 0 0 255 0 0 255 0 0 255 0 0 255 0 0 255 0 0 255 0 0 255 0 0 255 0 0 255 0 0 255 3 0 252 147 0 108 
97 0 158 116 0 139 121 0 134 122 0 133 123 0 132 124 0 131 124 0 131 124 0 131 124 0 131 123 0 132 123 0 132 122 0 133 122 0 133 121 0 134 121 0 134 121 0 134 121 0 134 121 0 134 122 0 133 123 0 132 124 0 131 125 0 130 126 0 129 127 0 128 127 0 128 126 0 129 126 0 129 125 0 130 124 0 131 124 0 131 123 0 132 122 0 133 122 0 133 121 0 134 121 0 134 122 0 133 122 0 133 123 0 132 124 0 131 125 0 130 126 0 129 126 0 129 127 0 128 127 0 128 127 0 128 126 0 129 126 0 129 125 0 130 125 0 130 124 0 131 124 0 131 124 0 131 123 0 132 123 0 132 123 0 132 123 0 132 123 0 132 123 0 132 123 0 132 122 0 133 122 0 133 122 0 133 122 0 133 122 0 133 123 0 132 123 0 132 124 0 131 124 0 131 124 0 131 124 0 131 124 0 131 125 0 130 126 0 129 127 0 128 129 0 126 131 0 124 132 0 123 134 0 121 134 0 121 133 0 122 131 0 124 128 0 127 125 0 130 123 0 132 122 0 133 121 0 134 122 0 133 123 0 132 125 0 130 126 0 129 127 0 128 128 0 127 129 0 126 130 0 125 131 0 124 132 0 123 133 0 122 133 0 122 133 0 122 131 0 124 129 0 126 126 0 129 123 0 132 120 0 135 118 0 137 116 0 139 115 0 140 115 0 140 116 0 139 117 0 138 118 0 137 119 0 136 121 0 134 122 0 133 123 0 132 124 0 131 125 0 130 126 0 129 126 0 129 126 0 129 125 0 130 125 0 130 124 0 131 124 0 131 125 0 130 125 0 130 126 0 129 126 0 129 126 0 129 125 0 130 124 0 131 123 0 132 123 0 132 122 0 133 122 0 133 122 0 133 123 0 132 123 0 132 125 0 130 126 0 129 126 0 129 126 0 129 126 0 129 124 0 131 121 0 134 116 0 139 109 0 146 98 0 157 81 0 174 58 0 197 31 0 224 0 0 255 0 0 255 0 0 255 0 0 255 0 0 255 0 0 255 0 0 255 0 0 255 0 0 255 0 0 255 0 0 255 0 0 255 0 0 255 0 0 255 0 0 255 0 0 255 0 0 255 0 0 255 0 0 255 0 0 255 0 0 255 0 0 255 0 0 255 0 0 255 0 0 255 0 0 255 0 0 255 0 0 255 0 0 255 0 0 255 0 0 255 0 0 255 0 0 255 0 0 255 0 0 255 0 0 255 0 0 255 0 0 255 0 0 255 0 0 255 0 0 255 0 0 255 0 0 255 0 0 255 0 0 255 0 0 255 0 0 255 2 0 253 120 0 135 
50 0 205 101 0 154 114 0 141 119 0 136 121 0 134 123 0 132 124 0 131 125 0 130 125 0 130 124 0 131 124 0 131 123 0 132 123 0 132 122 0 133 122 0 133 122 0 133 121 0 134 122 0 133 122 0 133 123 0 132 124 0 131 126 0 129 127 0 128 128 0 127 128 0 127 128 0 127 127 0 128 127 0 128 126 0 129 126 0 129 125 0 130 124 0 131 123 0 132 123 0 132 122 0 133 122 0 133 123 0 132 123 0 132 124 0 131 124 0 131 125 0 130 125 0 130 125 0 130 126 0 129 126 0 129 125 0 130 125 0 130 125 0 130 124 0 131 124 0 131 124 0 131 123 0 132 123 0 132 123 0 132 123 0 132 124 0 131 124 0 131 124 0 131 124 0 131 124 0 131 123 0 132 123 0 132 123 0 132 123 0 132 123 0 132 124 0 131 124 0 131 124 0 131 124 0 131 124 0 131 124 0 131 125 0 130 125 0 130 126 0 129 128 0 127 130 0 125 131 0 124 132 0 123 133 0 122 132 0 123 130 0 125 127 0 128 124 0 131 122 0 133 121 0 134 120 0 135 121 0 134 122 0 133 124 0 131 125 0 130 127 0 128 128 0 127 129 0 126 130 0 125 131 0 124 132 0 123 133 0 122 133 0 122 133 0 122 131 0 124 129 0 126 126 0 129 123 0 132 121 0 134 119 0 136 118 0 137 117 0 138 117 0 138 117 0 138 118 0 137 118 0 137 119 0 136 120 0 135 121 0 134 122 0 133 123 0 132 124 0 131 125 0 130 125 0 130 125 0 130 125 0 130 124 0 131 124 0 131 124 0 131 124 0 131 125 0 130 125 0 130 126 0 129 126 0 129 125 0 130 124 0 131 123 0 132 123 0 132 122 0 133 122 0 133 122 0 133 123 0 132 125 0 130 126 0 129 127 0 128 128 0 127 128 0 127 128 0 127 126 0 129 123 0 132 118 0 137 110 0 145 99 0 156 82 0 173 59 0 196 31 0 224 0 0 255 0 0 255 0 0 255 0 0 255 0 0 255 0 0 255 0 0 255 0 0 255 0 0 255 0 0 255 0 0 255 0 0 255 0 0 255 0 0 255 0 0 255 0 0 255 0 0 255 0 0 255 0 0 255 0 0 255 0 0 255 0 0 255 0 0 255 0 0 255 0 0 255 0 0 255 0 0 255 0 0 255 0 0 255 0 0 255 0 0 255 0 0 255 0 0 255 0 0 255 0 0 255 0 0 255 0 0 255 0 0 255 0 0 255 0 0 255 0 0 255 0 0 255 0 0 255 0 0 255 0 0 255 0 0 255 0 0 255 5 0 250 229 0 26 
158 0 97 123 0 132 118 0 137 119 0 136 121 0 134 122 0 133 124 0 131 125 0 130 125 0 130 125 0 130 125 0 130 124 0 131 123 0 132 123 0 132 123 0 132 122 0 133 122 0 133 122 0 133 123 0 132 124 0 131 125 0 130 127 0 128 128 0 127 129 0 126 129 0 126 129 0 126 128 0 127 128 0 127 127 0 128 127 0 128 126 0 129 125 0 130 124 0 131 124 0 131 123 0 132 123 0 132 123 0 132 124 0 131 124 0 131 124 0 131 124 0 131 124 0 131 124 0 131 124 0 131 125 0 130 125 0 130 125 0 130 125 0 130 125 0 130 124 0 131 124 0 131 124 0 131 123 0 132 124 0 131 124 0 131 125 0 130 125 0 130 125 0 130 125 0 130 125 0 130 124 0 131 124 0 131 124 0 131 124 0 131 124 0 131 124 0 131 124 0 131 124 0 131 124 0 131 124 0 131 124 0 131 124 0 131 125 0 130 125 0 130 127 0 128 128 0 127 130 0 125 131 0 124 132 0 123 131 0 124 129 0 126 126 0 129 123 0 132 121 0 134 120 0 135 119 0 136 120 0 135 121 0 134 123 0 132 125 0 130 126 0 129 128 0 127 129 0 126 130 0 125 131 0 124 132 0 123 132 0 123 133 0 122 132 0 123 131 0 124 129 0 126 126 0 129 124 0 131 122 0 133 120 0 135 119 0 136 119 0 136 119 0 136 119 0 136 119 0 136 119 0 136 120 0 135 120 0 135 121 0 134 122 0 133 123 0 132 123 0 132 124 0 131 125 0 130 125 0 130 125 0 130 124 0 131 124 0 131 124 0 131 124 0 131 125 0 130 125 0 130 126 0 129 126 0 129 125 0 130 125 0 130 124 0 131 123 0 132 123 0 132 123 0 132 123 0 132 125 0 130 126 0 129 128 0 127 129 0 126 130 0 125 131 0 124 130 0 125 128 0 127 125 0 130 120 0 135 112 0 143 100 0 155 83 0 172 60 0 195 32 0 223 0 0 255 0 0 255 0 0 255 0 0 255 0 0 255 0 0 255 0 0 255 0 0 255 0 0 255 0 0 255 0 0 255 0 0 255 0 0 255 0 0 255 0 0 255 0 0 255 0 0 255 0 0 255 0 0 255 0 0 255 0 0 255 0 0 255 0 0 255 0 0 255 0 0 255 0 0 255 0 0 255 0 0 255 0 0 255 0 0 255 0 0 255 0 0 255 0 0 255 0 0 255 0 0 255 0 0 255 0 0 255 0 0 255 0 0 255 0 0 255 0 0 255 0 0 255 0 0 255 0 0 255 0 0 255 0 0 255 0 0 255 3 0 252 144 0 111 
101 0 154 115 0 140 117 0 138 118 0 137 120 0 135 122 0 133 124 0 131 125 0 130 126 0 129 126 0 129 125 0 130 124 0 131 124 0 131 123 0 132 123 0 132 123 0 132 123 0 132 123 0 132 124 0 131 125 0 130 126 0 129 128 0 127 129 0 126 129 0 126 129 0 126 129 0 126 129 0 126 128 0 127 128 0 127 127 0 128 127 0 128 126 0 129 125 0 130 124 0 131 124 0 131 124 0 131 124 0 131 124 0 131 124 0 131 123 0 132 123 0 132 123 0 132 123 0 132 123 0 132 124 0 131 124 0 131 125 0 130 125 0 130 125 0 130 125 0 130 124 0 131 124 0 131 124 0 131 124 0 131 125 0 130 126 0 129 126 0 129 127 0 128 126 0 129 126 0 129 125 0 130 124 0 131 124 0 131 123 0 132 123 0 132 123 0 132 123 0 132 123 0 132 123 0 132 123 0 132 123 0 132 123 0 132 124 0 131 124 0 131 125 0 130 127 0 128 128 0 127 130 0 125 130 0 125 130 0 125 128 0 127 125 0 130 123 0 132 121 0 134 119 0 136 119 0 136 120 0 135 121 0 134 122 0 133 124 0 131 125 0 130 127 0 128 129 0 126 130 0 125 131 0 124 132 0 123 132 0 123 132 0 123 132 0 123 130 0 125 128 0 127 126 0 129 124 0 131 122 0 133 121 0 134 120 0 135 120 0 135 120 0 135 120 0 135 120 0 135 120 0 135 120 0 135 120 0 135 121 0 134 121 0 134 122 0 133 123 0 132 123 0 132 124 0 131 125 0 130 125 0 130 124 0 131 124 0 131 124 0 131 124 0 131 125 0 130 126 0 129 126 0 129 126 0 129 126 0 129 126 0 129 125 0 130 124 0 131 124 0 131 124 0 131 125 0 130 127 0 128 128 0 127 130 0 125 131 0 124 132 0 123 132 0 123 131 0 124 130 0 125 126 0 129 121 0 134 113 0 142 101 0 154 84 0 171 60 0 195 32 0 223 0 0 255 0 0 255 0 0 255 0 0 255 0 0 255 0 0 255 0 0 255 0 0 255 0 0 255 0 0 255 0 0 255 0 0 255 0 0 255 0 0 255 0 0 255 0 0 255 0 0 255 0 0 255 0 0 255 0 0 255 0 0 255 0 0 255 0 0 255 0 0 255 0 0 255 0 0 255 0 0 255 0 0 255 0 0 255 0 0 255 0 0 255 0 0 255 0 0 255 0 0 255 0 0 255 0 0 255 0 0 255 0 0 255 0 0 255 0 0 255 0 0 255 0 0 255 0 0 255 0 0 255 0 0 255 0 0 255 0 0 255 2 0 253 106 0 149 
144 0 111 119 0 136 116 0 139 118 0 137 120 0 135 123 0 132 125 0 130 126 0 129 126 0 129 126 0 129 125 0 130 125 0 130 124 0 131 124 0 131 124 0 131 124 0 131 124 0 131 124 0 131 125 0 130 126 0 129 127 0 128 128 0 127 129 0 126 129 0 126 129 0 126 128 0 127 128 0 127 128 0 127 127 0 128 127 0 128 126 0 129 126 0 129 125 0 130 124 0 131 124 0 131 124 0 131 124 0 131 124 0 131 123 0 132 123 0 132 122 0 133 122 0 133 122 0 133 123 0 132 123 0 132 124 0 131 125 0 130 125 0 130 125 0 130 125 0 130 125 0 130 125 0 130 125 0 130 126 0 129 126 0 129 127 0 128 127 0 128 127 0 128 127 0 128 126 0 129 125 0 130 124 0 131 123 0 132 122 0 133 121 0 134 121 0 134 121 0 134 121 0 134 121 0 134 122 0 133 122 0 133 122 0 133 122 0 133 123 0 132 124 0 131 125 0 130 127 0 128 128 0 127 129 0 126 128 0 127 127 0 128 125 0 130 122 0 133 120 0 135 119 0 136 119 0 136 119 0 136 120 0 135 122 0 133 123 0 132 125 0 130 127 0 128 128 0 127 130 0 125 131 0 124 132 0 123 132 0 123 132 0 123 131 0 124 130 0 125 128 0 127 126 0 129 124 0 131 122 0 133 121 0 134 121 0 134 121 0 134 121 0 134 121 0 134 121 0 134 121 0 134 121 0 134 121 0 134 121 0 134 121 0 134 121 0 134 122 0 133 123 0 132 124 0 131 125 0 130 125 0 130 125 0 130 125 0 130 125 0 130 125 0 130 126 0 129 127 0 128 127 0 128 128 0 127 127 0 128 127 0 128 127 0 128 126 0 129 126 0 129 127 0 128 128 0 127 129 0 126 131 0 124 132 0 123 133 0 122 134 0 121 133 0 122 132 0 123 130 0 125 127 0 128 122 0 133 114 0 141 102 0 153 84 0 171 61 0 194 32 0 223 0 0 255 0 0 255 0 0 255 0 0 255 0 0 255 0 0 255 0 0 255 0 0 255 0 0 255 0 0 255 0 0 255 0 0 255 0 0 255 0 0 255 0 0 255 0 0 255 0 0 255 0 0 255 0 0 255 0 0 255 0 0 255 0 0 255 0 0 255 0 0 255 0 0 255 0 0 255 0 0 255 0 0 255 0 0 255 0 0 255 0 0 255 0 0 255 0 0 255 0 0 255 0 0 255 0 0 255 0 0 255 0 0 255 0 0 255 0 0 255 0 0 255 0 0 255 0 0 255 0 0 255 0 0 255 0 0 255 0 0 255 2 0 253 101 0 154 
56 0 199 101 0 154 112 0 143 117 0 138 121 0 134 123 0 132 125 0 130 126 0 129 127 0 128 126 0 129 126 0 129 125 0 130 125 0 130 124 0 131 125 0 130 125 0 130 125 0 130 125 0 130 126 0 129 126 0 129 127 0 128 128 0 127 128 0 127 128 0 127 128 0 127 127 0 128 127 0 128 126 0 129 126 0 129 126 0 129 125 0 130 125 0 130 125 0 130 124 0 131 124 0 131 124 0 131 124 0 131 124 0 131 123 0 132 123 0 132 122 0 133 122 0 133 122 0 133 122 0 133 123 0 132 124 0 131 125 0 130 125 0 130 125 0 130 125 0 130 126 0 129 126 0 129 126 0 129 127 0 128 127 0 128 128 0 127 128 0 127 128 0 127 127 0 128 126 0 129 124 0 131 123 0 132 121 0 134 120 0 135 119 0 136 119 0 136 119 0 136 119 0 136 120 0 135 121 0 134 121 0 134 121 0 134 121 0 134 121 0 134 122 0 133 123 0 132 125 0 130 126 0 129 127 0 128 127 0 128 126 0 129 124 0 131 122 0 133 121 0 134 120 0 135 119 0 136 120 0 135 121 0 134 122 0 133 123 0 132 125 0 130 126 0 129 128 0 127 130 0 125 131 0 124 132 0 123 132 0 123 132 0 123 131 0 124 130 0 125 128 0 127 126 0 129 124 0 131 123 0 132 122 0 133 122 0 133 122 0 133 122 0 133 122 0 133 122 0 133 122 0 133 121 0 134 121 0 134 121 0 134 121 0 134 121 0 134 121 0 134 123 0 132 124 0 131 125 0 130 125 0 130 126 0 129 125 0 130 126 0 129 126 0 129 127 0 128 127 0 128 128 0 127 129 0 126 129 0 126 129 0 126 129 0 126 129 0 126 129 0 126 129 0 126 130 0 125 131 0 124 132 0 123 133 0 122 134 0 121 134 0 121 134 0 121 132 0 123 130 0 125 127 0 128 122 0 133 114 0 141 102 0 153 84 0 171 61 0 194 32 0 223 0 0 255 0 0 255 0 0 255 0 0 255 0 0 255 0 0 255 0 0 255 0 0 255 0 0 255 0 0 255 0 0 255 0 0 255 0 0 255 0 0 255 0 0 255 0 0 255 0 0 255 0 0 255 0 0 255 0 0 255 0 0 255 0 0 255 0 0 255 0 0 255 0 0 255 0 0 255 0 0 255 0 0 255 0 0 255 0 0 255 0 0 255 0 0 255 0 0 255 0 0 255 0 0 255 0 0 255 0 0 255 0 0 255 0 0 255 0 0 255 0 0 255 0 0 255 0 0 255 0 0 255 0 0 255 0 0 255 0 0 255 3 0 252 130 0 125 
142 0 113 115 0 140 115 0 140 119 0 136 122 0 133 124 0 131 126 0 129 127 0 128 127 0 128 127 0 128 126 0 129 126 0 129 125 0 130 125 0 130 126 0 129 126 0 129 126 0 129 126 0 129 126 0 129 126 0 129 126 0 129 126 0 129 126 0 129 126 0 129 126 0 129 125 0 130 125 0 130 124 0 131 124 0 131 124 0 131 124 0 131 124 0 131 124 0 131 123 0 132 123 0 132 123 0 132 123 0 132 123 0 132 123 0 132 123 0 132 122 0 133 122 0 133 122 0 133 122 0 133 123 0 132 124 0 131 124 0 131 125 0 130 125 0 130 126 0 129 126 0 129 126 0 129 127 0 128 127 0 128 128 0 127 128 0 127 128 0 127 128 0 127 127 0 128 125 0 130 123 0 132 122 0 133 120 0 135 119 0 136 118 0 137 117 0 138 117 0 138 118 0 137 119 0 136 119 0 136 120 0 135 120 0 135 120 0 135 120 0 135 120 0 135 121 0 134 123 0 132 124 0 131 125 0 130 125 0 130 124 0 131 123 0 132 122 0 133 121 0 134 120 0 135 120 0 135 121 0 134 121 0 134 122 0 133 124 0 131 125 0 130 127 0 128 128 0 127 130 0 125 131 0 124 132 0 123 132 0 123 132 0 123 131 0 124 130 0 125 128 0 127 127 0 128 125 0 130 124 0 131 123 0 132 123 0 132 123 0 132 123 0 132 122 0 133 122 0 133 122 0 133 121 0 134 121 0 134 120 0 135 120 0 135 120 0 135 121 0 134 122 0 133 124 0 131 125 0 130 126 0 129 126 0 129 126 0 129 126 0 129 126 0 129 127 0 128 128 0 127 129 0 126 130 0 125 131 0 124 131 0 124 131 0 124 131 0 124 131 0 124 131 0 124 132 0 123 133 0 122 134 0 121 134 0 121 134 0 121 134 0 121 133 0 122 132 0 123 130 0 125 127 0 128 122 0 133 114 0 141 101 0 154 84 0 171 60 0 195 32 0 223 0 0 255 0 0 255 0 0 255 0 0 255 0 0 255 0 0 255 0 0 255 0 0 255 0 0 255 0 0 255 0 0 255 0 0 255 0 0 255 0 0 255 0 0 255 0 0 255 0 0 255 0 0 255 0 0 255 0 0 255 0 0 255 0 0 255 0 0 255 0 0 255 0 0 255 0 0 255 0 0 255 0 0 255 0 0 255 0 0 255 0 0 255 0 0 255 0 0 255 0 0 255 0 0 255 0 0 255 0 0 255 0 0 255 0 0 255 0 0 255 0 0 255 0 0 255 0 0 255 0 0 255 0 0 255 0 0 255 0 0 255 2 0 253 112 0 143 
52 0 203 102 0 153 115 0 140 120 0 135 123 0 132 125 0 130 126 0 129 127 0 128 127 0 128 127 0 128 127 0 128 126 0 129 126 0 129 127 0 128 127 0 128 127 0 128 127 0 128 127 0 128 126 0 129 126 0 129 125 0 130 125 0 130 124 0 131 124 0 131 124 0 131 123 0 132 123 0 132 123 0 132 123 0 132 123 0 132 123 0 132 123 0 132 123 0 132 123 0 132 123 0 132 123 0 132 123 0 132 123 0 132 123 0 132 123 0 132 123 0 132 123 0 132 122 0 133 123 0 132 123 0 132 123 0 132 124 0 131 124 0 131 125 0 130 126 0 129 126 0 129 127 0 128 127 0 128 128 0 127 128 0 127 129 0 126 128 0 127 128 0 127 126 0 129 125 0 130 123 0 132 121 0 134 119 0 136 117 0 138 116 0 139 116 0 139 116 0 139 117 0 138 118 0 137 119 0 136 119 0 136 119 0 136 119 0 136 119 0 136 119 0 136 120 0 135 121 0 134 122 0 133 123 0 132 123 0 132 123 0 132 123 0 132 122 0 133 121 0 134 121 0 134 121 0 134 122 0 133 122 0 133 123 0 132 124 0 131 126 0 129 127 0 128 129 0 126 130 0 125 132 0 123 132 0 123 133 0 122 132 0 123 132 0 123 130 0 125 129 0 126 128 0 127 126 0 129 125 0 130 124 0 131 124 0 131 123 0 132 123 0 132 122 0 133 122 0 133 122 0 133 121 0 134 121 0 134 120 0 135 120 0 135 120 0 135 121 0 134 122 0 133 123 0 132 125 0 130 125 0 130 126 0 129 126 0 129 126 0 129 126 0 129 127 0 128 128 0 127 130 0 125 131 0 124 131 0 124 132 0 123 132 0 123 132 0 123 132 0 123 133 0 122 133 0 122 133 0 122 134 0 121 134 0 121 134 0 121 133 0 122 132 0 123 130 0 125 128 0 127 125 0 130 120 0 135 113 0 142 101 0 154 83 0 172 60 0 195 32 0 223 0 0 255 0 0 255 0 0 255 0 0 255 0 0 255 0 0 255 0 0 255 0 0 255 0 0 255 0 0 255 0 0 255 0 0 255 0 0 255 0 0 255 0 0 255 0 0 255 0 0 255 0 0 255 0 0 255 0 0 255 0 0 255 0 0 255 0 0 255 0 0 255 0 0 255 0 0 255 0 0 255 0 0 255 0 0 255 0 0 255 0 0 255 0 0 255 0 0 255 0 0 255 0 0 255 0 0 255 0 0 255 0 0 255 0 0 255 0 0 255 0 0 255 0 0 255 0 0 255 0 0 255 0 0 255 0 0 255 0 0 255 2 0 253 98 0 157 
156 0 99 125 0 130 121 0 134 122 0 133 124 0 131 125 0 130 126 0 129 127 0 128 127 0 128 127 0 128 127 0 128 127 0 128 128 0 127 128 0 127 128 0 127 128 0 127 128 0 127 127 0 128 126 0 129 125 0 130 124 0 131 123 0 132 122 0 133 122 0 133 122 0 133 121 0 134 121 0 134 122 0 133 122 0 133 122 0 133 122 0 133 122 0 133 122 0 133 122 0 133 122 0 133 122 0 133 122 0 133 123 0 132 123 0 132 123 0 132 123 0 132 123 0 132 123 0 132 123 0 132 123 0 132 123 0 132 123 0 132 124 0 131 125 0 130 126 0 129 126 0 129 127 0 128 128 0 127 128 0 127 129 0 126 129 0 126 129 0 126 128 0 127 126 0 129 124 0 131 122 0 133 120 0 135 118 0 137 117 0 138 115 0 140 115 0 140 115 0 140 116 0 139 118 0 137 119 0 136 119 0 136 119 0 136 119 0 136 118 0 137 118 0 137 119 0 136 119 0 136 120 0 135 121 0 134 122 0 133 122 0 133 122 0 133 122 0 133 122 0 133 122 0 133 122 0 133 123 0 132 124 0 131 124 0 131 125 0 130 127 0 128 128 0 127 130 0 125 131 0 124 132 0 123 133 0 122 133 0 122 133 0 122 132 0 123 131 0 124 130 0 125 128 0 127 127 0 128 126 0 129 125 0 130 124 0 131 124 0 131 123 0 132 122 0 133 121 0 134 121 0 134 120 0 135 120 0 135 120 0 135 119 0 136 120 0 135 120 0 135 122 0 133 123 0 132 124 0 131 125 0 130 125 0 130 125 0 130 125 0 130 126 0 129 127 0 128 128 0 127 129 0 126 130 0 125 131 0 124 132 0 123 132 0 123 132 0 123 133 0 122 133 0 122 133 0 122 133 0 122 133 0 122 133 0 122 132 0 123 131 0 124 130 0 125 129 0 126 127 0 128 124 0 131 119 0 136 112 0 143 100 0 155 83 0 172 60 0 195 32 0 223 0 0 255 0 0 255 0 0 255 0 0 255 0 0 255 0 0 255 0 0 255 0 0 255 0 0 255 0 0 255 0 0 255 0 0 255 0 0 255 0 0 255 0 0 255 0 0 255 0 0 255 0 0 255 0 0 255 0 0 255 0 0 255 0 0 255 0 0 255 0 0 255 0 0 255 0 0 255 0 0 255 0 0 255 0 0 255 0 0 255 0 0 255 0 0 255 0 0 255 0 0 255 0 0 255 0 0 255 0 0 255 0 0 255 0 0 255 0 0 255 0 0 255 0 0 255 0 0 255 0 0 255 0 0 255 0 0 255 0 0 255 3 0 252 162 0 93 
124 0 131 122 0 133 122 0 133 123 0 132 124 0 131 125 0 130 126 0 129 127 0 128 127 0 128 127 0 128 128 0 127 128 0 127 129 0 126 129 0 126 129 0 126 129 0 126 129 0 126 128 0 127 126 0 129 124 0 131 123 0 132 122 0 133 121 0 134 120 0 135 120 0 135 120 0 135 121 0 134 121 0 134 121 0 134 121 0 134 121 0 134 121 0 134 121 0 134 121 0 134 121 0 134 121 0 134 122 0 133 123 0 132 123 0 132 124 0 131 124 0 131 124 0 131 123 0 132 123 0 132 123 0 132 123 0 132 123 0 132 124 0 131 124 0 131 125 0 130 126 0 129 127 0 128 128 0 127 128 0 127 129 0 126 129 0 126 129 0 126 128 0 127 127 0 128 125 0 130 123 0 132 121 0 134 119 0 136 117 0 138 116 0 139 115 0 140 116 0 139 117 0 138 118 0 137 119 0 136 120 0 135 120 0 135 119 0 136 118 0 137 118 0 137 118 0 137 119 0 136 119 0 136 120 0 135 121 0 134 121 0 134 122 0 133 122 0 133 122 0 133 122 0 133 123 0 132 124 0 131 124 0 131 125 0 130 126 0 129 127 0 128 129 0 126 130 0 125 132 0 123 133 0 122 133 0 122 134 0 121 133 0 122 132 0 123 131 0 124 130 0 125 129 0 126 128 0 127 127 0 128 126 0 129 125 0 130 123 0 132 122 0 133 121 0 134 120 0 135 120 0 135 119 0 136 119 0 136 119 0 136 119 0 136 119 0 136 120 0 135 121 0 134 122 0 133 124 0 131 124 0 131 124 0 131 124 0 131 124 0 131 124 0 131 125 0 130 126 0 129 127 0 128 129 0 126 130 0 125 131 0 124 131 0 124 131 0 124 132 0 123 132 0 123 132 0 123 131 0 124 131 0 124 130 0 125 130 0 125 129 0 126 128 0 127 127 0 128 125 0 130 123 0 132 119 0 136 112 0 143 100 0 155 83 0 172 60 0 195 32 0 223 0 0 255 0 0 255 0 0 255 0 0 255 0 0 255 0 0 255 0 0 255 0 0 255 0 0 255 0 0 255 0 0 255 0 0 255 0 0 255 0 0 255 0 0 255 0 0 255 0 0 255 0 0 255 0 0 255 0 0 255 0 0 255 0 0 255 0 0 255 0 0 255 0 0 255 0 0 255 0 0 255 0 0 255 0 0 255 0 0 255 0 0 255 0 0 255 0 0 255 0 0 255 0 0 255 0 0 255 0 0 255 0 0 255 0 0 255 0 0 255 0 0 255 0 0 255 0 0 255 0 0 255 0 0 255 0 0 255 0 0 255 1 0 254 71 0 184 
99 0 156 118 0 137 121 0 134 122 0 133 123 0 132 124 0 131 125 0 130 126 0 129 126 0 129 127 0 128 128 0 127 129 0 126 129 0 126 130 0 125 130 0 125 130 0 125 129 0 126 128 0 127 126 0 129 124 0 131 122 0 133 121 0 134 120 0 135 120 0 135 120 0 135 120 0 135 121 0 134 121 0 134 121 0 134 121 0 134 121 0 134 121 0 134 120 0 135 120 0 135 121 0 134 121 0 134 122 0 133 123 0 132 124 0 131 124 0 131 124 0 131 124 0 131 124 0 131 123 0 132 123 0 132 123 0 132 123 0 132 123 0 132 124 0 131 125 0 130 126 0 129 127 0 128 128 0 127 128 0 127 129 0 126 129 0 126 129 0 126 129 0 126 128 0 127 126 0 129 124 0 131 122 0 133 119 0 136 118 0 137 117 0 138 116 0 139 117 0 138 118 0 137 119 0 136 120 0 135 121 0 134 120 0 135 120 0 135 119 0 136 118 0 137 118 0 137 118 0 137 119 0 136 120 0 135 120 0 135 121 0 134 121 0 134 122 0 133 122 0 133 123 0 132 123 0 132 124 0 131 125 0 130 126 0 129 127 0 128 128 0 127 129 0 126 131 0 124 132 0 123 133 0 122 134 0 121 134 0 121 133 0 122 132 0 123 131 0 124 130 0 125 129 0 126 128 0 127 127 0 128 126 0 129 124 0 131 123 0 132 121 0 134 120 0 135 119 0 136 118 0 137 118 0 137 118 0 137 118 0 137 118 0 137 119 0 136 119 0 136 121 0 134 122 0 133 123 0 132 123 0 132 123 0 132 123 0 132 123 0 132 123 0 132 123 0 132 124 0 131 125 0 130 126 0 129 127 0 128 128 0 127 129 0 126 129 0 126 130 0 125 130 0 125 129 0 126 129 0 126 128 0 127 127 0 128 127 0 128 126 0 129 125 0 130 124 0 131 123 0 132 122 0 133 118 0 137 111 0 144 100 0 155 83 0 172 60 0 195 32 0 223 0 0 255 0 0 255 0 0 255 0 0 255 0 0 255 0 0 255 0 0 255 0 0 255 0 0 255 0 0 255 0 0 255 0 0 255 0 0 255 0 0 255 0 0 255 0 0 255 0 0 255 0 0 255 0 0 255 0 0 255 0 0 255 0 0 255 0 0 255 0 0 255 0 0 255 0 0 255 0 0 255 0 0 255 0 0 255 0 0 255 0 0 255 0 0 255 0 0 255 0 0 255 0 0 255 0 0 255 0 0 255 0 0 255 0 0 255 0 0 255 0 0 255 0 0 255 0 0 255 0 0 255 0 0 255 0 0 255 0 0 255 0 0 255 22 0 233 
159 0 96 128 0 127 122 0 133 122 0 133 122 0 133 123 0 132 124 0 131 125 0 130 125 0 130 126 0 129 127 0 128 129 0 126 130 0 125 131 0 124 131 0 124 131 0 124 130 0 125 128 0 127 126 0 129 124 0 131 122 0 133 120 0 135 120 0 135 120 0 135 120 0 135 121 0 134 121 0 134 122 0 133 122 0 133 122 0 133 121 0 134 121 0 134 120 0 135 121 0 134 121 0 134 122 0 133 122 0 133 123 0 132 124 0 131 124 0 131 124 0 131 124 0 131 123 0 132 123 0 132 123 0 132 122 0 133 123 0 132 123 0 132 124 0 131 125 0 130 125 0 130 126 0 129 127 0 128 128 0 127 129 0 126 129 0 126 130 0 125 129 0 126 129 0 126 127 0 128 125 0 130 123 0 132 121 0 134 119 0 136 118 0 137 118 0 137 118 0 137 119 0 136 120 0 135 121 0 134 122 0 133 121 0 134 120 0 135 119 0 136 119 0 136 118 0 137 118 0 137 119 0 136 120 0 135 120 0 135 121 0 134 121 0 134 121 0 134 122 0 133 122 0 133 123 0 132 124 0 131 125 0 130 126 0 129 127 0 128 128 0 127 129 0 126 131 0 124 132 0 123 133 0 122 133 0 122 133 0 122 133 0 122 132 0 123 131 0 124 129 0 126 128 0 127 127 0 128 126 0 129 125 0 130 124 0 131 122 0 133 120 0 135 119 0 136 118 0 137 117 0 138 117 0 138 117 0 138 117 0 138 118 0 137 118 0 137 119 0 136 120 0 135 121 0 134 122 0 133 122 0 133 122 0 133 122 0 133 121 0 134 121 0 134 121 0 134 121 0 134 122 0 133 123 0 132 125 0 130 126 0 129 126 0 129 127 0 128 127 0 128 127 0 128 126 0 129 126 0 129 125 0 130 124 0 131 123 0 132 123 0 132 122 0 133 122 0 133 122 0 133 121 0 134 118 0 137 111 0 144 101 0 154 84 0 171 61 0 194 32 0 223 0 0 255 0 0 255 0 0 255 0 0 255 0 0 255 0 0 255 0 0 255 0 0 255 0 0 255 0 0 255 0 0 255 0 0 255 0 0 255 0 0 255 0 0 255 0 0 255 0 0 255 0 0 255 0 0 255 0 0 255 0 0 255 0 0 255 0 0 255 0 0 255 0 0 255 0 0 255 0 0 255 0 0 255 0 0 255 0 0 255 0 0 255 0 0 255 0 0 255 0 0 255 0 0 255 0 0 255 0 0 255 0 0 255 0 0 255 0 0 255 0 0 255 0 0 255 0 0 255 0 0 255 0 0 255 0 0 255 0 0 255 2 0 253 89 0 166 
100 0 155 112 0 143 117 0 138 120 0 135 121 0 134 122 0 133 122 0 133 123 0 132 124 0 131 125 0 130 127 0 128 129 0 126 130 0 125 131 0 124 132 0 123 131 0 124 130 0 125 129 0 126 127 0 128 124 0 131 122 0 133 121 0 134 120 0 135 120 0 135 121 0 134 121 0 134 122 0 133 123 0 132 123 0 132 122 0 133 122 0 133 121 0 134 121 0 134 121 0 134 122 0 133 123 0 132 123 0 132 124 0 131 124 0 131 124 0 131 124 0 131 123 0 132 123 0 132 123 0 132 122 0 133 122 0 133 123 0 132 123 0 132 124 0 131 124 0 131 125 0 130 125 0 130 126 0 129 127 0 128 128 0 127 129 0 126 130 0 125 130 0 125 129 0 126 128 0 127 126 0 129 124 0 131 122 0 133 121 0 134 120 0 135 119 0 136 119 0 136 120 0 135 121 0 134 122 0 133 122 0 133 122 0 133 121 0 134 120 0 135 119 0 136 119 0 136 119 0 136 119 0 136 120 0 135 120 0 135 121 0 134 121 0 134 121 0 134 122 0 133 122 0 133 123 0 132 123 0 132 124 0 131 125 0 130 126 0 129 128 0 127 129 0 126 130 0 125 131 0 124 132 0 123 132 0 123 132 0 123 132 0 123 131 0 124 129 0 126 128 0 127 127 0 128 126 0 129 125 0 130 124 0 131 123 0 132 121 0 134 120 0 135 118 0 137 117 0 138 117 0 138 117 0 138 117 0 138 117 0 138 117 0 138 118 0 137 119 0 136 120 0 135 121 0 134 121 0 134 122 0 133 122 0 133 121 0 134 120 0 135 119 0 136 119 0 136 119 0 136 120 0 135 121 0 134 122 0 133 123 0 132 124 0 131 124 0 131 124 0 131 124 0 131 124 0 131 123 0 132 122 0 133 121 0 134 120 0 135 120 0 135 120 0 135 120 0 135 120 0 135 120 0 135 117 0 138 112 0 143 101 0 154 85 0 170 61 0 194 33 0 222 0 0 255 0 0 255 0 0 255 0 0 255 0 0 255 0 0 255 0 0 255 0 0 255 0 0 255 0 0 255 0 0 255 0 0 255 0 0 255 0 0 255 0 0 255 0 0 255 0 0 255 0 0 255 0 0 255 0 0 255 0 0 255 0 0 255 0 0 255 0 0 255 0 0 255 0 0 255 0 0 255 0 0 255 0 0 255 0 0 255 0 0 255 0 0 255 0 0 255 0 0 255 0 0 255 0 0 255 0 0 255 0 0 255 0 0 255 0 0 255 0 0 255 0 0 255 0 0 255 0 0 255 0 0 255 0 0 255 0 0 255 2 0 253 108 0 147 
55 0 200 104 0 151 116 0 139 119 0 136 120 0 135 120 0 135 121 0 134 122 0 133 123 0 132 124 0 131 126 0 129 128 0 127 130 0 125 131 0 124 132 0 123 131 0 124 131 0 124 129 0 126 127 0 128 125 0 130 123 0 132 122 0 133 121 0 134 121 0 134 122 0 133 122 0 133 123 0 132 123 0 132 123 0 132 123 0 132 123 0 132 122 0 133 122 0 133 123 0 132 123 0 132 124 0 131 124 0 131 124 0 131 124 0 131 124 0 131 124 0 131 123 0 132 123 0 132 123 0 132 123 0 132 123 0 132 123 0 132 123 0 132 123 0 132 124 0 131 124 0 131 125 0 130 126 0 129 127 0 128 128 0 127 129 0 126 130 0 125 131 0 124 130 0 125 129 0 126 127 0 128 126 0 129 124 0 131 122 0 133 121 0 134 120 0 135 120 0 135 121 0 134 122 0 133 122 0 133 123 0 132 122 0 133 121 0 134 120 0 135 120 0 135 119 0 136 119 0 136 120 0 135 120 0 135 121 0 134 121 0 134 121 0 134 122 0 133 122 0 133 122 0 133 123 0 132 123 0 132 123 0 132 124 0 131 125 0 130 126 0 129 128 0 127 129 0 126 130 0 125 131 0 124 131 0 124 131 0 124 130 0 125 129 0 126 128 0 127 127 0 128 126 0 129 125 0 130 124 0 131 123 0 132 122 0 133 120 0 135 119 0 136 118 0 137 117 0 138 116 0 139 116 0 139 117 0 138 117 0 138 117 0 138 118 0 137 118 0 137 119 0 136 120 0 135 121 0 134 121 0 134 121 0 134 120 0 135 119 0 136 118 0 137 118 0 137 118 0 137 118 0 137 119 0 136 120 0 135 121 0 134 121 0 134 122 0 133 122 0 133 122 0 133 121 0 134 120 0 135 119 0 136 118 0 137 117 0 138 117 0 138 118 0 137 118 0 137 119 0 136 119 0 136 117 0 138 112 0 143 101 0 154 85 0 170 62 0 193 33 0 222 0 0 255 0 0 255 0 0 255 0 0 255 0 0 255 0 0 255 0 0 255 0 0 255 0 0 255 0 0 255 0 0 255 0 0 255 0 0 255 0 0 255 0 0 255 0 0 255 0 0 255 0 0 255 0 0 255 0 0 255 0 0 255 0 0 255 0 0 255 0 0 255 0 0 255 0 0 255 0 0 255 0 0 255 0 0 255 0 0 255 0 0 255 0 0 255 0 0 255 0 0 255 0 0 255 0 0 255 0 0 255 0 0 255 0 0 255 0 0 255 0 0 255 0 0 255 0 0 255 0 0 255 0 0 255 0 0 255 0 0 255 4 0 251 180 0 75 
193 0 62 134 0 121 123 0 132 120 0 135 119 0 136 119 0 136 120 0 135 121 0 134 122 0 133 124 0 131 126 0 129 128 0 127 129 0 126 131 0 124 131 0 124 131 0 124 131 0 124 130 0 125 128 0 127 126 0 129 124 0 131 123 0 132 123 0 132 122 0 133 123 0 132 123 0 132 123 0 132 124 0 131 123 0 132 123 0 132 123 0 132 123 0 132 123 0 132 124 0 131 124 0 131 124 0 131 125 0 130 124 0 131 124 0 131 124 0 131 124 0 131 124 0 131 124 0 131 124 0 131 124 0 131 124 0 131 124 0 131 124 0 131 124 0 131 124 0 131 124 0 131 124 0 131 125 0 130 126 0 129 128 0 127 130 0 125 131 0 124 131 0 124 131 0 124 130 0 125 128 0 127 127 0 128 125 0 130 123 0 132 122 0 133 121 0 134 121 0 134 121 0 134 121 0 134 122 0 133 122 0 133 122 0 133 121 0 134 121 0 134 120 0 135 120 0 135 120 0 135 120 0 135 121 0 134 122 0 133 122 0 133 123 0 132 123 0 132 123 0 132 123 0 132 123 0 132 123 0 132 123 0 132 123 0 132 124 0 131 125 0 130 126 0 129 127 0 128 128 0 127 129 0 126 129 0 126 129 0 126 129 0 126 128 0 127 127 0 128 126 0 129 125 0 130 124 0 131 123 0 132 123 0 132 121 0 134 120 0 135 119 0 136 118 0 137 117 0 138 117 0 138 117 0 138 117 0 138 118 0 137 118 0 137 118 0 137 118 0 137 119 0 136 120 0 135 120 0 135 121 0 134 121 0 134 120 0 135 119 0 136 118 0 137 117 0 138 116 0 139 117 0 138 117 0 138 118 0 137 119 0 136 120 0 135 120 0 135 120 0 135 120 0 135 119 0 136 118 0 137 117 0 138 116 0 139 115 0 140 115 0 140 116 0 139 117 0 138 118 0 137 118 0 137 117 0 138 111 0 144 101 0 154 85 0 170 62 0 193 33 0 222 0 0 255 0 0 255 0 0 255 0 0 255 0 0 255 0 0 255 0 0 255 0 0 255 0 0 255 0 0 255 0 0 255 0 0 255 0 0 255 0 0 255 0 0 255 0 0 255 0 0 255 0 0 255 0 0 255 0 0 255 0 0 255 0 0 255 0 0 255 0 0 255 0 0 255 0 0 255 0 0 255 0 0 255 0 0 255 0 0 255 0 0 255 0 0 255 0 0 255 0 0 255 0 0 255 0 0 255 0 0 255 0 0 255 0 0 255 0 0 255 0 0 255 0 0 255 0 0 255 0 0 255 0 0 255 0 0 255 0 0 255 4 0 251 180 0 75 
84 0 171 118 0 137 121 0 134 120 0 135 119 0 136 119 0 136 119 0 136 120 0 135 122 0 133 124 0 131 126 0 129 128 0 127 129 0 126 131 0 124 131 0 124 131 0 124 131 0 124 130 0 125 128 0 127 127 0 128 125 0 130 124 0 131 124 0 131 123 0 132 124 0 131 124 0 131 123 0 132 123 0 132 123 0 132 122 0 133 122 0 133 123 0 132 124 0 131 124 0 131 125 0 130 125 0 130 125 0 130 124 0 131 124 0 131 124 0 131 125 0 130 125 0 130 125 0 130 126 0 129 126 0 129 126 0 129 126 0 129 125 0 130 124 0 131 124 0 131 124 0 131 124 0 131 125 0 130 127 0 128 129 0 126 130 0 125 132 0 123 132 0 123 132 0 123 130 0 125 129 0 126 127 0 128 126 0 129 124 0 131 122 0 133 121 0 134 120 0 135 120 0 135 120 0 135 121 0 134 121 0 134 121 0 134 120 0 135 120 0 135 120 0 135 120 0 135 121 0 134 121 0 134 122 0 133 123 0 132 124 0 131 125 0 130 125 0 130 125 0 130 125 0 130 124 0 131 123 0 132 122 0 133 122 0 133 122 0 133 123 0 132 124 0 131 125 0 130 126 0 129 127 0 128 127 0 128 127 0 128 127 0 128 126 0 129 125 0 130 125 0 130 124 0 131 124 0 131 124 0 131 123 0 132 122 0 133 121 0 134 119 0 136 118 0 137 117 0 138 117 0 138 117 0 138 118 0 137 119 0 136 119 0 136 119 0 136 118 0 137 118 0 137 119 0 136 119 0 136 120 0 135 120 0 135 119 0 136 118 0 137 117 0 138 116 0 139 115 0 140 116 0 139 117 0 138 117 0 138 118 0 137 118 0 137 118 0 137 118 0 137 118 0 137 117 0 138 116 0 139 115 0 140 114 0 141 114 0 141 114 0 141 115 0 140 116 0 139 118 0 137 118 0 137 116 0 139 111 0 144 101 0 154 85 0 170 62 0 193 33 0 222 0 0 255 0 0 255 0 0 255 0 0 255 0 0 255 0 0 255 0 0 255 0 0 255 0 0 255 0 0 255 0 0 255 0 0 255 0 0 255 0 0 255 0 0 255 0 0 255 0 0 255 0 0 255 0 0 255 0 0 255 0 0 255 0 0 255 0 0 255 0 0 255 0 0 255 0 0 255 0 0 255 0 0 255 0 0 255 0 0 255 0 0 255 0 0 255 0 0 255 0 0 255 0 0 255 0 0 255 0 0 255 0 0 255 0 0 255 0 0 255 0 0 255 0 0 255 0 0 255 0 0 255 0 0 255 0 0 255 0 0 255 2 0 253 91 0 164 
156 0 99 133 0 122 125 0 130 122 0 133 119 0 136 118 0 137 118 0 137 120 0 135 122 0 133 125 0 130 127 0 128 128 0 127 130 0 125 131 0 124 132 0 123 132 0 123 131 0 124 130 0 125 129 0 126 127 0 128 126 0 129 125 0 130 124 0 131 124 0 131 124 0 131 124 0 131 123 0 132 122 0 133 121 0 134 120 0 135 121 0 134 122 0 133 124 0 131 124 0 131 125 0 130 124 0 131 124 0 131 123 0 132 123 0 132 125 0 130 126 0 129 128 0 127 129 0 126 130 0 125 130 0 125 130 0 125 129 0 126 127 0 128 126 0 129 125 0 130 125 0 130 125 0 130 127 0 128 128 0 127 130 0 125 132 0 123 133 0 122 134 0 121 132 0 123 131 0 124 129 0 126 127 0 128 126 0 129 124 0 131 122 0 133 120 0 135 120 0 135 120 0 135 119 0 136 119 0 136 119 0 136 119 0 136 119 0 136 119 0 136 119 0 136 120 0 135 121 0 134 123 0 132 124 0 131 125 0 130 126 0 129 128 0 127 129 0 126 129 0 126 128 0 127 126 0 129 124 0 131 122 0 133 122 0 133 121 0 134 121 0 134 122 0 133 123 0 132 124 0 131 124 0 131 125 0 130 125 0 130 125 0 130 124 0 131 124 0 131 124 0 131 124 0 131 125 0 130 126 0 129 125 0 130 124 0 131 122 0 133 120 0 135 119 0 136 117 0 138 117 0 138 118 0 137 119 0 136 120 0 135 120 0 135 119 0 136 118 0 137 117 0 138 117 0 138 118 0 137 119 0 136 120 0 135 119 0 136 118 0 137 116 0 139 115 0 140 114 0 141 115 0 140 116 0 139 117 0 138 117 0 138 117 0 138 117 0 138 117 0 138 116 0 139 115 0 140 114 0 141 113 0 142 113 0 142 112 0 143 113 0 142 114 0 141 115 0 140 118 0 137 118 0 137 116 0 139 110 0 145 101 0 154 86 0 169 63 0 192 34 0 221 0 0 255 0 0 255 0 0 255 0 0 255 0 0 255 0 0 255 0 0 255 0 0 255 0 0 255 0 0 255 0 0 255 0 0 255 0 0 255 0 0 255 0 0 255 0 0 255 0 0 255 0 0 255 0 0 255 0 0 255 0 0 255 0 0 255 0 0 255 0 0 255 0 0 255 0 0 255 0 0 255 0 0 255 0 0 255 0 0 255 0 0 255 0 0 255 0 0 255 0 0 255 0 0 255 0 0 255 0 0 255 0 0 255 0 0 255 0 0 255 0 0 255 0 0 255 0 0 255 0 0 255 0 0 255 0 0 255 0 0 255 0 0 255 20 0 235 
147 0 108 132 0 123 126 0 129 122 0 133 120 0 135 117 0 138 117 0 138 120 0 135 125 0 130 128 0 127 129 0 126 131 0 124 132 0 123 133 0 122 133 0 122 132 0 123 131 0 124 130 0 125 128 0 127 126 0 129 125 0 130 124 0 131 123 0 132 125 0 130 124 0 131 123 0 132 122 0 133 120 0 135 118 0 137 117 0 138 117 0 138 119 0 136 123 0 132 124 0 131 124 0 131 123 0 132 121 0 134 120 0 135 122 0 133 125 0 130 129 0 126 132 0 123 134 0 121 136 0 119 137 0 118 136 0 119 134 0 121 130 0 125 127 0 128 125 0 130 125 0 130 127 0 128 129 0 126 131 0 124 132 0 123 133 0 122 136 0 119 136 0 119 134 0 121 130 0 125 127 0 128 126 0 129 125 0 130 123 0 132 121 0 134 119 0 136 119 0 136 119 0 136 118 0 137 116 0 139 116 0 139 117 0 138 116 0 139 117 0 138 118 0 137 121 0 134 122 0 133 124 0 131 126 0 129 127 0 128 130 0 125 133 0 122 134 0 121 134 0 121 132 0 123 129 0 126 124 0 131 123 0 132 122 0 133 119 0 136 118 0 137 119 0 136 121 0 134 121 0 134 121 0 134 121 0 134 122 0 133 123 0 132 122 0 133 122 0 133 124 0 131 125 0 130 128 0 127 130 0 125 130 0 125 127 0 128 124 0 131 122 0 133 120 0 135 117 0 138 116 0 139 118 0 137 121 0 134 123 0 132 121 0 134 120 0 135 117 0 138 115 0 140 114 0 141 115 0 140 118 0 137 120 0 135 119 0 136 117 0 138 115 0 140 112 0 143 112 0 143 114 0 141 116 0 139 117 0 138 116 0 139 114 0 141 114 0 141 115 0 140 115 0 140 113 0 142 112 0 143 112 0 143 111 0 144 111 0 144 111 0 144 112 0 143 115 0 140 119 0 136 119 0 136 115 0 140 109 0 146 102 0 153 88 0 167 66 0 189 36 0 219 0 0 255 0 0 255 0 0 255 0 0 255 0 0 255 0 0 255 0 0 255 0 0 255 0 0 255 0 0 255 0 0 255 0 0 255 0 0 255 0 0 255 0 0 255 0 0 255 0 0 255 0 0 255 0 0 255 0 0 255 0 0 255 0 0 255 0 0 255 0 0 255 0 0 255 0 0 255 0 0 255 0 0 255 0 0 255 0 0 255 0 0 255 0 0 255 0 0 255 0 0 255 0 0 255 0 0 255 0 0 255 0 0 255 0 0 255 0 0 255 0 0 255 0 0 255 0 0 255 0 0 255 0 0 255 0 0 255 0 0 255 1 0 254 84 0 171 
105 0 150 122 0 133 125 0 130 122 0 133 121 0 134 114 0 141 113 0 142 120 0 135 132 0 123 133 0 122 134 0 121 133 0 122 137 0 118 136 0 119 135 0 120 133 0 122 133 0 122 129 0 126 128 0 127 123 0 132 124 0 131 123 0 132 120 0 135 127 0 128 124 0 131 122 0 133 123 0 132 117 0 138 114 0 141 112 0 143 109 0 146 115 0 140 125 0 130 122 0 133 124 0 131 123 0 132 117 0 138 115 0 140 120 0 135 124 0 131 132 0 123 139 0 116 139 0 116 145 0 110 147 0 108 144 0 111 141 0 114 133 0 122 128 0 127 125 0 130 126 0 129 131 0 124 132 0 123 137 0 118 135 0 120 135 0 120 142 0 113 142 0 113 136 0 119 127 0 128 124 0 131 123 0 132 123 0 132 122 0 133 118 0 137 115 0 140 120 0 135 119 0 136 117 0 138 112 0 143 113 0 142 115 0 140 112 0 143 115 0 140 116 0 139 122 0 133 122 0 133 126 0 129 128 0 127 128 0 127 133 0 122 140 0 115 143 0 112 141 0 114 138 0 117 134 0 121 121 0 134 125 0 130 123 0 132 117 0 138 114 0 141 116 0 139 121 0 134 117 0 138 118 0 137 116 0 139 118 0 137 121 0 134 120 0 135 119 0 136 124 0 131 125 0 130 131 0 124 139 0 116 138 0 117 132 0 123 128 0 127 123 0 132 122 0 133 116 0 139 110 0 145 116 0 139 125 0 130 128 0 127 122 0 133 121 0 134 114 0 141 110 0 145 107 0 148 111 0 144 116 0 139 122 0 133 119 0 136 116 0 139 113 0 142 108 0 147 108 0 147 111 0 144 116 0 139 119 0 136 115 0 140 110 0 145 110 0 145 115 0 140 113 0 142 110 0 145 108 0 147 110 0 145 109 0 146 110 0 145 109 0 146 110 0 145 114 0 141 123 0 132 125 0 130 113 0 142 107 0 148 105 0 150 94 0 161 72 0 183 40 0 215 1 0 254 0 0 255 0 0 255 0 0 255 0 0 255 0 0 255 0 0 255 0 0 255 0 0 255 0 0 255 0 0 255 0 0 255 0 0 255 0 0 255 0 0 255 0 0 255 0 0 255 0 0 255 0 0 255 0 0 255 0 0 255 0 0 255 0 0 255 0 0 255 0 0 255 0 0 255 0 0 255 0 0 255 0 0 255 0 0 255 0 0 255 0 0 255 0 0 255 0 0 255 0 0 255 0 0 255 0 0 255 0 0 255 0 0 255 0 0 255 0 0 255 0 0 255 0 0 255 0 0 255 0 0 255 0 0 255 0 0 255 1 0 254 57 0 198 
123 0 132 128 0 127 130 0 125 123 0 132 127 0 128 106 0 149 102 0 153 116 0 139 152 0 103 141 0 114 142 0 113 133 0 122 147 0 108 140 0 115 140 0 115 133 0 122 137 0 118 125 0 130 133 0 122 111 0 144 124 0 131 125 0 130 104 0 151 138 0 117 124 0 131 118 0 137 131 0 124 110 0 145 111 0 144 106 0 149 91 0 164 106 0 149 139 0 116 113 0 142 128 0 127 125 0 130 109 0 146 101 0 154 118 0 137 119 0 136 139 0 116 152 0 103 140 0 115 160 0 95 162 0 93 154 0 101 154 0 101 134 0 121 128 0 127 120 0 135 122 0 133 139 0 116 132 0 123 150 0 105 136 0 119 128 0 127 157 0 98 152 0 103 142 0 113 117 0 138 117 0 138 118 0 137 121 0 134 123 0 132 114 0 141 104 0 151 125 0 130 121 0 134 119 0 136 101 0 154 108 0 147 119 0 136 103 0 152 112 0 143 108 0 147 129 0 126 118 0 137 131 0 124 133 0 122 124 0 131 134 0 121 153 0 102 155 0 100 148 0 107 147 0 108 147 0 108 103 0 152 135 0 120 129 0 126 113 0 142 106 0 149 108 0 147 132 0 123 108 0 147 117 0 138 106 0 149 114 0 141 122 0 133 116 0 139 109 0 146 127 0 128 122 0 133 131 0 124 159 0 96 151 0 104 134 0 121 134 0 121 120 0 135 130 0 125 114 0 141 93 0 162 109 0 146 134 0 121 141 0 114 117 0 138 127 0 128 109 0 146 103 0 152 94 0 161 103 0 152 114 0 141 134 0 121 117 0 138 113 0 142 114 0 141 97 0 158 101 0 154 107 0 148 120 0 135 127 0 128 116 0 139 98 0 157 100 0 155 122 0 133 110 0 145 108 0 147 98 0 157 110 0 145 103 0 152 111 0 144 106 0 149 104 0 151 109 0 146 134 0 121 143 0 112 105 0 150 96 0 159 113 0 142 108 0 147 86 0 169 50 0 205 3 0 252 2 0 253 3 0 252 3 0 252 2 0 253 3 0 252 2 0 253 2 0 253 3 0 252 4 0 251 4 0 251 4 0 251 3 0 252 3 0 252 2 0 253 1 0 254 2 0 253 0 0 255 1 0 254 3 0 252 2 0 253 5 0 250 3 0 252 4 0 251 2 0 253 2 0 253 1 0 254 3 0 252 3 0 252 4 0 251 3 0 252 2 0 253 3 0 252 4 0 251 2 0 253 2 0 253 3 0 252 2 0 253 2 0 253 3 0 252 2 0 253 3 0 252 4 0 251 3 0 252 4 0 251 1 0 254 2 0 253 4 0 251 113 0 142 
132 0 123 138 0 117 143 0 112 111 0 144 161 0 94 79 0 176 75 0 180 89 0 166 221 0 34 136 0 119 160 0 95 111 0 144 177 0 78 140 0 115 152 0 103 121 0 134 158 0 97 102 0 153 167 0 88 65 0 190 136 0 119 147 0 108 34 0 221 198 0 57 114 0 141 96 0 159 173 0 82 81 0 174 112 0 143 110 0 145 44 0 211 80 0 175 210 0 45 65 0 190 148 0 107 139 0 116 95 0 160 61 0 194 132 0 123 94 0 161 153 0 102 192 0 63 108 0 147 192 0 63 188 0 67 156 0 99 188 0 67 121 0 134 128 0 127 107 0 148 104 0 151 170 0 85 107 0 148 196 0 59 132 0 123 86 0 169 205 0 50 168 0 87 163 0 92 81 0 174 111 0 144 109 0 146 119 0 136 134 0 121 113 0 142 60 0 195 156 0 99 119 0 136 139 0 116 65 0 190 101 0 154 148 0 107 68 0 187 124 0 131 75 0 180 170 0 85 90 0 165 147 0 108 150 0 105 100 0 155 127 0 128 181 0 74 179 0 76 150 0 105 154 0 101 206 0 49 7 0 248 182 0 73 145 0 110 100 0 155 90 0 165 79 0 176 190 0 65 67 0 188 136 0 119 77 0 178 107 0 148 136 0 119 114 0 141 74 0 181 155 0 100 103 0 152 115 0 140 214 0 41 174 0 81 120 0 135 156 0 99 91 0 164 165 0 90 119 0 136 37 0 218 95 0 160 161 0 94 185 0 70 76 0 179 162 0 93 90 0 165 98 0 157 62 0 193 95 0 160 101 0 154 182 0 73 103 0 152 104 0 151 135 0 120 64 0 191 92 0 163 95 0 160 130 0 125 152 0 103 123 0 132 68 0 187 69 0 186 163 0 92 98 0 157 111 0 144 67 0 188 130 0 125 84 0 171 123 0 132 102 0 153 90 0 165 85 0 170 159 0 96 208 0 47 65 0 190 60 0 195 142 0 113 136 0 119 114 0 141 68 0 187 89 0 166 122 0 133 157 0 98 164 0 91 108 0 147 150 0 105 125 0 130 82 0 173 146 0 109 173 0 82 174 0 81 178 0 77 136 0 119 141 0 114 101 0 154 66 0 189 113 0 142 37 0 218 54 0 201 149 0 106 110 0 145 220 0 35 156 0 99 187 0 68 99 0 156 123 0 132 76 0 179 141 0 114 161 0 94 194 0 61 141 0 114 101 0 154 125 0 130 186 0 69 122 0 133 120 0 135 149 0 106 101 0 154 103 0 152 164 0 91 124 0 131 129 0 126 175 0 80 159 0 96 184 0 71 65 0 190 107 0 148 96 0 159 118 0 137 
