P3
200 200
255
209 0 46 121 0 134 192 0 63 93 0 162 180 0 75 78 0 177 101 0 154 139 0 116 147 0 108 106 0 149 45 0 210 164 0 91 136 0 119 122 0 133 105 0 150 135 0 120 83 0 172 167 0 88 162 0 93 209 0 46 96 0 159 57 0 198 74 0 181 149 0 106 119 0 136 140 0 115 153 0 102 137 0 118 148 0 107 173 0 82 142 0 113 101 0 154 175 0 80 173 0 82 152 0 103 85 0 170 136 0 119 116 0 139 163 0 92 129 0 126 85 0 170 157 0 98 140 0 115 127 0 128 200 0 55 130 0 125 60 0 195 112 0 143 78 0 177 77 0 178 157 0 98 73 0 182 100 0 155 188 0 67 113 0 142 121 0 134 103 0 152 133 0 122 136 0 119 136 0 119 102 0 153 93 0 162 130 0 125 136 0 119 124 0 131 69 0 186 113 0 142 93 0 162 48 0 207 52 0 203 157 0 98 110 0 145 116 0 139 231 0 24 119 0 136 113 0 142 177 0 78 159 0 96 135 0 120 53 0 202 126 0 129 133 0 122 62 0 193 13 0 242 143 0 112 51 0 204 78 0 177 75 0 180 139 0 116 104 0 151 74 0 181 193 0 62 180 0 75 120 0 135 158 0 97 206 0 49 215 0 40 130 0 125 179 0 76 161 0 94 212 0 43 72 0 183 153 0 102 99 0 156 152 0 103 46 0 209 114 0 141 73 0 182 80 0 175 105 0 150 76 0 179 85 0 170 136 0 119 86 0 169 158 0 97 165 0 90 200 0 55 136 0 119 136 0 119 130 0 125 180 0 75 153 0 102 73 0 182 130 0 125 187 0 68 153 0 102 153 0 102 154 0 101 78 0 177 108 0 147 109 0 146 8 0 247 124 0 131 157 0 98 117 0 138 120 0 135 88 0 167 96 0 159 179 0 76 121 0 134 113 0 142 200 0 55 84 0 171 205 0 50 138 0 117 220 0 35 103 0 152 80 0 175 78 0 177 106 0 149 129 0 126 203 0 52 58 0 197 71 0 184 122 0 133 102 0 153 124 0 131 51 0 204 168 0 87 90 0 165 97 0 158 177 0 78 209 0 46 154 0 101 170 0 85 127 0 128 101 0 154 101 0 154 140 0 115 105 0 150 204 0 51 127 0 128 80 0 175 111 0 144 83 0 172 141 0 114 124 0 131 140 0 115 142 0 113 173 0 82 81 0 174 131 0 124 96 0 159 134 0 121 185 0 70 79 0 176 181 0 74 187 0 68 67 0 188 124 0 131 68 0 187 124 0 131 173 0 82 177 0 78 120 0 135 96 0 159 65 0 190 128 0 127 139 0 116 197 0 58 
158 0 97 135 0 120 145 0 110 125 0 130 136 0 119 113 0 142 115 0 140 126 0 129 127 0 128 112 0 143 100 0 155 128 0 127 127 0 128 122 0 133 118 0 137 124 0 131 119 0 136 142 0 113 148 0 107 152 0 103 117 0 138 97 0 158 102 0 153 124 0 131 125 0 130 133 0 122 138 0 117 137 0 118 142 0 113 147 0 108 138 0 117 129 0 126 147 0 108 149 0 106 138 0 117 119 0 136 128 0 127 127 0 128 137 0 118 128 0 127 119 0 136 136 0 119 136 0 119 136 0 119 149 0 106 127 0 128 102 0 153 107 0 148 100 0 155 103 0 152 122 0 133 108 0 147 118 0 137 140 0 115 125 0 130 122 0 133 119 0 136 126 0 129 128 0 127 125 0 130 114 0 141 111 0 144 121 0 134 123 0 132 116 0 139 101 0 154 106 0 149 98 0 157 86 0 169 93 0 162 124 0 131 124 0 131 133 0 122 161 0 94 137 0 118 133 0 122 146 0 109 141 0 114 125 0 130 102 0 153 113 0 142 111 0 144 88 0 167 76 0 179 103 0 152 87 0 168 92 0 163 99 0 156 118 0 137 115 0 140 117 0 138 151 0 104 155 0 100 145 0 110 157 0 98 175 0 80 176 0 79 155 0 100 161 0 94 158 0 97 160 0 95 124 0 131 131 0 124 118 0 137 121 0 134 94 0 161 102 0 153 93 0 162 95 0 160 101 0 154 97 0 158 103 0 152 119 0 136 118 0 137 141 0 114 152 0 103 160 0 95 143 0 112 138 0 117 138 0 117 148 0 107 137 0 118 117 0 138 131 0 124 150 0 105 145 0 110 141 0 114 132 0 123 109 0 146 107 0 148 101 0 154 81 0 174 111 0 144 127 0 128 120 0 135 118 0 137 111 0 144 118 0 137 140 0 115 132 0 123 133 0 122 151 0 104 133 0 122 157 0 98 149 0 106 158 0 97 124 0 131 106 0 149 104 0 151 114 0 141 127 0 128 140 0 115 104 0 151 101 0 154 113 0 142 111 0 144 113 0 142 101 0 154 127 0 128 116 0 139 123 0 132 151 0 104 165 0 90 153 0 102 149 0 106 132 0 123 119 0 136 118 0 137 128 0 127 127 0 128 147 0 108 127 0 128 109 0 146 111 0 144 109 0 146 124 0 131 126 0 129 132 0 123 135 0 120 138 0 117 116 0 139 123 0 132 119 0 136 133 0 122 145 0 110 127 0 128 148 0 107 146 0 109 114 0 141 117 0 138 107 0 148 125 0 130 144 0 111 145 0 110 126 0 129 113 0 142 107 0 148 125 0 130 130 0 125 97 0 158 
120 0 135 118 0 137 125 0 130 125 0 130 127 0 128 122 0 133 121 0 134 123 0 132 122 0 133 117 0 138 114 0 141 121 0 134 123 0 132 123 0 132 122 0 133 125 0 130 126 0 129 134 0 121 137 0 118 135 0 120 122 0 133 113 0 142 113 0 142 120 0 135 124 0 131 128 0 127 131 0 124 132 0 123 134 0 121 136 0 119 134 0 121 132 0 123 137 0 118 138 0 117 133 0 122 127 0 128 128 0 127 129 0 126 131 0 124 129 0 126 127 0 128 131 0 124 133 0 122 133 0 122 134 0 121 125 0 130 115 0 140 113 0 142 111 0 144 113 0 142 119 0 136 118 0 137 122 0 133 129 0 126 126 0 129 124 0 131 123 0 132 124 0 131 124 0 131 122 0 133 118 0 137 117 0 138 120 0 135 120 0 135 117 0 138 111 0 144 110 0 145 108 0 147 105 0 150 110 0 145 121 0 134 127 0 128 133 0 122 141 0 114 136 0 119 134 0 121 135 0 120 132 0 123 124 0 131 115 0 140 114 0 141 111 0 144 103 0 152 98 0 157 104 0 151 102 0 153 105 0 150 110 0 145 118 0 137 121 0 134 127 0 128 140 0 115 146 0 109 146 0 109 152 0 103 159 0 96 160 0 95 154 0 101 153 0 102 150 0 105 146 0 109 133 0 122 129 0 126 123 0 132 118 0 137 108 0 147 107 0 148 104 0 151 104 0 151 106 0 149 108 0 147 113 0 142 120 0 135 125 0 130 135 0 120 142 0 113 145 0 110 140 0 115 137 0 118 136 0 119 136 0 119 132 0 123 126 0 129 130 0 125 136 0 119 135 0 120 132 0 123 126 0 129 116 0 139 112 0 143 107 0 148 103 0 152 112 0 143 120 0 135 120 0 135 120 0 135 120 0 135 124 0 131 132 0 123 133 0 122 135 0 120 140 0 115 138 0 117 143 0 112 142 0 113 140 0 115 127 0 128 118 0 137 116 0 139 120 0 135 125 0 130 127 0 128 117 0 138 114 0 141 116 0 139 116 0 139 116 0 139 115 0 140 122 0 133 123 0 132 128 0 127 140 0 115 147 0 108 145 0 110 141 0 114 133 0 122 127 0 128 125 0 130 127 0 128 128 0 127 132 0 123 125 0 130 118 0 137 116 0 139 116 0 139 122 0 133 124 0 131 127 0 128 129 0 126 129 0 126 123 0 132 124 0 131 126 0 129 132 0 123 136 0 119 134 0 121 138 0 117 136 0 119 125 0 130 122 0 133 120 0 135 126 0 129 132 0 123 133 0 122 127 0 128 122 0 133 124 0 131 137 0 118 157 0 98 204 0 51 
22 0 233 90 0 165 113 0 142 122 0 133 125 0 130 124 0 131 124 0 131 124 0 131 122 0 133 120 0 135 119 0 136 121 0 134 122 0 133 123 0 132 124 0 131 126 0 129 128 0 127 131 0 124 132 0 123 130 0 125 124 0 131 119 0 136 118 0 137 121 0 134 123 0 132 125 0 130 127 0 128 128 0 127 129 0 126 129 0 126 129 0 126 130 0 125 132 0 123 132 0 123 131 0 124 129 0 126 129 0 126 129 0 126 130 0 125 129 0 126 129 0 126 130 0 125 130 0 125 130 0 125 129 0 126 125 0 130 120 0 135 118 0 137 117 0 138 118 0 137 120 0 135 122 0 133 124 0 131 126 0 129 126 0 129 125 0 130 124 0 131 124 0 131 123 0 132 122 0 133 120 0 135 120 0 135 120 0 135 120 0 135 119 0 136 117 0 138 116 0 139 116 0 139 116 0 139 119 0 136 124 0 131 128 0 127 132 0 123 134 0 121 133 0 122 132 0 123 130 0 125 128 0 127 123 0 132 119 0 136 117 0 138 115 0 140 112 0 143 110 0 145 111 0 144 112 0 143 113 0 142 117 0 138 121 0 134 125 0 130 130 0 125 136 0 119 141 0 114 143 0 112 146 0 109 149 0 106 150 0 105 148 0 107 147 0 108 144 0 111 141 0 114 134 0 121 130 0 125 124 0 131 120 0 135 115 0 140 112 0 143 110 0 145 111 0 144 112 0 143 115 0 140 118 0 137 123 0 132 127 0 128 132 0 123 136 0 119 138 0 117 136 0 119 134 0 121 133 0 122 131 0 124 129 0 126 127 0 128 127 0 128 129 0 126 129 0 126 127 0 128 124 0 131 119 0 136 116 0 139 113 0 142 112 0 143 115 0 140 119 0 136 121 0 134 122 0 133 123 0 132 126 0 129 130 0 125 132 0 123 134 0 121 136 0 119 136 0 119 137 0 118 136 0 119 133 0 122 128 0 127 123 0 132 122 0 133 123 0 132 125 0 130 126 0 129 123 0 132 121 0 134 121 0 134 121 0 134 120 0 135 120 0 135 123 0 132 124 0 131 128 0 127 134 0 121 137 0 118 138 0 117 136 0 119 132 0 123 129 0 126 127 0 128 127 0 128 127 0 128 127 0 128 124 0 131 121 0 134 120 0 135 120 0 135 122 0 133 123 0 132 124 0 131 125 0 130 125 0 130 124 0 131 125 0 130 128 0 127 131 0 124 134 0 121 134 0 121 135 0 120 133 0 122 128 0 127 125 0 130 124 0 131 125 0 130 127 0 128 128 0 127 126 0 129 127 0 128 131 0 124 142 0 113 158 0 97 183 0 72 
96 0 159 106 0 149 116 0 139 122 0 133 125 0 130 126 0 129 125 0 130 124 0 131 123 0 132 121 0 134 121 0 134 121 0 134 123 0 132 124 0 131 126 0 129 128 0 127 130 0 125 131 0 124 130 0 125 128 0 127 125 0 130 122 0 133 121 0 134 122 0 133 123 0 132 123 0 132 124 0 131 124 0 131 125 0 130 125 0 130 126 0 129 127 0 128 128 0 127 129 0 126 129 0 126 129 0 126 129 0 126 129 0 126 130 0 125 129 0 126 129 0 126 129 0 126 129 0 126 128 0 127 127 0 128 125 0 130 122 0 133 121 0 134 121 0 134 121 0 134 122 0 133 123 0 132 124 0 131 125 0 130 125 0 130 125 0 130 124 0 131 124 0 131 123 0 132 123 0 132 122 0 133 122 0 133 122 0 133 122 0 133 122 0 133 121 0 134 122 0 133 122 0 133 123 0 132 125 0 130 128 0 127 130 0 125 131 0 124 132 0 123 131 0 124 129 0 126 128 0 127 126 0 129 123 0 132 121 0 134 120 0 135 119 0 136 117 0 138 117 0 138 117 0 138 118 0 137 119 0 136 122 0 133 124 0 131 128 0 127 131 0 124 135 0 120 138 0 117 140 0 115 142 0 113 143 0 112 143 0 112 143 0 112 142 0 113 140 0 115 137 0 118 134 0 121 130 0 125 126 0 129 122 0 133 118 0 137 116 0 139 115 0 140 115 0 140 117 0 138 119 0 136 122 0 133 125 0 130 129 0 126 131 0 124 133 0 122 134 0 121 133 0 122 132 0 123 130 0 125 129 0 126 127 0 128 125 0 130 125 0 130 125 0 130 125 0 130 124 0 131 122 0 133 120 0 135 118 0 137 117 0 138 117 0 138 118 0 137 120 0 135 122 0 133 123 0 132 125 0 130 127 0 128 130 0 125 131 0 124 132 0 123 133 0 122 133 0 122 132 0 123 131 0 124 130 0 125 127 0 128 125 0 130 124 0 131 125 0 130 126 0 129 126 0 129 126 0 129 125 0 130 124 0 131 124 0 131 123 0 132 123 0 132 124 0 131 125 0 130 127 0 128 130 0 125 132 0 123 133 0 122 133 0 122 131 0 124 129 0 126 128 0 127 127 0 128 126 0 129 126 0 129 125 0 130 123 0 132 122 0 133 122 0 133 122 0 133 123 0 132 123 0 132 123 0 132 124 0 131 124 0 131 126 0 129 128 0 127 130 0 125 132 0 123 133 0 122 133 0 122 131 0 124 128 0 127 126 0 129 124 0 131 124 0 131 125 0 130 125 0 130 126 0 129 128 0 127 133 0 122 141 0 114 152 0 103 154 0 101 
147 0 108 121 0 134 121 0 134 124 0 131 127 0 128 127 0 128 127 0 128 125 0 130 124 0 131 122 0 133 122 0 133 122 0 133 124 0 131 126 0 129 128 0 127 129 0 126 131 0 124 131 0 124 130 0 125 129 0 126 126 0 129 124 0 131 123 0 132 123 0 132 123 0 132 123 0 132 122 0 133 122 0 133 122 0 133 123 0 132 123 0 132 124 0 131 126 0 129 127 0 128 127 0 128 128 0 127 129 0 126 129 0 126 130 0 125 130 0 125 129 0 126 129 0 126 128 0 127 128 0 127 126 0 129 125 0 130 123 0 132 122 0 133 122 0 133 123 0 132 123 0 132 124 0 131 124 0 131 125 0 130 125 0 130 125 0 130 124 0 131 124 0 131 124 0 131 124 0 131 124 0 131 124 0 131 124 0 131 124 0 131 125 0 130 125 0 130 125 0 130 126 0 129 128 0 127 129 0 126 130 0 125 131 0 124 131 0 124 131 0 124 130 0 125 128 0 127 127 0 128 125 0 130 124 0 131 122 0 133 122 0 133 121 0 134 121 0 134 121 0 134 121 0 134 122 0 133 123 0 132 125 0 130 127 0 128 129 0 126 131 0 124 134 0 121 136 0 119 137 0 118 138 0 117 138 0 117 138 0 117 138 0 117 138 0 117 137 0 118 135 0 120 133 0 122 130 0 125 127 0 128 123 0 132 120 0 135 118 0 137 118 0 137 118 0 137 120 0 135 122 0 133 125 0 130 127 0 128 129 0 126 131 0 124 132 0 123 133 0 122 132 0 123 131 0 124 129 0 126 127 0 128 125 0 130 124 0 131 123 0 132 123 0 132 122 0 133 122 0 133 122 0 133 121 0 134 120 0 135 120 0 135 120 0 135 121 0 134 122 0 133 123 0 132 125 0 130 126 0 129 128 0 127 129 0 126 130 0 125 131 0 124 131 0 124 130 0 125 130 0 125 129 0 126 127 0 128 126 0 129 125 0 130 125 0 130 126 0 129 127 0 128 127 0 128 127 0 128 127 0 128 127 0 128 126 0 129 125 0 130 124 0 131 124 0 131 125 0 130 126 0 129 127 0 128 129 0 126 130 0 125 130 0 125 130 0 125 129 0 126 128 0 127 127 0 128 126 0 129 126 0 129 125 0 130 124 0 131 124 0 131 123 0 132 123 0 132 122 0 133 122 0 133 122 0 133 123 0 132 124 0 131 125 0 130 127 0 128 129 0 126 131 0 124 132 0 123 131 0 124 130 0 125 128 0 127 126 0 129 124 0 131 123 0 132 123 0 132 123 0 132 124 0 131 127 0 128 132 0 123 140 0 115 155 0 100 189 0 66 
67 0 188 111 0 144 122 0 133 126 0 129 128 0 127 128 0 127 128 0 127 126 0 129 125 0 130 124 0 131 123 0 132 124 0 131 125 0 130 127 0 128 129 0 126 131 0 124 132 0 123 132 0 123 131 0 124 130 0 125 128 0 127 126 0 129 124 0 131 124 0 131 123 0 132 122 0 133 122 0 133 121 0 134 121 0 134 121 0 134 122 0 133 123 0 132 124 0 131 126 0 129 127 0 128 128 0 127 129 0 126 129 0 126 130 0 125 130 0 125 130 0 125 129 0 126 128 0 127 127 0 128 126 0 129 125 0 130 124 0 131 123 0 132 123 0 132 123 0 132 124 0 131 124 0 131 124 0 131 125 0 130 125 0 130 125 0 130 125 0 130 126 0 129 126 0 129 126 0 129 126 0 129 127 0 128 127 0 128 127 0 128 127 0 128 128 0 127 128 0 127 130 0 125 131 0 124 132 0 123 132 0 123 133 0 122 132 0 123 131 0 124 129 0 126 128 0 127 126 0 129 125 0 130 124 0 131 123 0 132 123 0 132 123 0 132 123 0 132 123 0 132 123 0 132 124 0 131 125 0 130 126 0 129 128 0 127 130 0 125 131 0 124 133 0 122 134 0 121 135 0 120 135 0 120 135 0 120 135 0 120 135 0 120 135 0 120 135 0 120 134 0 121 132 0 123 130 0 125 127 0 128 124 0 131 121 0 134 119 0 136 119 0 136 120 0 135 122 0 133 124 0 131 126 0 129 128 0 127 130 0 125 131 0 124 132 0 123 132 0 123 131 0 124 130 0 125 129 0 126 127 0 128 125 0 130 123 0 132 122 0 133 121 0 134 121 0 134 122 0 133 122 0 133 122 0 133 122 0 133 122 0 133 123 0 132 123 0 132 124 0 131 124 0 131 125 0 130 127 0 128 128 0 127 129 0 126 129 0 126 129 0 126 129 0 126 128 0 127 128 0 127 127 0 128 126 0 129 126 0 129 126 0 129 126 0 129 127 0 128 127 0 128 128 0 127 128 0 127 128 0 127 128 0 127 127 0 128 126 0 129 125 0 130 125 0 130 125 0 130 125 0 130 126 0 129 127 0 128 128 0 127 129 0 126 128 0 127 128 0 127 127 0 128 126 0 129 126 0 129 126 0 129 126 0 129 125 0 130 125 0 130 124 0 131 123 0 132 122 0 133 121 0 134 121 0 134 122 0 133 123 0 132 125 0 130 127 0 128 128 0 127 130 0 125 130 0 125 130 0 125 129 0 126 127 0 128 125 0 130 123 0 132 122 0 133 122 0 133 122 0 133 123 0 132 126 0 129 129 0 126 134 0 121 138 0 117 127 0 128 
183 0 72 133 0 122 127 0 128 128 0 127 129 0 126 129 0 126 129 0 126 127 0 128 126 0 129 125 0 130 124 0 131 125 0 130 126 0 129 128 0 127 130 0 125 132 0 123 133 0 122 133 0 122 132 0 123 131 0 124 129 0 126 127 0 128 126 0 129 125 0 130 124 0 131 123 0 132 122 0 133 121 0 134 121 0 134 121 0 134 122 0 133 123 0 132 124 0 131 125 0 130 126 0 129 127 0 128 128 0 127 129 0 126 130 0 125 130 0 125 129 0 126 129 0 126 128 0 127 127 0 128 126 0 129 125 0 130 124 0 131 124 0 131 124 0 131 124 0 131 124 0 131 124 0 131 124 0 131 125 0 130 125 0 130 126 0 129 126 0 129 127 0 128 128 0 127 129 0 126 129 0 126 129 0 126 129 0 126 129 0 126 129 0 126 130 0 125 131 0 124 132 0 123 133 0 122 134 0 121 134 0 121 134 0 121 133 0 122 132 0 123 130 0 125 128 0 127 127 0 128 125 0 130 124 0 131 124 0 131 123 0 132 123 0 132 124 0 131 124 0 131 124 0 131 125 0 130 126 0 129 127 0 128 128 0 127 130 0 125 131 0 124 132 0 123 133 0 122 133 0 122 132 0 123 132 0 123 132 0 123 132 0 123 132 0 123 133 0 122 133 0 122 132 0 123 130 0 125 127 0 128 124 0 131 122 0 133 120 0 135 120 0 135 121 0 134 122 0 133 125 0 130 127 0 128 128 0 127 130 0 125 131 0 124 131 0 124 131 0 124 131 0 124 130 0 125 128 0 127 127 0 128 125 0 130 123 0 132 122 0 133 121 0 134 121 0 134 122 0 133 123 0 132 124 0 131 124 0 131 124 0 131 125 0 130 125 0 130 125 0 130 125 0 130 126 0 129 127 0 128 127 0 128 128 0 127 128 0 127 128 0 127 128 0 127 127 0 128 126 0 129 126 0 129 125 0 130 125 0 130 125 0 130 126 0 129 126 0 129 127 0 128 128 0 127 128 0 127 128 0 127 128 0 127 127 0 128 127 0 128 126 0 129 125 0 130 125 0 130 125 0 130 126 0 129 126 0 129 127 0 128 127 0 128 127 0 128 127 0 128 126 0 129 126 0 129 126 0 129 126 0 129 126 0 129 126 0 129 125 0 130 124 0 131 123 0 132 122 0 133 121 0 134 120 0 135 121 0 134 122 0 133 124 0 131 126 0 129 128 0 127 129 0 126 130 0 125 129 0 126 128 0 127 126 0 129 124 0 131 123 0 132 122 0 133 121 0 134 121 0 134 122 0 133 124 0 131 127 0 128 131 0 124 136 0 119 143 0 112 
50 0 205 111 0 144 124 0 131 128 0 127 130 0 125 130 0 125 129 0 126 128 0 127 127 0 128 126 0 129 125 0 130 126 0 129 127 0 128 129 0 126 130 0 125 132 0 123 133 0 122 133 0 122 132 0 123 131 0 124 130 0 125 128 0 127 127 0 128 126 0 129 125 0 130 124 0 131 123 0 132 122 0 133 122 0 133 122 0 133 122 0 133 123 0 132 124 0 131 125 0 130 126 0 129 127 0 128 128 0 127 128 0 127 129 0 126 129 0 126 129 0 126 128 0 127 128 0 127 127 0 128 126 0 129 125 0 130 124 0 131 124 0 131 124 0 131 124 0 131 124 0 131 125 0 130 125 0 130 125 0 130 126 0 129 127 0 128 128 0 127 129 0 126 130 0 125 131 0 124 131 0 124 131 0 124 131 0 124 131 0 124 131 0 124 132 0 123 132 0 123 134 0 121 135 0 120 135 0 120 135 0 120 135 0 120 134 0 121 132 0 123 131 0 124 129 0 126 127 0 128 126 0 129 125 0 130 124 0 131 124 0 131 124 0 131 124 0 131 124 0 131 125 0 130 125 0 130 126 0 129 126 0 129 128 0 127 129 0 126 130 0 125 131 0 124 132 0 123 131 0 124 131 0 124 130 0 125 130 0 125 130 0 125 130 0 125 131 0 124 132 0 123 131 0 124 130 0 125 128 0 127 125 0 130 122 0 133 121 0 134 120 0 135 121 0 134 123 0 132 124 0 131 126 0 129 128 0 127 129 0 126 130 0 125 130 0 125 130 0 125 130 0 125 130 0 125 128 0 127 127 0 128 125 0 130 124 0 131 122 0 133 122 0 133 122 0 133 123 0 132 124 0 131 125 0 130 126 0 129 126 0 129 126 0 129 126 0 129 126 0 129 126 0 129 126 0 129 126 0 129 127 0 128 127 0 128 127 0 128 127 0 128 126 0 129 126 0 129 126 0 129 125 0 130 125 0 130 125 0 130 125 0 130 125 0 130 126 0 129 126 0 129 127 0 128 127 0 128 127 0 128 127 0 128 127 0 128 127 0 128 126 0 129 126 0 129 125 0 130 125 0 130 126 0 129 126 0 129 126 0 129 126 0 129 126 0 129 126 0 129 125 0 130 125 0 130 125 0 130 126 0 129 126 0 129 126 0 129 125 0 130 124 0 131 123 0 132 121 0 134 120 0 135 120 0 135 120 0 135 121 0 134 123 0 132 125 0 130 127 0 128 129 0 126 129 0 126 129 0 126 128 0 127 126 0 129 124 0 131 122 0 133 121 0 134 121 0 134 121 0 134 121 0 134 123 0 132 124 0 131 127 0 128 133 0 122 151 0 104 
171 0 84 136 0 119 130 0 125 130 0 125 130 0 125 130 0 125 130 0 125 128 0 127 127 0 128 127 0 128 126 0 129 127 0 128 128 0 127 129 0 126 130 0 125 132 0 123 133 0 122 133 0 122 132 0 123 131 0 124 130 0 125 129 0 126 128 0 127 127 0 128 126 0 129 125 0 130 124 0 131 123 0 132 123 0 132 123 0 132 123 0 132 123 0 132 124 0 131 124 0 131 125 0 130 126 0 129 127 0 128 128 0 127 128 0 127 128 0 127 128 0 127 128 0 127 127 0 128 126 0 129 126 0 129 125 0 130 124 0 131 124 0 131 124 0 131 124 0 131 125 0 130 125 0 130 126 0 129 126 0 129 127 0 128 129 0 126 130 0 125 131 0 124 132 0 123 133 0 122 133 0 122 133 0 122 133 0 122 133 0 122 132 0 123 133 0 122 134 0 121 135 0 120 136 0 119 136 0 119 136 0 119 136 0 119 135 0 120 133 0 122 132 0 123 130 0 125 128 0 127 127 0 128 125 0 130 125 0 130 124 0 131 124 0 131 124 0 131 124 0 131 125 0 130 125 0 130 125 0 130 126 0 129 127 0 128 128 0 127 129 0 126 130 0 125 130 0 125 130 0 125 129 0 126 129 0 126 128 0 127 128 0 127 129 0 126 130 0 125 131 0 124 131 0 124 130 0 125 128 0 127 125 0 130 123 0 132 121 0 134 120 0 135 121 0 134 122 0 133 124 0 131 125 0 130 127 0 128 128 0 127 128 0 127 129 0 126 129 0 126 129 0 126 129 0 126 128 0 127 127 0 128 126 0 129 124 0 131 124 0 131 123 0 132 123 0 132 124 0 131 125 0 130 126 0 129 127 0 128 127 0 128 127 0 128 127 0 128 126 0 129 126 0 129 125 0 130 125 0 130 126 0 129 126 0 129 126 0 129 126 0 129 126 0 129 125 0 130 125 0 130 125 0 130 125 0 130 124 0 131 124 0 131 124 0 131 124 0 131 125 0 130 125 0 130 125 0 130 126 0 129 126 0 129 126 0 129 126 0 129 126 0 129 126 0 129 126 0 129 126 0 129 125 0 130 125 0 130 125 0 130 125 0 130 124 0 131 124 0 131 124 0 131 124 0 131 124 0 131 125 0 130 125 0 130 125 0 130 125 0 130 123 0 132 122 0 133 121 0 134 120 0 135 120 0 135 120 0 135 121 0 134 123 0 132 125 0 130 127 0 128 128 0 127 129 0 126 129 0 126 128 0 127 126 0 129 124 0 131 122 0 133 121 0 134 121 0 134 121 0 134 121 0 134 122 0 133 122 0 133 121 0 134 117 0 138 106 0 149 
127 0 128 130 0 125 130 0 125 130 0 125 130 0 125 130 0 125 130 0 125 129 0 126 128 0 127 127 0 128 127 0 128 127 0 128 128 0 127 129 0 126 130 0 125 131 0 124 132 0 123 132 0 123 132 0 123 131 0 124 130 0 125 129 0 126 129 0 126 128 0 127 127 0 128 126 0 129 125 0 130 124 0 131 124 0 131 124 0 131 123 0 132 123 0 132 124 0 131 124 0 131 125 0 130 125 0 130 126 0 129 127 0 128 127 0 128 127 0 128 127 0 128 127 0 128 126 0 129 126 0 129 125 0 130 125 0 130 124 0 131 124 0 131 124 0 131 125 0 130 125 0 130 126 0 129 127 0 128 128 0 127 129 0 126 130 0 125 132 0 123 133 0 122 134 0 121 135 0 120 135 0 120 134 0 121 134 0 121 133 0 122 133 0 122 134 0 121 135 0 120 136 0 119 137 0 118 137 0 118 137 0 118 136 0 119 135 0 120 134 0 121 133 0 122 131 0 124 129 0 126 128 0 127 126 0 129 125 0 130 125 0 130 124 0 131 124 0 131 124 0 131 124 0 131 124 0 131 125 0 130 125 0 130 126 0 129 127 0 128 128 0 127 129 0 126 129 0 126 129 0 126 129 0 126 128 0 127 127 0 128 128 0 127 128 0 127 129 0 126 130 0 125 130 0 125 130 0 125 128 0 127 126 0 129 123 0 132 122 0 133 121 0 134 121 0 134 122 0 133 123 0 132 124 0 131 125 0 130 126 0 129 127 0 128 127 0 128 128 0 127 128 0 127 128 0 127 128 0 127 127 0 128 126 0 129 125 0 130 125 0 130 125 0 130 125 0 130 126 0 129 127 0 128 127 0 128 128 0 127 128 0 127 128 0 127 127 0 128 126 0 129 125 0 130 125 0 130 125 0 130 125 0 130 125 0 130 125 0 130 125 0 130 125 0 130 125 0 130 125 0 130 125 0 130 124 0 131 124 0 131 123 0 132 123 0 132 122 0 133 123 0 132 123 0 132 123 0 132 124 0 131 124 0 131 125 0 130 125 0 130 125 0 130 126 0 129 126 0 129 126 0 129 125 0 130 125 0 130 124 0 131 123 0 132 123 0 132 122 0 133 122 0 133 123 0 132 123 0 132 124 0 131 124 0 131 124 0 131 124 0 131 123 0 132 122 0 133 121 0 134 120 0 135 120 0 135 120 0 135 121 0 134 123 0 132 125 0 130 127 0 128 129 0 126 129 0 126 129 0 126 128 0 127 127 0 128 125 0 130 123 0 132 122 0 133 121 0 134 121 0 134 121 0 134 121 0 134 121 0 134 120 0 135 110 0 145 61 0 194 
133 0 122 128 0 127 128 0 127 129 0 126 130 0 125 130 0 125 130 0 125 129 0 126 129 0 126 128 0 127 128 0 127 128 0 127 128 0 127 129 0 126 130 0 125 130 0 125 131 0 124 131 0 124 131 0 124 131 0 124 130 0 125 129 0 126 128 0 127 128 0 127 127 0 128 126 0 129 126 0 129 125 0 130 125 0 130 124 0 131 124 0 131 123 0 132 123 0 132 123 0 132 124 0 131 124 0 131 125 0 130 125 0 130 126 0 129 126 0 129 126 0 129 126 0 129 125 0 130 125 0 130 125 0 130 124 0 131 124 0 131 124 0 131 125 0 130 125 0 130 126 0 129 127 0 128 128 0 127 129 0 126 130 0 125 132 0 123 133 0 122 134 0 121 135 0 120 135 0 120 135 0 120 134 0 121 134 0 121 133 0 122 134 0 121 134 0 121 135 0 120 136 0 119 137 0 118 138 0 117 137 0 118 137 0 118 136 0 119 135 0 120 133 0 122 132 0 123 130 0 125 129 0 126 127 0 128 126 0 129 125 0 130 125 0 130 124 0 131 124 0 131 124 0 131 124 0 131 124 0 131 124 0 131 125 0 130 126 0 129 127 0 128 128 0 127 128 0 127 129 0 126 128 0 127 128 0 127 127 0 128 127 0 128 128 0 127 129 0 126 130 0 125 130 0 125 129 0 126 128 0 127 126 0 129 124 0 131 122 0 133 122 0 133 121 0 134 122 0 133 122 0 133 123 0 132 124 0 131 124 0 131 125 0 130 126 0 129 127 0 128 127 0 128 127 0 128 127 0 128 127 0 128 127 0 128 126 0 129 126 0 129 126 0 129 126 0 129 127 0 128 128 0 127 128 0 127 129 0 126 128 0 127 128 0 127 127 0 128 126 0 129 125 0 130 124 0 131 124 0 131 124 0 131 124 0 131 125 0 130 125 0 130 125 0 130 125 0 130 125 0 130 125 0 130 124 0 131 123 0 132 122 0 133 121 0 134 121 0 134 120 0 135 121 0 134 121 0 134 122 0 133 123 0 132 123 0 132 124 0 131 125 0 130 125 0 130 126 0 129 125 0 130 125 0 130 124 0 131 123 0 132 122 0 133 121 0 134 121 0 134 121 0 134 121 0 134 122 0 133 123 0 132 123 0 132 123 0 132 123 0 132 123 0 132 122 0 133 121 0 134 121 0 134 120 0 135 121 0 134 122 0 133 123 0 132 125 0 130 127 0 128 129 0 126 130 0 125 130 0 125 129 0 126 127 0 128 126 0 129 124 0 131 122 0 133 122 0 133 121 0 134 121 0 134 121 0 134 122 0 133 126 0 129 141 0 114 205 0 50 
97 0 158 120 0 135 126 0 129 128 0 127 129 0 126 129 0 126 129 0 126 129 0 126 129 0 126 128 0 127 128 0 127 128 0 127 128 0 127 129 0 126 129 0 126 130 0 125 130 0 125 130 0 125 130 0 125 130 0 125 129 0 126 128 0 127 128 0 127 127 0 128 127 0 128 126 0 129 126 0 129 125 0 130 125 0 130 124 0 131 124 0 131 123 0 132 123 0 132 123 0 132 123 0 132 123 0 132 124 0 131 124 0 131 125 0 130 125 0 130 125 0 130 125 0 130 125 0 130 125 0 130 125 0 130 124 0 131 125 0 130 125 0 130 125 0 130 126 0 129 126 0 129 127 0 128 128 0 127 130 0 125 131 0 124 133 0 122 134 0 121 135 0 120 135 0 120 135 0 120 134 0 121 134 0 121 133 0 122 133 0 122 133 0 122 134 0 121 135 0 120 136 0 119 137 0 118 138 0 117 138 0 117 137 0 118 136 0 119 135 0 120 134 0 121 132 0 123 131 0 124 129 0 126 128 0 127 127 0 128 126 0 129 125 0 130 125 0 130 124 0 131 124 0 131 124 0 131 124 0 131 124 0 131 124 0 131 125 0 130 126 0 129 127 0 128 128 0 127 128 0 127 128 0 127 128 0 127 127 0 128 128 0 127 128 0 127 129 0 126 129 0 126 130 0 125 129 0 126 128 0 127 127 0 128 125 0 130 123 0 132 122 0 133 122 0 133 121 0 134 121 0 134 122 0 133 122 0 133 123 0 132 124 0 131 125 0 130 125 0 130 126 0 129 127 0 128 127 0 128 127 0 128 127 0 128 127 0 128 127 0 128 127 0 128 127 0 128 128 0 127 128 0 127 129 0 126 129 0 126 128 0 127 128 0 127 126 0 129 125 0 130 124 0 131 124 0 131 123 0 132 123 0 132 124 0 131 124 0 131 125 0 130 125 0 130 126 0 129 126 0 129 125 0 130 124 0 131 122 0 133 121 0 134 119 0 136 119 0 136 119 0 136 119 0 136 119 0 136 120 0 135 121 0 134 122 0 133 123 0 132 124 0 131 125 0 130 125 0 130 125 0 130 124 0 131 123 0 132 122 0 133 121 0 134 120 0 135 120 0 135 120 0 135 120 0 135 121 0 134 122 0 133 122 0 133 123 0 132 123 0 132 122 0 133 122 0 133 122 0 133 122 0 133 122 0 133 122 0 133 123 0 132 124 0 131 126 0 129 127 0 128 129 0 126 130 0 125 130 0 125 130 0 125 128 0 127 127 0 128 125 0 130 123 0 132 122 0 133 121 0 134 121 0 134 121 0 134 121 0 134 122 0 133 124 0 131 118 0 137 
146 0 109 128 0 127 127 0 128 128 0 127 128 0 127 129 0 126 129 0 126 129 0 126 129 0 126 128 0 127 128 0 127 128 0 127 128 0 127 128 0 127 129 0 126 129 0 126 129 0 126 129 0 126 129 0 126 129 0 126 128 0 127 127 0 128 126 0 129 126 0 129 125 0 130 125 0 130 125 0 130 125 0 130 125 0 130 124 0 131 124 0 131 123 0 132 123 0 132 122 0 133 122 0 133 122 0 133 123 0 132 123 0 132 124 0 131 124 0 131 124 0 131 125 0 130 125 0 130 125 0 130 125 0 130 125 0 130 125 0 130 125 0 130 126 0 129 126 0 129 127 0 128 128 0 127 129 0 126 130 0 125 132 0 123 133 0 122 134 0 121 134 0 121 134 0 121 134 0 121 133 0 122 132 0 123 132 0 123 132 0 123 132 0 123 133 0 122 135 0 120 136 0 119 137 0 118 138 0 117 137 0 118 137 0 118 136 0 119 135 0 120 133 0 122 132 0 123 131 0 124 129 0 126 128 0 127 127 0 128 126 0 129 125 0 130 125 0 130 125 0 130 124 0 131 124 0 131 124 0 131 124 0 131 124 0 131 125 0 130 126 0 129 127 0 128 127 0 128 128 0 127 128 0 127 128 0 127 128 0 127 128 0 127 128 0 127 128 0 127 129 0 126 129 0 126 129 0 126 128 0 127 127 0 128 126 0 129 124 0 131 123 0 132 122 0 133 121 0 134 121 0 134 121 0 134 121 0 134 121 0 134 122 0 133 124 0 131 125 0 130 126 0 129 127 0 128 127 0 128 128 0 127 128 0 127 128 0 127 128 0 127 128 0 127 128 0 127 128 0 127 128 0 127 129 0 126 129 0 126 128 0 127 127 0 128 126 0 129 125 0 130 124 0 131 123 0 132 123 0 132 123 0 132 124 0 131 124 0 131 125 0 130 126 0 129 126 0 129 126 0 129 125 0 130 123 0 132 121 0 134 119 0 136 118 0 137 117 0 138 117 0 138 118 0 137 118 0 137 119 0 136 120 0 135 121 0 134 122 0 133 123 0 132 124 0 131 125 0 130 125 0 130 124 0 131 123 0 132 121 0 134 120 0 135 119 0 136 119 0 136 119 0 136 120 0 135 120 0 135 121 0 134 122 0 133 122 0 133 122 0 133 122 0 133 122 0 133 123 0 132 123 0 132 123 0 132 124 0 131 124 0 131 125 0 130 126 0 129 128 0 127 129 0 126 130 0 125 131 0 124 130 0 125 129 0 126 128 0 127 126 0 129 124 0 131 123 0 132 121 0 134 120 0 135 120 0 135 119 0 136 119 0 136 115 0 140 98 0 157 
97 0 158 121 0 134 126 0 129 127 0 128 128 0 127 128 0 127 128 0 127 128 0 127 128 0 127 128 0 127 128 0 127 127 0 128 128 0 127 128 0 127 128 0 127 129 0 126 129 0 126 129 0 126 129 0 126 128 0 127 127 0 128 125 0 130 124 0 131 124 0 131 124 0 131 124 0 131 124 0 131 124 0 131 124 0 131 124 0 131 123 0 132 123 0 132 122 0 133 121 0 134 121 0 134 121 0 134 122 0 133 122 0 133 123 0 132 124 0 131 125 0 130 125 0 130 126 0 129 126 0 129 126 0 129 126 0 129 126 0 129 126 0 129 126 0 129 126 0 129 127 0 128 128 0 127 129 0 126 130 0 125 132 0 123 133 0 122 134 0 121 134 0 121 133 0 122 133 0 122 132 0 123 131 0 124 130 0 125 130 0 125 131 0 124 132 0 123 134 0 121 135 0 120 136 0 119 137 0 118 137 0 118 136 0 119 135 0 120 134 0 121 133 0 122 132 0 123 130 0 125 129 0 126 128 0 127 126 0 129 126 0 129 125 0 130 125 0 130 125 0 130 124 0 131 124 0 131 124 0 131 124 0 131 124 0 131 125 0 130 126 0 129 127 0 128 127 0 128 128 0 127 128 0 127 129 0 126 129 0 126 128 0 127 128 0 127 128 0 127 129 0 126 129 0 126 129 0 126 128 0 127 128 0 127 127 0 128 125 0 130 123 0 132 122 0 133 121 0 134 120 0 135 119 0 136 120 0 135 120 0 135 121 0 134 123 0 132 124 0 131 126 0 129 127 0 128 128 0 127 128 0 127 128 0 127 128 0 127 128 0 127 128 0 127 128 0 127 128 0 127 128 0 127 129 0 126 129 0 126 128 0 127 127 0 128 126 0 129 125 0 130 123 0 132 123 0 132 123 0 132 123 0 132 123 0 132 124 0 131 125 0 130 125 0 130 126 0 129 125 0 130 124 0 131 123 0 132 121 0 134 119 0 136 117 0 138 117 0 138 116 0 139 117 0 138 117 0 138 118 0 137 119 0 136 120 0 135 122 0 133 123 0 132 124 0 131 125 0 130 124 0 131 124 0 131 122 0 133 121 0 134 120 0 135 119 0 136 119 0 136 119 0 136 120 0 135 120 0 135 121 0 134 121 0 134 122 0 133 122 0 133 122 0 133 123 0 132 123 0 132 124 0 131 125 0 130 125 0 130 125 0 130 126 0 129 127 0 128 128 0 127 129 0 126 130 0 125 131 0 124 131 0 124 130 0 125 129 0 126 127 0 128 125 0 130 123 0 132 122 0 133 120 0 135 119 0 136 119 0 136 118 0 137 119 0 136 129 0 126 
145 0 110 132 0 123 129 0 126 128 0 127 128 0 127 128 0 127 128 0 127 128 0 127 128 0 127 127 0 128 127 0 128 127 0 128 127 0 128 128 0 127 128 0 127 129 0 126 129 0 126 129 0 126 128 0 127 127 0 128 126 0 129 124 0 131 123 0 132 122 0 133 122 0 133 122 0 133 123 0 132 123 0 132 123 0 132 123 0 132 123 0 132 122 0 133 121 0 134 121 0 134 120 0 135 120 0 135 121 0 134 122 0 133 123 0 132 124 0 131 125 0 130 126 0 129 127 0 128 128 0 127 128 0 127 128 0 127 128 0 127 127 0 128 127 0 128 127 0 128 127 0 128 127 0 128 128 0 127 130 0 125 131 0 124 132 0 123 133 0 122 133 0 122 132 0 123 131 0 124 130 0 125 129 0 126 128 0 127 128 0 127 129 0 126 130 0 125 132 0 123 134 0 121 135 0 120 135 0 120 135 0 120 135 0 120 134 0 121 133 0 122 132 0 123 131 0 124 129 0 126 128 0 127 127 0 128 126 0 129 125 0 130 125 0 130 125 0 130 125 0 130 125 0 130 125 0 130 125 0 130 125 0 130 125 0 130 125 0 130 126 0 129 127 0 128 128 0 127 128 0 127 129 0 126 129 0 126 129 0 126 129 0 126 129 0 126 129 0 126 128 0 127 128 0 127 129 0 126 128 0 127 128 0 127 127 0 128 125 0 130 124 0 131 122 0 133 120 0 135 119 0 136 118 0 137 118 0 137 119 0 136 121 0 134 123 0 132 125 0 130 126 0 129 127 0 128 128 0 127 128 0 127 128 0 127 128 0 127 128 0 127 128 0 127 128 0 127 128 0 127 128 0 127 128 0 127 128 0 127 128 0 127 127 0 128 126 0 129 124 0 131 123 0 132 123 0 132 122 0 133 122 0 133 123 0 132 123 0 132 124 0 131 125 0 130 125 0 130 125 0 130 124 0 131 122 0 133 120 0 135 118 0 137 117 0 138 116 0 139 116 0 139 117 0 138 117 0 138 118 0 137 119 0 136 120 0 135 121 0 134 123 0 132 124 0 131 124 0 131 124 0 131 123 0 132 122 0 133 121 0 134 120 0 135 119 0 136 119 0 136 119 0 136 120 0 135 120 0 135 121 0 134 121 0 134 121 0 134 122 0 133 122 0 133 123 0 132 124 0 131 125 0 130 126 0 129 126 0 129 127 0 128 127 0 128 127 0 128 128 0 127 129 0 126 130 0 125 131 0 124 131 0 124 130 0 125 129 0 126 128 0 127 126 0 129 124 0 131 122 0 133 120 0 135 119 0 136 118 0 137 118 0 137 115 0 140 101 0 154 
130 0 125 132 0 123 130 0 125 129 0 126 128 0 127 128 0 127 128 0 127 128 0 127 127 0 128 127 0 128 127 0 128 127 0 128 128 0 127 128 0 127 129 0 126 129 0 126 129 0 126 129 0 126 128 0 127 127 0 128 125 0 130 123 0 132 122 0 133 121 0 134 121 0 134 121 0 134 122 0 133 122 0 133 123 0 132 123 0 132 123 0 132 122 0 133 121 0 134 120 0 135 120 0 135 120 0 135 120 0 135 122 0 133 123 0 132 125 0 130 126 0 129 127 0 128 128 0 127 129 0 126 129 0 126 129 0 126 129 0 126 128 0 127 128 0 127 127 0 128 127 0 128 127 0 128 128 0 127 129 0 126 130 0 125 131 0 124 132 0 123 132 0 123 131 0 124 130 0 125 129 0 126 128 0 127 127 0 128 127 0 128 128 0 127 129 0 126 131 0 124 132 0 123 133 0 122 134 0 121 134 0 121 133 0 122 132 0 123 132 0 123 131 0 124 130 0 125 129 0 126 128 0 127 127 0 128 126 0 129 125 0 130 125 0 130 125 0 130 125 0 130 125 0 130 125 0 130 125 0 130 126 0 129 126 0 129 126 0 129 127 0 128 127 0 128 128 0 127 128 0 127 129 0 126 130 0 125 130 0 125 130 0 125 129 0 126 129 0 126 129 0 126 129 0 126 129 0 126 129 0 126 128 0 127 127 0 128 126 0 129 123 0 132 121 0 134 119 0 136 118 0 137 117 0 138 117 0 138 119 0 136 121 0 134 123 0 132 125 0 130 127 0 128 128 0 127 129 0 126 128 0 127 128 0 127 128 0 127 127 0 128 127 0 128 127 0 128 127 0 128 127 0 128 128 0 127 128 0 127 127 0 128 127 0 128 126 0 129 125 0 130 124 0 131 123 0 132 122 0 133 122 0 133 122 0 133 122 0 133 123 0 132 123 0 132 124 0 131 123 0 132 123 0 132 121 0 134 119 0 136 118 0 137 117 0 138 117 0 138 117 0 138 117 0 138 118 0 137 118 0 137 119 0 136 120 0 135 121 0 134 122 0 133 124 0 131 124 0 131 124 0 131 123 0 132 122 0 133 121 0 134 120 0 135 120 0 135 120 0 135 120 0 135 120 0 135 121 0 134 121 0 134 121 0 134 121 0 134 122 0 133 123 0 132 124 0 131 125 0 130 126 0 129 127 0 128 127 0 128 128 0 127 128 0 127 128 0 127 128 0 127 129 0 126 130 0 125 130 0 125 131 0 124 130 0 125 130 0 125 128 0 127 126 0 129 124 0 131 122 0 133 121 0 134 119 0 136 119 0 136 119 0 136 124 0 131 145 0 110 
160 0 95 137 0 118 131 0 124 129 0 126 129 0 126 128 0 127 128 0 127 128 0 127 128 0 127 127 0 128 127 0 128 128 0 127 128 0 127 129 0 126 129 0 126 130 0 125 130 0 125 130 0 125 129 0 126 127 0 128 125 0 130 123 0 132 121 0 134 120 0 135 120 0 135 120 0 135 121 0 134 122 0 133 123 0 132 123 0 132 122 0 133 121 0 134 120 0 135 120 0 135 119 0 136 120 0 135 120 0 135 122 0 133 124 0 131 125 0 130 127 0 128 128 0 127 130 0 125 130 0 125 131 0 124 131 0 124 130 0 125 129 0 126 128 0 127 127 0 128 126 0 129 126 0 129 126 0 129 127 0 128 128 0 127 130 0 125 130 0 125 130 0 125 130 0 125 129 0 126 128 0 127 127 0 128 126 0 129 126 0 129 127 0 128 128 0 127 130 0 125 131 0 124 132 0 123 132 0 123 132 0 123 131 0 124 131 0 124 130 0 125 130 0 125 129 0 126 128 0 127 127 0 128 126 0 129 125 0 130 125 0 130 125 0 130 124 0 131 125 0 130 125 0 130 126 0 129 126 0 129 126 0 129 127 0 128 127 0 128 127 0 128 128 0 127 128 0 127 129 0 126 129 0 126 130 0 125 130 0 125 130 0 125 130 0 125 129 0 126 129 0 126 129 0 126 129 0 126 129 0 126 128 0 127 127 0 128 125 0 130 123 0 132 120 0 135 118 0 137 116 0 139 116 0 139 117 0 138 118 0 137 120 0 135 123 0 132 125 0 130 127 0 128 128 0 127 129 0 126 128 0 127 128 0 127 127 0 128 126 0 129 126 0 129 126 0 129 126 0 129 126 0 129 127 0 128 127 0 128 127 0 128 127 0 128 126 0 129 125 0 130 124 0 131 123 0 132 122 0 133 122 0 133 121 0 134 121 0 134 121 0 134 122 0 133 122 0 133 122 0 133 121 0 134 120 0 135 119 0 136 118 0 137 117 0 138 117 0 138 117 0 138 118 0 137 118 0 137 118 0 137 119 0 136 119 0 136 121 0 134 122 0 133 123 0 132 124 0 131 124 0 131 123 0 132 123 0 132 122 0 133 121 0 134 121 0 134 121 0 134 121 0 134 121 0 134 121 0 134 121 0 134 121 0 134 122 0 133 122 0 133 123 0 132 124 0 131 125 0 130 126 0 129 127 0 128 128 0 127 128 0 127 128 0 127 128 0 127 128 0 127 129 0 126 129 0 126 130 0 125 130 0 125 130 0 125 130 0 125 128 0 127 127 0 128 125 0 130 123 0 132 121 0 134 120 0 135 119 0 136 118 0 137 118 0 137 119 0 136 
127 0 128 126 0 129 127 0 128 128 0 127 129 0 126 129 0 126 129 0 126 129 0 126 128 0 127 128 0 127 128 0 127 128 0 127 129 0 126 129 0 126 130 0 125 130 0 125 130 0 125 130 0 125 129 0 126 128 0 127 126 0 129 124 0 131 122 0 133 121 0 134 120 0 135 120 0 135 121 0 134 122 0 133 123 0 132 123 0 132 122 0 133 121 0 134 120 0 135 119 0 136 119 0 136 120 0 135 121 0 134 122 0 133 124 0 131 126 0 129 128 0 127 129 0 126 130 0 125 131 0 124 131 0 124 131 0 124 131 0 124 130 0 125 128 0 127 127 0 128 126 0 129 125 0 130 125 0 130 126 0 129 127 0 128 128 0 127 128 0 127 129 0 126 129 0 126 128 0 127 128 0 127 127 0 128 126 0 129 126 0 129 127 0 128 128 0 127 129 0 126 130 0 125 130 0 125 130 0 125 130 0 125 130 0 125 129 0 126 129 0 126 129 0 126 129 0 126 128 0 127 128 0 127 127 0 128 126 0 129 125 0 130 125 0 130 125 0 130 125 0 130 125 0 130 126 0 129 127 0 128 127 0 128 127 0 128 128 0 127 128 0 127 128 0 127 128 0 127 129 0 126 129 0 126 130 0 125 131 0 124 131 0 124 130 0 125 130 0 125 129 0 126 129 0 126 129 0 126 129 0 126 128 0 127 127 0 128 125 0 130 122 0 133 119 0 136 117 0 138 116 0 139 115 0 140 116 0 139 118 0 137 120 0 135 123 0 132 125 0 130 127 0 128 128 0 127 128 0 127 128 0 127 127 0 128 125 0 130 125 0 130 124 0 131 124 0 131 124 0 131 125 0 130 126 0 129 126 0 129 126 0 129 127 0 128 126 0 129 126 0 129 125 0 130 124 0 131 123 0 132 122 0 133 121 0 134 120 0 135 120 0 135 120 0 135 120 0 135 121 0 134 120 0 135 120 0 135 119 0 136 118 0 137 118 0 137 118 0 137 118 0 137 118 0 137 118 0 137 118 0 137 119 0 136 119 0 136 120 0 135 121 0 134 123 0 132 123 0 132 124 0 131 123 0 132 123 0 132 122 0 133 122 0 133 122 0 133 122 0 133 122 0 133 122 0 133 122 0 133 122 0 133 122 0 133 122 0 133 122 0 133 123 0 132 124 0 131 125 0 130 126 0 129 127 0 128 127 0 128 128 0 127 128 0 127 128 0 127 128 0 127 128 0 127 129 0 126 129 0 126 130 0 125 130 0 125 129 0 126 128 0 127 127 0 128 125 0 130 123 0 132 122 0 133 120 0 135 119 0 136 118 0 137 112 0 143 87 0 168 
73 0 182 112 0 143 124 0 131 128 0 127 129 0 126 130 0 125 130 0 125 130 0 125 130 0 125 129 0 126 129 0 126 129 0 126 130 0 125 130 0 125 130 0 125 131 0 124 131 0 124 130 0 125 130 0 125 128 0 127 126 0 129 124 0 131 122 0 133 121 0 134 121 0 134 121 0 134 122 0 133 123 0 132 123 0 132 123 0 132 122 0 133 121 0 134 120 0 135 120 0 135 120 0 135 120 0 135 122 0 133 123 0 132 125 0 130 126 0 129 128 0 127 129 0 126 130 0 125 131 0 124 131 0 124 131 0 124 130 0 125 129 0 126 128 0 127 127 0 128 125 0 130 124 0 131 124 0 131 124 0 131 125 0 130 126 0 129 127 0 128 127 0 128 128 0 127 128 0 127 127 0 128 127 0 128 127 0 128 127 0 128 128 0 127 129 0 126 129 0 126 130 0 125 130 0 125 129 0 126 129 0 126 128 0 127 128 0 127 129 0 126 129 0 126 129 0 126 129 0 126 128 0 127 127 0 128 127 0 128 126 0 129 125 0 130 125 0 130 126 0 129 126 0 129 127 0 128 127 0 128 128 0 127 128 0 127 128 0 127 128 0 127 128 0 127 128 0 127 129 0 126 129 0 126 130 0 125 131 0 124 131 0 124 130 0 125 130 0 125 129 0 126 129 0 126 129 0 126 128 0 127 128 0 127 126 0 129 124 0 131 121 0 134 119 0 136 117 0 138 115 0 140 115 0 140 116 0 139 118 0 137 120 0 135 123 0 132 125 0 130 127 0 128 128 0 127 127 0 128 126 0 129 125 0 130 124 0 131 123 0 132 122 0 133 122 0 133 123 0 132 124 0 131 124 0 131 125 0 130 126 0 129 126 0 129 127 0 128 127 0 128 126 0 129 125 0 130 124 0 131 122 0 133 121 0 134 120 0 135 119 0 136 119 0 136 119 0 136 119 0 136 119 0 136 119 0 136 119 0 136 119 0 136 119 0 136 119 0 136 119 0 136 119 0 136 119 0 136 119 0 136 119 0 136 119 0 136 120 0 135 121 0 134 122 0 133 123 0 132 124 0 131 124 0 131 123 0 132 123 0 132 123 0 132 123 0 132 123 0 132 124 0 131 124 0 131 124 0 131 123 0 132 123 0 132 123 0 132 122 0 133 122 0 133 123 0 132 124 0 131 125 0 130 126 0 129 127 0 128 127 0 128 127 0 128 127 0 128 127 0 128 128 0 127 128 0 127 128 0 127 129 0 126 129 0 126 128 0 127 127 0 128 126 0 129 125 0 130 124 0 131 122 0 133 122 0 133 121 0 134 122 0 133 125 0 130 133 0 122 
127 0 128 127 0 128 129 0 126 130 0 125 131 0 124 131 0 124 131 0 124 131 0 124 131 0 124 130 0 125 130 0 125 130 0 125 131 0 124 131 0 124 131 0 124 131 0 124 131 0 124 131 0 124 130 0 125 129 0 126 127 0 128 125 0 130 123 0 132 122 0 133 122 0 133 122 0 133 123 0 132 123 0 132 124 0 131 123 0 132 123 0 132 121 0 134 120 0 135 120 0 135 120 0 135 121 0 134 122 0 133 124 0 131 125 0 130 127 0 128 128 0 127 128 0 127 129 0 126 129 0 126 130 0 125 130 0 125 130 0 125 129 0 126 127 0 128 126 0 129 124 0 131 123 0 132 122 0 133 122 0 133 123 0 132 124 0 131 125 0 130 126 0 129 127 0 128 127 0 128 128 0 127 128 0 127 128 0 127 128 0 127 129 0 126 130 0 125 130 0 125 130 0 125 130 0 125 129 0 126 128 0 127 128 0 127 128 0 127 129 0 126 129 0 126 130 0 125 130 0 125 129 0 126 129 0 126 128 0 127 127 0 128 127 0 128 126 0 129 126 0 129 127 0 128 127 0 128 128 0 127 128 0 127 129 0 126 129 0 126 129 0 126 128 0 127 128 0 127 129 0 126 129 0 126 130 0 125 130 0 125 131 0 124 130 0 125 129 0 126 129 0 126 129 0 126 128 0 127 128 0 127 127 0 128 126 0 129 124 0 131 121 0 134 118 0 137 116 0 139 115 0 140 115 0 140 116 0 139 118 0 137 120 0 135 122 0 133 125 0 130 126 0 129 126 0 129 126 0 129 125 0 130 123 0 132 122 0 133 121 0 134 121 0 134 121 0 134 122 0 133 122 0 133 123 0 132 124 0 131 125 0 130 126 0 129 127 0 128 127 0 128 127 0 128 126 0 129 125 0 130 123 0 132 122 0 133 120 0 135 119 0 136 119 0 136 119 0 136 119 0 136 119 0 136 119 0 136 119 0 136 119 0 136 120 0 135 120 0 135 120 0 135 120 0 135 120 0 135 119 0 136 119 0 136 120 0 135 120 0 135 121 0 134 122 0 133 123 0 132 124 0 131 124 0 131 124 0 131 124 0 131 124 0 131 124 0 131 125 0 130 125 0 130 125 0 130 125 0 130 125 0 130 124 0 131 123 0 132 122 0 133 122 0 133 122 0 133 123 0 132 124 0 131 125 0 130 126 0 129 126 0 129 127 0 128 127 0 128 127 0 128 127 0 128 127 0 128 127 0 128 127 0 128 127 0 128 127 0 128 126 0 129 126 0 129 125 0 130 124 0 131 123 0 132 123 0 132 123 0 132 125 0 130 133 0 122 161 0 94 
149 0 106 138 0 117 134 0 121 133 0 122 132 0 123 132 0 123 132 0 123 132 0 123 131 0 124 131 0 124 131 0 124 131 0 124 131 0 124 131 0 124 132 0 123 132 0 123 131 0 124 131 0 124 130 0 125 129 0 126 127 0 128 125 0 130 124 0 131 123 0 132 123 0 132 123 0 132 124 0 131 124 0 131 124 0 131 124 0 131 123 0 132 122 0 133 121 0 134 121 0 134 121 0 134 122 0 133 123 0 132 124 0 131 125 0 130 126 0 129 127 0 128 127 0 128 127 0 128 128 0 127 128 0 127 128 0 127 128 0 127 128 0 127 127 0 128 125 0 130 124 0 131 122 0 133 121 0 134 121 0 134 121 0 134 122 0 133 124 0 131 125 0 130 126 0 129 127 0 128 128 0 127 128 0 127 129 0 126 129 0 126 130 0 125 131 0 124 131 0 124 131 0 124 130 0 125 129 0 126 128 0 127 128 0 127 128 0 127 129 0 126 130 0 125 131 0 124 131 0 124 131 0 124 130 0 125 129 0 126 129 0 126 128 0 127 128 0 127 128 0 127 128 0 127 128 0 127 129 0 126 129 0 126 129 0 126 129 0 126 129 0 126 129 0 126 129 0 126 129 0 126 129 0 126 130 0 125 130 0 125 130 0 125 130 0 125 129 0 126 128 0 127 128 0 127 128 0 127 128 0 127 127 0 128 125 0 130 123 0 132 121 0 134 118 0 137 116 0 139 115 0 140 115 0 140 116 0 139 117 0 138 119 0 136 122 0 133 123 0 132 124 0 131 125 0 130 124 0 131 123 0 132 121 0 134 120 0 135 120 0 135 120 0 135 120 0 135 121 0 134 122 0 133 123 0 132 124 0 131 125 0 130 126 0 129 128 0 127 128 0 127 129 0 126 128 0 127 127 0 128 125 0 130 123 0 132 121 0 134 120 0 135 119 0 136 119 0 136 119 0 136 119 0 136 120 0 135 120 0 135 121 0 134 121 0 134 121 0 134 121 0 134 121 0 134 121 0 134 121 0 134 121 0 134 121 0 134 121 0 134 122 0 133 122 0 133 123 0 132 124 0 131 124 0 131 124 0 131 125 0 130 125 0 130 126 0 129 126 0 129 127 0 128 127 0 128 127 0 128 126 0 129 125 0 130 124 0 131 122 0 133 122 0 133 122 0 133 122 0 133 123 0 132 124 0 131 125 0 130 125 0 130 126 0 129 126 0 129 126 0 129 126 0 129 126 0 129 125 0 130 125 0 130 125 0 130 125 0 130 125 0 130 125 0 130 124 0 131 124 0 131 123 0 132 123 0 132 122 0 133 122 0 133 120 0 135 120 0 135 
166 0 89 143 0 112 136 0 119 134 0 121 133 0 122 133 0 122 132 0 123 132 0 123 132 0 123 131 0 124 131 0 124 131 0 124 131 0 124 132 0 123 132 0 123 132 0 123 132 0 123 131 0 124 130 0 125 129 0 126 127 0 128 126 0 129 124 0 131 124 0 131 123 0 132 124 0 131 124 0 131 125 0 130 125 0 130 125 0 130 124 0 131 123 0 132 122 0 133 121 0 134 121 0 134 122 0 133 123 0 132 124 0 131 125 0 130 125 0 130 126 0 129 126 0 129 126 0 129 126 0 129 126 0 129 127 0 128 127 0 128 127 0 128 126 0 129 125 0 130 123 0 132 122 0 133 121 0 134 120 0 135 120 0 135 121 0 134 123 0 132 125 0 130 126 0 129 127 0 128 128 0 127 129 0 126 130 0 125 130 0 125 131 0 124 131 0 124 131 0 124 131 0 124 130 0 125 130 0 125 129 0 126 129 0 126 129 0 126 130 0 125 131 0 124 132 0 123 133 0 122 132 0 123 132 0 123 131 0 124 130 0 125 130 0 125 129 0 126 129 0 126 129 0 126 129 0 126 129 0 126 129 0 126 130 0 125 130 0 125 130 0 125 130 0 125 129 0 126 129 0 126 129 0 126 130 0 125 130 0 125 129 0 126 129 0 126 128 0 127 128 0 127 127 0 128 127 0 128 127 0 128 127 0 128 125 0 130 124 0 131 121 0 134 119 0 136 117 0 138 115 0 140 115 0 140 116 0 139 117 0 138 119 0 136 121 0 134 122 0 133 123 0 132 123 0 132 122 0 133 121 0 134 120 0 135 119 0 136 119 0 136 119 0 136 120 0 135 121 0 134 122 0 133 123 0 132 124 0 131 125 0 130 127 0 128 128 0 127 129 0 126 129 0 126 129 0 126 128 0 127 127 0 128 125 0 130 123 0 132 121 0 134 120 0 135 120 0 135 120 0 135 120 0 135 121 0 134 122 0 133 122 0 133 123 0 132 123 0 132 123 0 132 123 0 132 123 0 132 122 0 133 122 0 133 122 0 133 122 0 133 123 0 132 124 0 131 124 0 131 125 0 130 125 0 130 125 0 130 126 0 129 126 0 129 127 0 128 127 0 128 128 0 127 128 0 127 128 0 127 127 0 128 125 0 130 124 0 131 123 0 132 122 0 133 121 0 134 121 0 134 122 0 133 123 0 132 124 0 131 125 0 130 125 0 130 126 0 129 125 0 130 125 0 130 125 0 130 124 0 131 124 0 131 124 0 131 124 0 131 124 0 131 124 0 131 124 0 131 124 0 131 124 0 131 123 0 132 122 0 133 119 0 136 107 0 148 68 0 187 
102 0 153 130 0 125 134 0 121 133 0 122 133 0 122 133 0 122 132 0 123 132 0 123 131 0 124 131 0 124 131 0 124 131 0 124 131 0 124 132 0 123 132 0 123 132 0 123 132 0 123 131 0 124 130 0 125 129 0 126 127 0 128 126 0 129 125 0 130 124 0 131 124 0 131 124 0 131 125 0 130 125 0 130 126 0 129 125 0 130 124 0 131 123 0 132 122 0 133 122 0 133 122 0 133 122 0 133 123 0 132 124 0 131 125 0 130 125 0 130 125 0 130 125 0 130 124 0 131 125 0 130 125 0 130 126 0 129 126 0 129 126 0 129 125 0 130 124 0 131 123 0 132 122 0 133 121 0 134 120 0 135 121 0 134 122 0 133 123 0 132 125 0 130 126 0 129 128 0 127 129 0 126 129 0 126 130 0 125 131 0 124 131 0 124 131 0 124 131 0 124 131 0 124 131 0 124 130 0 125 129 0 126 130 0 125 130 0 125 131 0 124 132 0 123 133 0 122 134 0 121 134 0 121 133 0 122 133 0 122 132 0 123 131 0 124 131 0 124 130 0 125 130 0 125 130 0 125 130 0 125 130 0 125 130 0 125 130 0 125 130 0 125 130 0 125 130 0 125 130 0 125 130 0 125 129 0 126 129 0 126 128 0 127 127 0 128 127 0 128 126 0 129 127 0 128 127 0 128 127 0 128 127 0 128 126 0 129 124 0 131 122 0 133 119 0 136 117 0 138 116 0 139 115 0 140 116 0 139 117 0 138 118 0 137 119 0 136 121 0 134 121 0 134 121 0 134 121 0 134 120 0 135 119 0 136 119 0 136 119 0 136 120 0 135 121 0 134 122 0 133 123 0 132 123 0 132 124 0 131 125 0 130 127 0 128 128 0 127 129 0 126 130 0 125 130 0 125 129 0 126 128 0 127 126 0 129 124 0 131 123 0 132 121 0 134 121 0 134 121 0 134 122 0 133 122 0 133 123 0 132 124 0 131 125 0 130 125 0 130 125 0 130 124 0 131 124 0 131 124 0 131 124 0 131 124 0 131 124 0 131 125 0 130 125 0 130 125 0 130 126 0 129 126 0 129 126 0 129 127 0 128 127 0 128 128 0 127 128 0 127 129 0 126 129 0 126 128 0 127 127 0 128 126 0 129 124 0 131 123 0 132 122 0 133 121 0 134 121 0 134 121 0 134 122 0 133 123 0 132 124 0 131 125 0 130 125 0 130 125 0 130 125 0 130 124 0 131 123 0 132 123 0 132 122 0 133 122 0 133 123 0 132 123 0 132 124 0 131 124 0 131 125 0 130 125 0 130 124 0 131 123 0 132 122 0 133 116 0 139 
176 0 79 141 0 114 134 0 121 132 0 123 132 0 123 132 0 123 131 0 124 131 0 124 130 0 125 130 0 125 130 0 125 130 0 125 131 0 124 132 0 123 132 0 123 132 0 123 132 0 123 132 0 123 130 0 125 129 0 126 127 0 128 126 0 129 125 0 130 124 0 131 124 0 131 124 0 131 125 0 130 125 0 130 126 0 129 126 0 129 125 0 130 124 0 131 123 0 132 122 0 133 123 0 132 123 0 132 124 0 131 124 0 131 125 0 130 125 0 130 124 0 131 124 0 131 124 0 131 124 0 131 124 0 131 125 0 130 125 0 130 125 0 130 125 0 130 124 0 131 123 0 132 122 0 133 122 0 133 121 0 134 122 0 133 123 0 132 124 0 131 126 0 129 127 0 128 128 0 127 129 0 126 130 0 125 130 0 125 131 0 124 131 0 124 131 0 124 131 0 124 131 0 124 130 0 125 130 0 125 130 0 125 130 0 125 131 0 124 132 0 123 133 0 122 134 0 121 135 0 120 135 0 120 135 0 120 134 0 121 133 0 122 133 0 122 132 0 123 131 0 124 131 0 124 130 0 125 130 0 125 130 0 125 131 0 124 131 0 124 131 0 124 131 0 124 131 0 124 131 0 124 130 0 125 129 0 126 128 0 127 127 0 128 126 0 129 125 0 130 125 0 130 125 0 130 126 0 129 126 0 129 127 0 128 126 0 129 124 0 131 122 0 133 120 0 135 118 0 137 116 0 139 116 0 139 116 0 139 116 0 139 117 0 138 118 0 137 119 0 136 120 0 135 120 0 135 120 0 135 119 0 136 120 0 135 120 0 135 121 0 134 122 0 133 123 0 132 124 0 131 124 0 131 125 0 130 125 0 130 126 0 129 127 0 128 128 0 127 129 0 126 129 0 126 129 0 126 129 0 126 128 0 127 127 0 128 125 0 130 124 0 131 123 0 132 122 0 133 122 0 133 123 0 132 124 0 131 125 0 130 126 0 129 126 0 129 126 0 129 126 0 129 126 0 129 126 0 129 126 0 129 126 0 129 126 0 129 126 0 129 127 0 128 127 0 128 127 0 128 127 0 128 127 0 128 127 0 128 128 0 127 128 0 127 128 0 127 129 0 126 129 0 126 129 0 126 128 0 127 127 0 128 126 0 129 124 0 131 123 0 132 122 0 133 121 0 134 121 0 134 121 0 134 122 0 133 123 0 132 124 0 131 125 0 130 125 0 130 125 0 130 125 0 130 124 0 131 123 0 132 123 0 132 122 0 133 122 0 133 122 0 133 123 0 132 124 0 131 125 0 130 125 0 130 126 0 129 126 0 129 128 0 127 141 0 114 198 0 57 
118 0 137 125 0 130 128 0 127 129 0 126 130 0 125 130 0 125 130 0 125 130 0 125 129 0 126 129 0 126 129 0 126 129 0 126 130 0 125 131 0 124 132 0 123 133 0 122 133 0 122 132 0 123 131 0 124 129 0 126 128 0 127 126 0 129 125 0 130 124 0 131 123 0 132 124 0 131 124 0 131 125 0 130 126 0 129 126 0 129 125 0 130 124 0 131 124 0 131 123 0 132 123 0 132 124 0 131 124 0 131 125 0 130 125 0 130 125 0 130 124 0 131 124 0 131 124 0 131 124 0 131 124 0 131 125 0 130 125 0 130 125 0 130 125 0 130 125 0 130 124 0 131 124 0 131 123 0 132 123 0 132 123 0 132 124 0 131 126 0 129 127 0 128 128 0 127 129 0 126 130 0 125 130 0 125 130 0 125 130 0 125 131 0 124 131 0 124 130 0 125 130 0 125 130 0 125 130 0 125 130 0 125 130 0 125 131 0 124 132 0 123 133 0 122 134 0 121 135 0 120 135 0 120 135 0 120 135 0 120 134 0 121 133 0 122 133 0 122 132 0 123 131 0 124 131 0 124 130 0 125 130 0 125 131 0 124 132 0 123 132 0 123 132 0 123 132 0 123 131 0 124 130 0 125 128 0 127 126 0 129 125 0 130 123 0 132 123 0 132 123 0 132 124 0 131 125 0 130 126 0 129 126 0 129 126 0 129 124 0 131 122 0 133 120 0 135 118 0 137 117 0 138 116 0 139 116 0 139 117 0 138 117 0 138 118 0 137 118 0 137 119 0 136 119 0 136 119 0 136 120 0 135 120 0 135 122 0 133 123 0 132 124 0 131 126 0 129 126 0 129 127 0 128 127 0 128 127 0 128 127 0 128 127 0 128 127 0 128 128 0 127 128 0 127 129 0 126 129 0 126 128 0 127 127 0 128 126 0 129 125 0 130 124 0 131 124 0 131 124 0 131 124 0 131 125 0 130 126 0 129 127 0 128 127 0 128 127 0 128 127 0 128 127 0 128 127 0 128 127 0 128 127 0 128 128 0 127 128 0 127 128 0 127 128 0 127 129 0 126 128 0 127 128 0 127 128 0 127 128 0 127 128 0 127 129 0 126 129 0 126 129 0 126 128 0 127 128 0 127 127 0 128 125 0 130 124 0 131 123 0 132 122 0 133 122 0 133 122 0 133 122 0 133 122 0 133 123 0 132 124 0 131 125 0 130 126 0 129 126 0 129 126 0 129 125 0 130 124 0 131 123 0 132 123 0 132 122 0 133 123 0 132 124 0 131 125 0 130 126 0 129 126 0 129 126 0 129 125 0 130 122 0 133 113 0 142 77 0 178 
97 0 158 114 0 141 122 0 133 126 0 129 128 0 127 129 0 126 129 0 126 128 0 127 128 0 127 127 0 128 127 0 128 128 0 127 129 0 126 130 0 125 132 0 123 133 0 122 133 0 122 133 0 122 132 0 123 130 0 125 128 0 127 126 0 129 125 0 130 124 0 131 124 0 131 124 0 131 124 0 131 125 0 130 125 0 130 125 0 130 125 0 130 125 0 130 124 0 131 124 0 131 124 0 131 125 0 130 125 0 130 125 0 130 126 0 129 125 0 130 125 0 130 125 0 130 124 0 131 124 0 131 124 0 131 125 0 130 125 0 130 126 0 129 126 0 129 126 0 129 126 0 129 125 0 130 125 0 130 125 0 130 125 0 130 126 0 129 127 0 128 128 0 127 129 0 126 130 0 125 130 0 125 130 0 125 130 0 125 130 0 125 130 0 125 130 0 125 130 0 125 129 0 126 129 0 126 129 0 126 129 0 126 130 0 125 131 0 124 132 0 123 133 0 122 134 0 121 135 0 120 135 0 120 135 0 120 135 0 120 134 0 121 134 0 121 133 0 122 132 0 123 131 0 124 131 0 124 130 0 125 130 0 125 131 0 124 132 0 123 133 0 122 133 0 122 133 0 122 131 0 124 129 0 126 127 0 128 125 0 130 122 0 133 121 0 134 120 0 135 121 0 134 122 0 133 123 0 132 125 0 130 125 0 130 125 0 130 124 0 131 123 0 132 121 0 134 119 0 136 118 0 137 117 0 138 117 0 138 117 0 138 117 0 138 117 0 138 118 0 137 118 0 137 119 0 136 119 0 136 120 0 135 122 0 133 123 0 132 125 0 130 127 0 128 128 0 127 129 0 126 129 0 126 129 0 126 128 0 127 127 0 128 127 0 128 127 0 128 127 0 128 127 0 128 128 0 127 128 0 127 128 0 127 128 0 127 127 0 128 126 0 129 125 0 130 125 0 130 125 0 130 125 0 130 126 0 129 126 0 129 127 0 128 127 0 128 127 0 128 127 0 128 127 0 128 127 0 128 128 0 127 128 0 127 129 0 126 129 0 126 129 0 126 130 0 125 130 0 125 130 0 125 129 0 126 129 0 126 129 0 126 129 0 126 129 0 126 129 0 126 129 0 126 128 0 127 127 0 128 126 0 129 125 0 130 124 0 131 123 0 132 122 0 133 122 0 133 122 0 133 122 0 133 122 0 133 123 0 132 124 0 131 125 0 130 126 0 129 127 0 128 127 0 128 127 0 128 126 0 129 125 0 130 124 0 131 123 0 132 124 0 131 125 0 130 126 0 129 127 0 128 128 0 127 127 0 128 125 0 130 121 0 134 114 0 141 108 0 147 
95 0 160 109 0 146 119 0 136 124 0 131 127 0 128 128 0 127 128 0 127 127 0 128 126 0 129 126 0 129 126 0 129 127 0 128 128 0 127 130 0 125 131 0 124 133 0 122 134 0 121 133 0 122 133 0 122 131 0 124 129 0 126 127 0 128 126 0 129 125 0 130 124 0 131 124 0 131 124 0 131 125 0 130 125 0 130 125 0 130 125 0 130 125 0 130 125 0 130 125 0 130 125 0 130 125 0 130 126 0 129 126 0 129 126 0 129 126 0 129 126 0 129 126 0 129 125 0 130 125 0 130 125 0 130 125 0 130 125 0 130 126 0 129 126 0 129 127 0 128 127 0 128 127 0 128 126 0 129 126 0 129 127 0 128 127 0 128 128 0 127 129 0 126 130 0 125 130 0 125 130 0 125 130 0 125 130 0 125 130 0 125 129 0 126 129 0 126 128 0 127 128 0 127 128 0 127 128 0 127 128 0 127 129 0 126 130 0 125 131 0 124 132 0 123 133 0 122 134 0 121 134 0 121 134 0 121 134 0 121 134 0 121 133 0 122 133 0 122 132 0 123 131 0 124 130 0 125 130 0 125 130 0 125 131 0 124 131 0 124 132 0 123 133 0 122 132 0 123 131 0 124 128 0 127 125 0 130 122 0 133 120 0 135 119 0 136 118 0 137 119 0 136 120 0 135 122 0 133 123 0 132 125 0 130 125 0 130 124 0 131 123 0 132 121 0 134 120 0 135 119 0 136 118 0 137 118 0 137 118 0 137 118 0 137 118 0 137 118 0 137 118 0 137 119 0 136 120 0 135 121 0 134 123 0 132 125 0 130 127 0 128 130 0 125 131 0 124 132 0 123 132 0 123 131 0 124 130 0 125 128 0 127 127 0 128 126 0 129 126 0 129 126 0 129 127 0 128 128 0 127 128 0 127 128 0 127 128 0 127 127 0 128 127 0 128 126 0 129 126 0 129 126 0 129 126 0 129 126 0 129 126 0 129 127 0 128 127 0 128 127 0 128 127 0 128 127 0 128 128 0 127 128 0 127 129 0 126 129 0 126 130 0 125 130 0 125 130 0 125 130 0 125 130 0 125 129 0 126 129 0 126 129 0 126 129 0 126 129 0 126 129 0 126 128 0 127 127 0 128 126 0 129 125 0 130 124 0 131 123 0 132 122 0 133 122 0 133 122 0 133 123 0 132 123 0 132 123 0 132 124 0 131 126 0 129 127 0 128 128 0 127 129 0 126 129 0 126 128 0 127 126 0 129 125 0 130 125 0 130 125 0 130 126 0 129 127 0 128 128 0 127 129 0 126 128 0 127 126 0 129 121 0 134 113 0 142 97 0 158 
85 0 170 110 0 145 119 0 136 124 0 131 126 0 129 127 0 128 126 0 129 126 0 129 125 0 130 125 0 130 125 0 130 125 0 130 127 0 128 128 0 127 130 0 125 132 0 123 134 0 121 134 0 121 133 0 122 132 0 123 130 0 125 128 0 127 127 0 128 126 0 129 125 0 130 125 0 130 125 0 130 125 0 130 125 0 130 125 0 130 125 0 130 125 0 130 125 0 130 125 0 130 125 0 130 126 0 129 127 0 128 127 0 128 127 0 128 127 0 128 127 0 128 127 0 128 126 0 129 126 0 129 125 0 130 125 0 130 126 0 129 126 0 129 127 0 128 128 0 127 128 0 127 128 0 127 128 0 127 128 0 127 128 0 127 128 0 127 129 0 126 130 0 125 130 0 125 131 0 124 131 0 124 130 0 125 130 0 125 129 0 126 129 0 126 128 0 127 127 0 128 127 0 128 127 0 128 127 0 128 127 0 128 128 0 127 129 0 126 130 0 125 131 0 124 132 0 123 132 0 123 133 0 122 133 0 122 133 0 122 133 0 122 133 0 122 132 0 123 132 0 123 131 0 124 130 0 125 129 0 126 129 0 126 130 0 125 130 0 125 131 0 124 132 0 123 131 0 124 129 0 126 127 0 128 123 0 132 120 0 135 118 0 137 116 0 139 116 0 139 117 0 138 119 0 136 121 0 134 122 0 133 124 0 131 124 0 131 124 0 131 123 0 132 122 0 133 121 0 134 120 0 135 119 0 136 119 0 136 119 0 136 118 0 137 118 0 137 118 0 137 119 0 136 120 0 135 121 0 134 122 0 133 124 0 131 127 0 128 129 0 126 131 0 124 133 0 122 134 0 121 134 0 121 133 0 122 131 0 124 129 0 126 128 0 127 127 0 128 126 0 129 126 0 129 127 0 128 128 0 127 128 0 127 129 0 126 129 0 126 129 0 126 128 0 127 127 0 128 127 0 128 126 0 129 126 0 129 126 0 129 126 0 129 126 0 129 126 0 129 126 0 129 126 0 129 127 0 128 127 0 128 128 0 127 129 0 126 129 0 126 130 0 125 131 0 124 131 0 124 131 0 124 130 0 125 130 0 125 130 0 125 130 0 125 130 0 125 129 0 126 129 0 126 128 0 127 127 0 128 126 0 129 124 0 131 123 0 132 123 0 132 123 0 132 123 0 132 123 0 132 123 0 132 123 0 132 124 0 131 125 0 130 126 0 129 128 0 127 130 0 125 130 0 125 130 0 125 129 0 126 128 0 127 127 0 128 126 0 129 126 0 129 127 0 128 129 0 126 129 0 126 130 0 125 129 0 126 128 0 127 126 0 129 118 0 137 91 0 164 
124 0 131 124 0 131 124 0 131 125 0 130 126 0 129 126 0 129 125 0 130 125 0 130 124 0 131 123 0 132 123 0 132 124 0 131 125 0 130 127 0 128 129 0 126 132 0 123 133 0 122 134 0 121 134 0 121 133 0 122 131 0 124 130 0 125 128 0 127 127 0 128 127 0 128 126 0 129 126 0 129 126 0 129 126 0 129 126 0 129 125 0 130 125 0 130 125 0 130 125 0 130 126 0 129 126 0 129 127 0 128 128 0 127 128 0 127 128 0 127 128 0 127 128 0 127 127 0 128 127 0 128 126 0 129 126 0 129 126 0 129 127 0 128 127 0 128 128 0 127 128 0 127 129 0 126 128 0 127 128 0 127 128 0 127 129 0 126 129 0 126 130 0 125 130 0 125 131 0 124 131 0 124 130 0 125 130 0 125 129 0 126 128 0 127 127 0 128 126 0 129 125 0 130 125 0 130 125 0 130 125 0 130 126 0 129 127 0 128 128 0 127 129 0 126 130 0 125 130 0 125 131 0 124 131 0 124 132 0 123 132 0 123 132 0 123 131 0 124 131 0 124 130 0 125 129 0 126 128 0 127 128 0 127 128 0 127 129 0 126 129 0 126 130 0 125 129 0 126 127 0 128 125 0 130 122 0 133 119 0 136 116 0 139 115 0 140 115 0 140 116 0 139 118 0 137 120 0 135 121 0 134 123 0 132 123 0 132 123 0 132 123 0 132 122 0 133 121 0 134 121 0 134 120 0 135 120 0 135 120 0 135 119 0 136 119 0 136 119 0 136 120 0 135 120 0 135 121 0 134 123 0 132 125 0 130 127 0 128 129 0 126 132 0 123 133 0 122 134 0 121 134 0 121 134 0 121 132 0 123 130 0 125 128 0 127 127 0 128 127 0 128 127 0 128 127 0 128 128 0 127 129 0 126 130 0 125 130 0 125 130 0 125 129 0 126 129 0 126 128 0 127 127 0 128 126 0 129 125 0 130 125 0 130 125 0 130 125 0 130 125 0 130 126 0 129 126 0 129 127 0 128 128 0 127 128 0 127 129 0 126 130 0 125 130 0 125 131 0 124 131 0 124 131 0 124 131 0 124 131 0 124 131 0 124 130 0 125 130 0 125 130 0 125 129 0 126 127 0 128 126 0 129 125 0 130 124 0 131 123 0 132 123 0 132 123 0 132 124 0 131 124 0 131 124 0 131 125 0 130 126 0 129 127 0 128 129 0 126 131 0 124 132 0 123 132 0 123 131 0 124 129 0 126 128 0 127 127 0 128 127 0 128 128 0 127 129 0 126 130 0 125 131 0 124 131 0 124 131 0 124 134 0 121 144 0 111 192 0 63 
192 0 63 139 0 116 128 0 127 126 0 129 125 0 130 125 0 130 124 0 131 123 0 132 122 0 133 122 0 133 122 0 133 123 0 132 124 0 131 126 0 129 128 0 127 130 0 125 132 0 123 133 0 122 134 0 121 133 0 122 132 0 123 131 0 124 130 0 125 129 0 126 128 0 127 128 0 127 127 0 128 127 0 128 127 0 128 126 0 129 126 0 129 126 0 129 126 0 129 126 0 129 126 0 129 127 0 128 127 0 128 128 0 127 129 0 126 129 0 126 129 0 126 129 0 126 128 0 127 127 0 128 127 0 128 126 0 129 126 0 129 127 0 128 128 0 127 128 0 127 129 0 126 129 0 126 129 0 126 128 0 127 129 0 126 129 0 126 129 0 126 130 0 125 130 0 125 131 0 124 131 0 124 130 0 125 130 0 125 129 0 126 127 0 128 126 0 129 125 0 130 124 0 131 124 0 131 123 0 132 124 0 131 125 0 130 125 0 130 126 0 129 127 0 128 128 0 127 129 0 126 129 0 126 130 0 125 130 0 125 130 0 125 130 0 125 130 0 125 129 0 126 128 0 127 127 0 128 126 0 129 126 0 129 126 0 129 127 0 128 127 0 128 127 0 128 127 0 128 125 0 130 123 0 132 120 0 135 118 0 137 116 0 139 115 0 140 115 0 140 116 0 139 117 0 138 119 0 136 121 0 134 122 0 133 123 0 132 123 0 132 122 0 133 122 0 133 122 0 133 121 0 134 121 0 134 121 0 134 121 0 134 120 0 135 120 0 135 120 0 135 120 0 135 121 0 134 122 0 133 123 0 132 124 0 131 126 0 129 129 0 126 131 0 124 133 0 122 134 0 121 134 0 121 133 0 122 132 0 123 131 0 124 129 0 126 128 0 127 128 0 127 128 0 127 128 0 127 129 0 126 130 0 125 131 0 124 131 0 124 131 0 124 130 0 125 129 0 126 128 0 127 127 0 128 126 0 129 125 0 130 124 0 131 124 0 131 124 0 131 125 0 130 125 0 130 126 0 129 126 0 129 127 0 128 128 0 127 129 0 126 129 0 126 130 0 125 131 0 124 131 0 124 131 0 124 132 0 123 132 0 123 132 0 123 131 0 124 131 0 124 131 0 124 129 0 126 128 0 127 126 0 129 125 0 130 124 0 131 124 0 131 124 0 131 124 0 131 125 0 130 125 0 130 126 0 129 126 0 129 127 0 128 129 0 126 130 0 125 131 0 124 132 0 123 132 0 123 132 0 123 130 0 125 129 0 126 128 0 127 128 0 127 128 0 127 129 0 126 130 0 125 131 0 124 132 0 123 133 0 122 134 0 121 130 0 125 94 0 161 
72 0 183 112 0 143 121 0 134 124 0 131 124 0 131 124 0 131 123 0 132 122 0 133 121 0 134 121 0 134 121 0 134 121 0 134 122 0 133 124 0 131 127 0 128 129 0 126 131 0 124 132 0 123 133 0 122 133 0 122 132 0 123 132 0 123 131 0 124 130 0 125 130 0 125 129 0 126 129 0 126 128 0 127 128 0 127 128 0 127 127 0 128 126 0 129 126 0 129 126 0 129 126 0 129 126 0 129 127 0 128 128 0 127 129 0 126 130 0 125 130 0 125 130 0 125 129 0 126 128 0 127 127 0 128 127 0 128 127 0 128 127 0 128 127 0 128 128 0 127 128 0 127 128 0 127 128 0 127 128 0 127 128 0 127 129 0 126 129 0 126 130 0 125 130 0 125 131 0 124 131 0 124 130 0 125 129 0 126 128 0 127 127 0 128 126 0 129 124 0 131 123 0 132 122 0 133 122 0 133 122 0 133 123 0 132 124 0 131 125 0 130 126 0 129 127 0 128 127 0 128 128 0 127 128 0 127 129 0 126 129 0 126 129 0 126 129 0 126 128 0 127 127 0 128 126 0 129 125 0 130 124 0 131 124 0 131 124 0 131 125 0 130 125 0 130 125 0 130 124 0 131 122 0 133 120 0 135 118 0 137 116 0 139 116 0 139 116 0 139 117 0 138 118 0 137 119 0 136 121 0 134 122 0 133 123 0 132 123 0 132 122 0 133 122 0 133 122 0 133 122 0 133 122 0 133 122 0 133 122 0 133 121 0 134 121 0 134 121 0 134 121 0 134 121 0 134 121 0 134 122 0 133 124 0 131 125 0 130 127 0 128 129 0 126 131 0 124 132 0 123 133 0 122 132 0 123 131 0 124 130 0 125 129 0 126 129 0 126 128 0 127 129 0 126 130 0 125 130 0 125 131 0 124 132 0 123 132 0 123 132 0 123 131 0 124 130 0 125 129 0 126 127 0 128 126 0 129 125 0 130 124 0 131 124 0 131 124 0 131 124 0 131 125 0 130 125 0 130 126 0 129 127 0 128 127 0 128 128 0 127 129 0 126 130 0 125 130 0 125 131 0 124 132 0 123 132 0 123 132 0 123 132 0 123 132 0 123 132 0 123 131 0 124 130 0 125 129 0 126 127 0 128 126 0 129 125 0 130 125 0 130 125 0 130 125 0 130 126 0 129 127 0 128 127 0 128 128 0 127 128 0 127 130 0 125 131 0 124 132 0 123 133 0 122 133 0 122 132 0 123 131 0 124 129 0 126 128 0 127 128 0 127 128 0 127 129 0 126 129 0 126 130 0 125 132 0 123 134 0 121 140 0 115 151 0 104 179 0 76 
110 0 145 115 0 140 120 0 135 123 0 132 123 0 132 123 0 132 122 0 133 121 0 134 120 0 135 120 0 135 120 0 135 120 0 135 121 0 134 123 0 132 125 0 130 127 0 128 130 0 125 131 0 124 132 0 123 132 0 123 132 0 123 132 0 123 131 0 124 131 0 124 131 0 124 130 0 125 130 0 125 130 0 125 129 0 126 129 0 126 128 0 127 127 0 128 127 0 128 126 0 129 126 0 129 126 0 129 127 0 128 128 0 127 129 0 126 130 0 125 131 0 124 131 0 124 130 0 125 129 0 126 128 0 127 127 0 128 127 0 128 127 0 128 127 0 128 127 0 128 128 0 127 128 0 127 128 0 127 128 0 127 128 0 127 128 0 127 129 0 126 130 0 125 130 0 125 130 0 125 130 0 125 130 0 125 129 0 126 128 0 127 127 0 128 125 0 130 124 0 131 122 0 133 121 0 134 121 0 134 121 0 134 122 0 133 123 0 132 124 0 131 125 0 130 125 0 130 126 0 129 127 0 128 127 0 128 128 0 127 128 0 127 128 0 127 128 0 127 127 0 128 126 0 129 124 0 131 123 0 132 122 0 133 122 0 133 122 0 133 123 0 132 123 0 132 123 0 132 123 0 132 122 0 133 120 0 135 119 0 136 118 0 137 117 0 138 117 0 138 118 0 137 119 0 136 120 0 135 121 0 134 122 0 133 122 0 133 123 0 132 123 0 132 123 0 132 123 0 132 123 0 132 123 0 132 123 0 132 123 0 132 123 0 132 122 0 133 122 0 133 121 0 134 121 0 134 121 0 134 121 0 134 122 0 133 123 0 132 125 0 130 127 0 128 128 0 127 129 0 126 130 0 125 130 0 125 130 0 125 129 0 126 129 0 126 129 0 126 129 0 126 129 0 126 130 0 125 131 0 124 131 0 124 132 0 123 132 0 123 132 0 123 131 0 124 130 0 125 129 0 126 127 0 128 126 0 129 125 0 130 124 0 131 124 0 131 124 0 131 124 0 131 125 0 130 125 0 130 126 0 129 126 0 129 127 0 128 127 0 128 128 0 127 129 0 126 130 0 125 131 0 124 132 0 123 132 0 123 133 0 122 133 0 122 133 0 122 132 0 123 132 0 123 131 0 124 129 0 126 128 0 127 127 0 128 126 0 129 126 0 129 126 0 129 127 0 128 127 0 128 128 0 127 128 0 127 129 0 126 129 0 126 130 0 125 131 0 124 132 0 123 133 0 122 133 0 122 132 0 123 131 0 124 129 0 126 128 0 127 127 0 128 127 0 128 128 0 127 128 0 127 129 0 126 131 0 124 134 0 121 140 0 115 154 0 101 186 0 69 
98 0 157 117 0 138 122 0 133 124 0 131 123 0 132 122 0 133 121 0 134 120 0 135 119 0 136 119 0 136 119 0 136 120 0 135 121 0 134 122 0 133 124 0 131 126 0 129 128 0 127 130 0 125 131 0 124 132 0 123 132 0 123 132 0 123 132 0 123 131 0 124 131 0 124 131 0 124 131 0 124 130 0 125 130 0 125 129 0 126 129 0 126 128 0 127 127 0 128 126 0 129 126 0 129 126 0 129 126 0 129 127 0 128 129 0 126 130 0 125 131 0 124 131 0 124 130 0 125 130 0 125 128 0 127 127 0 128 127 0 128 126 0 129 126 0 129 127 0 128 127 0 128 127 0 128 127 0 128 127 0 128 127 0 128 128 0 127 129 0 126 129 0 126 130 0 125 130 0 125 130 0 125 129 0 126 129 0 126 128 0 127 127 0 128 125 0 130 123 0 132 122 0 133 121 0 134 120 0 135 120 0 135 121 0 134 122 0 133 123 0 132 124 0 131 125 0 130 125 0 130 126 0 129 127 0 128 127 0 128 127 0 128 127 0 128 127 0 128 126 0 129 125 0 130 124 0 131 122 0 133 121 0 134 121 0 134 121 0 134 122 0 133 122 0 133 122 0 133 122 0 133 122 0 133 121 0 134 120 0 135 120 0 135 119 0 136 119 0 136 120 0 135 120 0 135 121 0 134 122 0 133 122 0 133 123 0 132 123 0 132 123 0 132 123 0 132 124 0 131 124 0 131 125 0 130 125 0 130 125 0 130 124 0 131 123 0 132 122 0 133 122 0 133 121 0 134 121 0 134 121 0 134 121 0 134 122 0 133 123 0 132 124 0 131 125 0 130 126 0 129 127 0 128 128 0 127 128 0 127 128 0 127 128 0 127 128 0 127 129 0 126 129 0 126 130 0 125 131 0 124 131 0 124 131 0 124 131 0 124 131 0 124 130 0 125 129 0 126 128 0 127 127 0 128 126 0 129 125 0 130 124 0 131 124 0 131 124 0 131 124 0 131 125 0 130 125 0 130 126 0 129 126 0 129 126 0 129 127 0 128 127 0 128 128 0 127 129 0 126 130 0 125 132 0 123 132 0 123 133 0 122 133 0 122 133 0 122 132 0 123 132 0 123 131 0 124 130 0 125 129 0 126 128 0 127 128 0 127 127 0 128 128 0 127 128 0 127 129 0 126 129 0 126 129 0 126 129 0 126 130 0 125 130 0 125 131 0 124 132 0 123 132 0 123 132 0 123 132 0 123 130 0 125 129 0 126 128 0 127 127 0 128 126 0 129 126 0 129 127 0 128 128 0 127 129 0 126 131 0 124 134 0 121 140 0 115 147 0 108 
141 0 114 132 0 123 128 0 127 126 0 129 124 0 131 122 0 133 121 0 134 120 0 135 120 0 135 119 0 136 120 0 135 120 0 135 121 0 134 122 0 133 124 0 131 126 0 129 127 0 128 129 0 126 130 0 125 131 0 124 131 0 124 132 0 123 132 0 123 131 0 124 131 0 124 131 0 124 131 0 124 131 0 124 130 0 125 130 0 125 129 0 126 128 0 127 127 0 128 126 0 129 125 0 130 125 0 130 126 0 129 127 0 128 128 0 127 130 0 125 131 0 124 131 0 124 131 0 124 130 0 125 129 0 126 127 0 128 127 0 128 126 0 129 126 0 129 126 0 129 126 0 129 126 0 129 126 0 129 126 0 129 127 0 128 128 0 127 128 0 127 128 0 127 129 0 126 129 0 126 129 0 126 129 0 126 128 0 127 128 0 127 126 0 129 125 0 130 123 0 132 122 0 133 120 0 135 120 0 135 120 0 135 120 0 135 121 0 134 122 0 133 123 0 132 124 0 131 125 0 130 126 0 129 126 0 129 127 0 128 127 0 128 127 0 128 126 0 129 126 0 129 125 0 130 123 0 132 122 0 133 121 0 134 121 0 134 121 0 134 121 0 134 122 0 133 122 0 133 123 0 132 123 0 132 123 0 132 122 0 133 122 0 133 122 0 133 121 0 134 121 0 134 122 0 133 122 0 133 122 0 133 122 0 133 123 0 132 123 0 132 123 0 132 124 0 131 125 0 130 126 0 129 126 0 129 126 0 129 126 0 129 125 0 130 125 0 130 124 0 131 123 0 132 122 0 133 121 0 134 121 0 134 120 0 135 121 0 134 121 0 134 122 0 133 123 0 132 124 0 131 124 0 131 125 0 130 126 0 129 126 0 129 127 0 128 127 0 128 128 0 127 129 0 126 129 0 126 129 0 126 129 0 126 129 0 126 129 0 126 129 0 126 129 0 126 128 0 127 127 0 128 126 0 129 125 0 130 124 0 131 124 0 131 124 0 131 124 0 131 124 0 131 125 0 130 125 0 130 125 0 130 126 0 129 126 0 129 126 0 129 126 0 129 127 0 128 128 0 127 130 0 125 131 0 124 131 0 124 132 0 123 132 0 123 132 0 123 132 0 123 131 0 124 131 0 124 130 0 125 129 0 126 129 0 126 129 0 126 129 0 126 129 0 126 129 0 126 129 0 126 129 0 126 129 0 126 129 0 126 129 0 126 129 0 126 130 0 125 130 0 125 131 0 124 131 0 124 131 0 124 130 0 125 128 0 127 127 0 128 126 0 129 125 0 130 125 0 130 125 0 130 126 0 129 127 0 128 128 0 127 128 0 127 124 0 131 113 0 142 
170 0 85 143 0 112 132 0 123 127 0 128 124 0 131 122 0 133 121 0 134 121 0 134 120 0 135 121 0 134 121 0 134 121 0 134 122 0 133 123 0 132 124 0 131 126 0 129 127 0 128 128 0 127 130 0 125 131 0 124 131 0 124 131 0 124 131 0 124 131 0 124 131 0 124 131 0 124 130 0 125 130 0 125 130 0 125 129 0 126 129 0 126 128 0 127 127 0 128 126 0 129 125 0 130 125 0 130 125 0 130 126 0 129 128 0 127 129 0 126 130 0 125 131 0 124 131 0 124 130 0 125 129 0 126 128 0 127 127 0 128 126 0 129 125 0 130 125 0 130 125 0 130 125 0 130 125 0 130 126 0 129 126 0 129 127 0 128 127 0 128 128 0 127 128 0 127 128 0 127 128 0 127 128 0 127 128 0 127 127 0 128 126 0 129 125 0 130 124 0 131 122 0 133 121 0 134 120 0 135 120 0 135 120 0 135 121 0 134 122 0 133 123 0 132 124 0 131 125 0 130 126 0 129 126 0 129 127 0 128 127 0 128 127 0 128 127 0 128 126 0 129 125 0 130 124 0 131 122 0 133 121 0 134 121 0 134 121 0 134 121 0 134 122 0 133 123 0 132 123 0 132 124 0 131 124 0 131 124 0 131 124 0 131 123 0 132 123 0 132 123 0 132 123 0 132 122 0 133 122 0 133 122 0 133 123 0 132 123 0 132 124 0 131 125 0 130 126 0 129 127 0 128 127 0 128 128 0 127 127 0 128 127 0 128 126 0 129 125 0 130 124 0 131 123 0 132 122 0 133 121 0 134 121 0 134 120 0 135 121 0 134 121 0 134 121 0 134 122 0 133 122 0 133 123 0 132 124 0 131 124 0 131 125 0 130 126 0 129 127 0 128 127 0 128 127 0 128 127 0 128 127 0 128 127 0 128 127 0 128 127 0 128 127 0 128 127 0 128 126 0 129 125 0 130 124 0 131 124 0 131 123 0 132 123 0 132 124 0 131 124 0 131 125 0 130 125 0 130 125 0 130 125 0 130 125 0 130 125 0 130 126 0 129 126 0 129 127 0 128 128 0 127 130 0 125 130 0 125 131 0 124 131 0 124 131 0 124 131 0 124 130 0 125 130 0 125 130 0 125 130 0 125 130 0 125 130 0 125 130 0 125 130 0 125 130 0 125 129 0 126 129 0 126 129 0 126 128 0 127 128 0 127 128 0 127 128 0 127 129 0 126 129 0 126 129 0 126 129 0 126 128 0 127 127 0 128 126 0 129 125 0 130 124 0 131 124 0 131 125 0 130 125 0 130 126 0 129 127 0 128 125 0 130 116 0 139 88 0 167 
147 0 108 138 0 117 131 0 124 126 0 129 124 0 131 122 0 133 122 0 133 121 0 134 122 0 133 122 0 133 122 0 133 123 0 132 124 0 131 124 0 131 125 0 130 126 0 129 127 0 128 128 0 127 130 0 125 130 0 125 131 0 124 131 0 124 131 0 124 131 0 124 130 0 125 130 0 125 130 0 125 129 0 126 129 0 126 128 0 127 128 0 127 127 0 128 126 0 129 125 0 130 124 0 131 124 0 131 125 0 130 126 0 129 127 0 128 129 0 126 130 0 125 130 0 125 130 0 125 130 0 125 129 0 126 128 0 127 127 0 128 126 0 129 125 0 130 125 0 130 124 0 131 125 0 130 125 0 130 125 0 130 126 0 129 126 0 129 127 0 128 127 0 128 127 0 128 127 0 128 127 0 128 127 0 128 127 0 128 127 0 128 127 0 128 126 0 129 124 0 131 123 0 132 121 0 134 120 0 135 120 0 135 121 0 134 121 0 134 122 0 133 123 0 132 124 0 131 125 0 130 126 0 129 127 0 128 127 0 128 127 0 128 128 0 127 127 0 128 127 0 128 126 0 129 125 0 130 123 0 132 122 0 133 122 0 133 122 0 133 122 0 133 123 0 132 123 0 132 124 0 131 125 0 130 125 0 130 125 0 130 125 0 130 125 0 130 124 0 131 124 0 131 123 0 132 123 0 132 122 0 133 122 0 133 123 0 132 123 0 132 124 0 131 125 0 130 126 0 129 127 0 128 128 0 127 129 0 126 129 0 126 128 0 127 127 0 128 126 0 129 125 0 130 124 0 131 123 0 132 122 0 133 121 0 134 121 0 134 120 0 135 120 0 135 120 0 135 121 0 134 121 0 134 121 0 134 122 0 133 123 0 132 124 0 131 125 0 130 125 0 130 125 0 130 125 0 130 125 0 130 125 0 130 125 0 130 125 0 130 125 0 130 125 0 130 124 0 131 124 0 131 123 0 132 123 0 132 122 0 133 122 0 133 122 0 133 123 0 132 124 0 131 124 0 131 125 0 130 125 0 130 125 0 130 124 0 131 125 0 130 125 0 130 126 0 129 126 0 129 127 0 128 128 0 127 129 0 126 129 0 126 130 0 125 130 0 125 130 0 125 130 0 125 130 0 125 130 0 125 130 0 125 130 0 125 130 0 125 130 0 125 130 0 125 129 0 126 129 0 126 128 0 127 127 0 128 127 0 128 126 0 129 126 0 129 126 0 129 127 0 128 127 0 128 127 0 128 127 0 128 127 0 128 126 0 129 125 0 130 124 0 131 123 0 132 124 0 131 124 0 131 126 0 129 127 0 128 129 0 126 130 0 125 127 0 128 113 0 142 
157 0 98 132 0 123 127 0 128 124 0 131 123 0 132 123 0 132 122 0 133 122 0 133 123 0 132 123 0 132 124 0 131 125 0 130 125 0 130 126 0 129 126 0 129 127 0 128 128 0 127 129 0 126 130 0 125 130 0 125 131 0 124 131 0 124 131 0 124 130 0 125 130 0 125 129 0 126 129 0 126 128 0 127 128 0 127 128 0 127 127 0 128 126 0 129 125 0 130 125 0 130 124 0 131 124 0 131 125 0 130 126 0 129 127 0 128 128 0 127 129 0 126 130 0 125 130 0 125 130 0 125 129 0 126 128 0 127 127 0 128 126 0 129 125 0 130 124 0 131 124 0 131 124 0 131 124 0 131 125 0 130 125 0 130 126 0 129 126 0 129 126 0 129 127 0 128 127 0 128 127 0 128 127 0 128 127 0 128 127 0 128 127 0 128 126 0 129 125 0 130 124 0 131 122 0 133 122 0 133 121 0 134 121 0 134 122 0 133 122 0 133 123 0 132 124 0 131 125 0 130 126 0 129 127 0 128 128 0 127 128 0 127 128 0 127 128 0 127 128 0 127 127 0 128 126 0 129 125 0 130 124 0 131 123 0 132 123 0 132 123 0 132 123 0 132 124 0 131 125 0 130 125 0 130 125 0 130 125 0 130 125 0 130 125 0 130 125 0 130 124 0 131 123 0 132 123 0 132 122 0 133 122 0 133 122 0 133 123 0 132 124 0 131 125 0 130 127 0 128 128 0 127 129 0 126 129 0 126 129 0 126 129 0 126 129 0 126 128 0 127 126 0 129 125 0 130 124 0 131 123 0 132 122 0 133 121 0 134 121 0 134 120 0 135 120 0 135 120 0 135 120 0 135 121 0 134 121 0 134 122 0 133 123 0 132 123 0 132 123 0 132 123 0 132 123 0 132 122 0 133 122 0 133 122 0 133 122 0 133 122 0 133 122 0 133 122 0 133 122 0 133 122 0 133 121 0 134 121 0 134 121 0 134 121 0 134 122 0 133 122 0 133 123 0 132 124 0 131 124 0 131 124 0 131 124 0 131 124 0 131 125 0 130 125 0 130 126 0 129 127 0 128 127 0 128 128 0 127 128 0 127 129 0 126 129 0 126 130 0 125 130 0 125 130 0 125 131 0 124 131 0 124 131 0 124 131 0 124 130 0 125 130 0 125 129 0 126 128 0 127 127 0 128 126 0 129 125 0 130 124 0 131 124 0 131 124 0 131 124 0 131 125 0 130 125 0 130 126 0 129 125 0 130 124 0 131 124 0 131 123 0 132 123 0 132 124 0 131 125 0 130 126 0 129 129 0 126 133 0 122 139 0 116 149 0 106 170 0 85 
73 0 182 108 0 147 119 0 136 122 0 133 123 0 132 123 0 132 123 0 132 124 0 131 124 0 131 125 0 130 125 0 130 126 0 129 126 0 129 127 0 128 127 0 128 127 0 128 128 0 127 129 0 126 130 0 125 130 0 125 130 0 125 130 0 125 130 0 125 130 0 125 129 0 126 129 0 126 128 0 127 128 0 127 127 0 128 127 0 128 126 0 129 126 0 129 125 0 130 124 0 131 124 0 131 124 0 131 125 0 130 126 0 129 127 0 128 128 0 127 129 0 126 130 0 125 130 0 125 130 0 125 129 0 126 128 0 127 126 0 129 125 0 130 124 0 131 123 0 132 123 0 132 123 0 132 123 0 132 124 0 131 125 0 130 125 0 130 126 0 129 126 0 129 126 0 129 126 0 129 127 0 128 127 0 128 127 0 128 128 0 127 128 0 127 127 0 128 126 0 129 125 0 130 124 0 131 123 0 132 123 0 132 123 0 132 123 0 132 123 0 132 123 0 132 124 0 131 125 0 130 126 0 129 127 0 128 128 0 127 129 0 126 129 0 126 129 0 126 128 0 127 128 0 127 127 0 128 126 0 129 125 0 130 124 0 131 124 0 131 124 0 131 124 0 131 125 0 130 125 0 130 125 0 130 126 0 129 126 0 129 126 0 129 125 0 130 125 0 130 124 0 131 123 0 132 123 0 132 122 0 133 122 0 133 122 0 133 123 0 132 124 0 131 126 0 129 127 0 128 128 0 127 129 0 126 130 0 125 130 0 125 130 0 125 129 0 126 129 0 126 127 0 128 126 0 129 125 0 130 124 0 131 123 0 132 122 0 133 121 0 134 121 0 134 120 0 135 120 0 135 120 0 135 120 0 135 121 0 134 121 0 134 121 0 134 121 0 134 121 0 134 120 0 135 120 0 135 119 0 136 119 0 136 119 0 136 119 0 136 120 0 135 120 0 135 120 0 135 120 0 135 120 0 135 119 0 136 119 0 136 119 0 136 119 0 136 120 0 135 121 0 134 122 0 133 123 0 132 123 0 132 124 0 131 124 0 131 124 0 131 125 0 130 125 0 130 126 0 129 127 0 128 127 0 128 128 0 127 128 0 127 128 0 127 129 0 126 130 0 125 130 0 125 131 0 124 131 0 124 131 0 124 131 0 124 131 0 124 130 0 125 129 0 126 128 0 127 127 0 128 125 0 130 124 0 131 123 0 132 122 0 133 122 0 133 122 0 133 123 0 132 123 0 132 124 0 131 124 0 131 124 0 131 123 0 132 123 0 132 123 0 132 123 0 132 124 0 131 125 0 130 127 0 128 130 0 125 135 0 120 144 0 111 161 0 94 201 0 54 
64 0 191 107 0 148 120 0 135 123 0 132 124 0 131 124 0 131 125 0 130 125 0 130 125 0 130 126 0 129 126 0 129 127 0 128 127 0 128 127 0 128 127 0 128 128 0 127 128 0 127 129 0 126 129 0 126 130 0 125 130 0 125 130 0 125 129 0 126 129 0 126 129 0 126 128 0 127 128 0 127 127 0 128 127 0 128 127 0 128 126 0 129 126 0 129 125 0 130 124 0 131 124 0 131 124 0 131 125 0 130 126 0 129 127 0 128 128 0 127 129 0 126 130 0 125 130 0 125 129 0 126 128 0 127 127 0 128 126 0 129 125 0 130 124 0 131 123 0 132 122 0 133 122 0 133 122 0 133 123 0 132 124 0 131 125 0 130 125 0 130 126 0 129 126 0 129 126 0 129 127 0 128 127 0 128 128 0 127 128 0 127 129 0 126 128 0 127 128 0 127 127 0 128 126 0 129 125 0 130 125 0 130 124 0 131 124 0 131 123 0 132 123 0 132 124 0 131 124 0 131 126 0 129 127 0 128 128 0 127 129 0 126 129 0 126 129 0 126 129 0 126 128 0 127 127 0 128 126 0 129 125 0 130 125 0 130 124 0 131 124 0 131 125 0 130 125 0 130 125 0 130 126 0 129 126 0 129 126 0 129 126 0 129 126 0 129 125 0 130 124 0 131 123 0 132 123 0 132 122 0 133 122 0 133 123 0 132 123 0 132 125 0 130 126 0 129 127 0 128 128 0 127 129 0 126 130 0 125 130 0 125 130 0 125 130 0 125 129 0 126 128 0 127 127 0 128 125 0 130 124 0 131 123 0 132 122 0 133 122 0 133 121 0 134 121 0 134 121 0 134 120 0 135 120 0 135 121 0 134 121 0 134 120 0 135 120 0 135 119 0 136 118 0 137 117 0 138 117 0 138 116 0 139 117 0 138 117 0 138 118 0 137 118 0 137 118 0 137 118 0 137 118 0 137 118 0 137 118 0 137 118 0 137 118 0 137 119 0 136 120 0 135 121 0 134 122 0 133 123 0 132 123 0 132 124 0 131 125 0 130 125 0 130 126 0 129 127 0 128 127 0 128 127 0 128 127 0 128 128 0 127 128 0 127 129 0 126 130 0 125 131 0 124 131 0 124 132 0 123 132 0 123 131 0 124 131 0 124 130 0 125 128 0 127 127 0 128 125 0 130 123 0 132 122 0 133 121 0 134 120 0 135 120 0 135 120 0 135 121 0 134 122 0 133 122 0 133 123 0 132 123 0 132 122 0 133 123 0 132 123 0 132 124 0 131 125 0 130 126 0 129 128 0 127 130 0 125 134 0 121 139 0 116 152 0 103 191 0 64 
164 0 91 138 0 117 131 0 124 128 0 127 127 0 128 127 0 128 126 0 129 127 0 128 127 0 128 127 0 128 127 0 128 127 0 128 127 0 128 127 0 128 128 0 127 128 0 127 128 0 127 129 0 126 129 0 126 129 0 126 129 0 126 129 0 126 129 0 126 129 0 126 128 0 127 128 0 127 128 0 127 128 0 127 127 0 128 127 0 128 127 0 128 126 0 129 125 0 130 125 0 130 125 0 130 125 0 130 125 0 130 126 0 129 127 0 128 128 0 127 129 0 126 129 0 126 129 0 126 129 0 126 128 0 127 126 0 129 125 0 130 124 0 131 123 0 132 122 0 133 121 0 134 121 0 134 121 0 134 122 0 133 123 0 132 124 0 131 125 0 130 126 0 129 126 0 129 127 0 128 127 0 128 127 0 128 128 0 127 129 0 126 129 0 126 130 0 125 130 0 125 129 0 126 128 0 127 128 0 127 127 0 128 126 0 129 125 0 130 124 0 131 124 0 131 124 0 131 124 0 131 125 0 130 127 0 128 128 0 127 129 0 126 129 0 126 129 0 126 128 0 127 127 0 128 126 0 129 126 0 129 125 0 130 125 0 130 125 0 130 125 0 130 125 0 130 126 0 129 126 0 129 126 0 129 126 0 129 126 0 129 126 0 129 126 0 129 125 0 130 124 0 131 123 0 132 123 0 132 122 0 133 122 0 133 123 0 132 124 0 131 125 0 130 126 0 129 128 0 127 129 0 126 129 0 126 130 0 125 130 0 125 130 0 125 130 0 125 129 0 126 128 0 127 127 0 128 125 0 130 124 0 131 123 0 132 122 0 133 122 0 133 121 0 134 121 0 134 121 0 134 121 0 134 121 0 134 121 0 134 120 0 135 120 0 135 119 0 136 118 0 137 117 0 138 116 0 139 115 0 140 115 0 140 115 0 140 116 0 139 116 0 139 117 0 138 117 0 138 117 0 138 117 0 138 117 0 138 117 0 138 117 0 138 117 0 138 118 0 137 119 0 136 120 0 135 122 0 133 123 0 132 124 0 131 124 0 131 125 0 130 126 0 129 127 0 128 128 0 127 128 0 127 128 0 127 127 0 128 128 0 127 128 0 127 129 0 126 130 0 125 131 0 124 132 0 123 132 0 123 132 0 123 131 0 124 130 0 125 129 0 126 128 0 127 126 0 129 124 0 131 122 0 133 121 0 134 120 0 135 119 0 136 119 0 136 119 0 136 120 0 135 121 0 134 121 0 134 122 0 133 122 0 133 122 0 133 123 0 132 123 0 132 124 0 131 126 0 129 127 0 128 129 0 126 130 0 125 130 0 125 128 0 127 117 0 138 66 0 189 
186 0 69 150 0 105 137 0 118 132 0 123 130 0 125 129 0 126 128 0 127 128 0 127 128 0 127 128 0 127 128 0 127 128 0 127 128 0 127 127 0 128 128 0 127 128 0 127 128 0 127 128 0 127 129 0 126 129 0 126 129 0 126 129 0 126 129 0 126 128 0 127 128 0 127 128 0 127 128 0 127 128 0 127 128 0 127 128 0 127 127 0 128 127 0 128 126 0 129 126 0 129 125 0 130 125 0 130 126 0 129 127 0 128 127 0 128 128 0 127 129 0 126 129 0 126 129 0 126 128 0 127 127 0 128 125 0 130 124 0 131 123 0 132 122 0 133 121 0 134 120 0 135 120 0 135 121 0 134 122 0 133 123 0 132 124 0 131 125 0 130 126 0 129 126 0 129 127 0 128 127 0 128 128 0 127 128 0 127 129 0 126 130 0 125 131 0 124 131 0 124 131 0 124 130 0 125 130 0 125 129 0 126 128 0 127 126 0 129 125 0 130 124 0 131 123 0 132 124 0 131 125 0 130 126 0 129 127 0 128 128 0 127 128 0 127 128 0 127 127 0 128 126 0 129 125 0 130 125 0 130 125 0 130 125 0 130 125 0 130 125 0 130 126 0 129 126 0 129 127 0 128 127 0 128 127 0 128 127 0 128 126 0 129 126 0 129 125 0 130 124 0 131 123 0 132 123 0 132 123 0 132 123 0 132 124 0 131 125 0 130 126 0 129 127 0 128 128 0 127 129 0 126 130 0 125 130 0 125 130 0 125 130 0 125 130 0 125 129 0 126 128 0 127 127 0 128 125 0 130 124 0 131 123 0 132 122 0 133 122 0 133 121 0 134 121 0 134 121 0 134 121 0 134 121 0 134 121 0 134 120 0 135 119 0 136 118 0 137 117 0 138 116 0 139 115 0 140 114 0 141 114 0 141 114 0 141 115 0 140 116 0 139 116 0 139 117 0 138 117 0 138 117 0 138 117 0 138 117 0 138 117 0 138 117 0 138 118 0 137 119 0 136 121 0 134 122 0 133 123 0 132 124 0 131 125 0 130 126 0 129 127 0 128 128 0 127 128 0 127 128 0 127 128 0 127 127 0 128 127 0 128 128 0 127 129 0 126 130 0 125 131 0 124 132 0 123 132 0 123 132 0 123 131 0 124 130 0 125 129 0 126 127 0 128 125 0 130 123 0 132 121 0 134 120 0 135 119 0 136 119 0 136 119 0 136 119 0 136 120 0 135 120 0 135 121 0 134 121 0 134 122 0 133 122 0 133 123 0 132 124 0 131 125 0 130 127 0 128 128 0 127 129 0 126 129 0 126 129 0 126 127 0 128 122 0 133 113 0 142 
138 0 117 139 0 116 135 0 120 133 0 122 131 0 124 130 0 125 130 0 125 130 0 125 129 0 126 129 0 126 129 0 126 128 0 127 128 0 127 128 0 127 128 0 127 128 0 127 128 0 127 128 0 127 128 0 127 129 0 126 129 0 126 129 0 126 129 0 126 129 0 126 129 0 126 129 0 126 129 0 126 129 0 126 129 0 126 129 0 126 128 0 127 128 0 127 127 0 128 126 0 129 126 0 129 126 0 129 126 0 129 127 0 128 128 0 127 128 0 127 129 0 126 128 0 127 128 0 127 127 0 128 126 0 129 124 0 131 123 0 132 122 0 133 121 0 134 120 0 135 120 0 135 120 0 135 121 0 134 121 0 134 123 0 132 124 0 131 125 0 130 126 0 129 126 0 129 127 0 128 127 0 128 127 0 128 128 0 127 129 0 126 130 0 125 131 0 124 132 0 123 132 0 123 132 0 123 131 0 124 130 0 125 129 0 126 127 0 128 125 0 130 124 0 131 123 0 132 123 0 132 124 0 131 125 0 130 127 0 128 127 0 128 127 0 128 127 0 128 126 0 129 125 0 130 124 0 131 124 0 131 124 0 131 124 0 131 125 0 130 126 0 129 127 0 128 127 0 128 128 0 127 128 0 127 127 0 128 127 0 128 126 0 129 126 0 129 125 0 130 124 0 131 123 0 132 123 0 132 123 0 132 123 0 132 124 0 131 126 0 129 127 0 128 128 0 127 129 0 126 130 0 125 130 0 125 130 0 125 130 0 125 130 0 125 130 0 125 129 0 126 128 0 127 126 0 129 125 0 130 123 0 132 122 0 133 122 0 133 121 0 134 121 0 134 121 0 134 121 0 134 121 0 134 121 0 134 121 0 134 120 0 135 119 0 136 118 0 137 117 0 138 115 0 140 114 0 141 114 0 141 114 0 141 115 0 140 115 0 140 116 0 139 116 0 139 117 0 138 117 0 138 117 0 138 117 0 138 117 0 138 117 0 138 118 0 137 119 0 136 120 0 135 122 0 133 123 0 132 124 0 131 125 0 130 126 0 129 127 0 128 128 0 127 128 0 127 129 0 126 128 0 127 128 0 127 127 0 128 127 0 128 127 0 128 128 0 127 129 0 126 130 0 125 131 0 124 132 0 123 132 0 123 131 0 124 130 0 125 129 0 126 127 0 128 125 0 130 123 0 132 121 0 134 120 0 135 119 0 136 119 0 136 119 0 136 119 0 136 120 0 135 120 0 135 121 0 134 121 0 134 122 0 133 122 0 133 123 0 132 124 0 131 126 0 129 127 0 128 128 0 127 129 0 126 129 0 126 128 0 127 127 0 128 130 0 125 155 0 100 
133 0 122 132 0 123 132 0 123 132 0 123 132 0 123 131 0 124 131 0 124 131 0 124 130 0 125 130 0 125 129 0 126 129 0 126 128 0 127 128 0 127 128 0 127 128 0 127 128 0 127 128 0 127 128 0 127 128 0 127 128 0 127 128 0 127 128 0 127 129 0 126 129 0 126 129 0 126 130 0 125 130 0 125 130 0 125 130 0 125 129 0 126 129 0 126 128 0 127 127 0 128 127 0 128 127 0 128 127 0 128 127 0 128 128 0 127 128 0 127 128 0 127 128 0 127 127 0 128 126 0 129 125 0 130 124 0 131 123 0 132 122 0 133 121 0 134 120 0 135 120 0 135 120 0 135 121 0 134 122 0 133 123 0 132 124 0 131 125 0 130 126 0 129 126 0 129 127 0 128 127 0 128 127 0 128 128 0 127 129 0 126 130 0 125 132 0 123 132 0 123 133 0 122 133 0 122 132 0 123 131 0 124 129 0 126 127 0 128 125 0 130 124 0 131 123 0 132 123 0 132 124 0 131 125 0 130 126 0 129 126 0 129 126 0 129 126 0 129 125 0 130 124 0 131 123 0 132 123 0 132 123 0 132 124 0 131 125 0 130 126 0 129 127 0 128 128 0 127 128 0 127 128 0 127 128 0 127 127 0 128 127 0 128 126 0 129 125 0 130 124 0 131 123 0 132 123 0 132 123 0 132 124 0 131 125 0 130 127 0 128 128 0 127 129 0 126 130 0 125 131 0 124 131 0 124 131 0 124 130 0 125 130 0 125 130 0 125 129 0 126 127 0 128 125 0 130 124 0 131 122 0 133 121 0 134 121 0 134 121 0 134 120 0 135 121 0 134 121 0 134 121 0 134 121 0 134 121 0 134 120 0 135 120 0 135 118 0 137 117 0 138 116 0 139 115 0 140 114 0 141 115 0 140 115 0 140 116 0 139 116 0 139 117 0 138 117 0 138 117 0 138 118 0 137 118 0 137 118 0 137 118 0 137 119 0 136 120 0 135 121 0 134 123 0 132 124 0 131 125 0 130 126 0 129 127 0 128 127 0 128 128 0 127 128 0 127 128 0 127 128 0 127 127 0 128 126 0 129 126 0 129 126 0 129 127 0 128 128 0 127 129 0 126 130 0 125 131 0 124 131 0 124 131 0 124 130 0 125 128 0 127 127 0 128 125 0 130 124 0 131 122 0 133 121 0 134 120 0 135 120 0 135 120 0 135 120 0 135 120 0 135 120 0 135 121 0 134 121 0 134 122 0 133 123 0 132 124 0 131 125 0 130 126 0 129 127 0 128 128 0 127 128 0 127 128 0 127 126 0 129 123 0 132 116 0 139 102 0 153 
99 0 156 123 0 132 129 0 126 131 0 124 131 0 124 131 0 124 131 0 124 131 0 124 131 0 124 130 0 125 130 0 125 129 0 126 129 0 126 128 0 127 128 0 127 128 0 127 128 0 127 128 0 127 128 0 127 128 0 127 128 0 127 128 0 127 128 0 127 129 0 126 129 0 126 130 0 125 130 0 125 131 0 124 131 0 124 131 0 124 130 0 125 129 0 126 128 0 127 127 0 128 127 0 128 127 0 128 127 0 128 127 0 128 127 0 128 127 0 128 127 0 128 127 0 128 126 0 129 125 0 130 124 0 131 123 0 132 122 0 133 122 0 133 121 0 134 121 0 134 121 0 134 121 0 134 122 0 133 123 0 132 124 0 131 125 0 130 125 0 130 126 0 129 126 0 129 126 0 129 126 0 129 127 0 128 127 0 128 128 0 127 130 0 125 131 0 124 132 0 123 132 0 123 132 0 123 131 0 124 130 0 125 129 0 126 127 0 128 125 0 130 123 0 132 122 0 133 122 0 133 123 0 132 124 0 131 125 0 130 125 0 130 126 0 129 125 0 130 124 0 131 123 0 132 123 0 132 123 0 132 123 0 132 124 0 131 126 0 129 127 0 128 128 0 127 129 0 126 129 0 126 129 0 126 128 0 127 128 0 127 127 0 128 126 0 129 125 0 130 124 0 131 123 0 132 123 0 132 123 0 132 124 0 131 126 0 129 128 0 127 129 0 126 130 0 125 131 0 124 131 0 124 131 0 124 131 0 124 130 0 125 130 0 125 129 0 126 128 0 127 126 0 129 124 0 131 123 0 132 121 0 134 120 0 135 120 0 135 120 0 135 120 0 135 120 0 135 120 0 135 121 0 134 121 0 134 121 0 134 120 0 135 120 0 135 119 0 136 117 0 138 116 0 139 116 0 139 115 0 140 116 0 139 116 0 139 117 0 138 117 0 138 117 0 138 118 0 137 118 0 137 118 0 137 118 0 137 119 0 136 119 0 136 120 0 135 121 0 134 123 0 132 124 0 131 125 0 130 126 0 129 127 0 128 127 0 128 127 0 128 127 0 128 128 0 127 127 0 128 127 0 128 126 0 129 125 0 130 125 0 130 125 0 130 125 0 130 126 0 129 128 0 127 129 0 126 130 0 125 130 0 125 130 0 125 129 0 126 128 0 127 127 0 128 126 0 129 125 0 130 124 0 131 122 0 133 122 0 133 121 0 134 120 0 135 120 0 135 120 0 135 120 0 135 121 0 134 121 0 134 122 0 133 123 0 132 124 0 131 125 0 130 126 0 129 127 0 128 127 0 128 127 0 128 126 0 129 125 0 130 121 0 134 111 0 144 75 0 180 
158 0 97 133 0 122 129 0 126 129 0 126 130 0 125 131 0 124 131 0 124 131 0 124 131 0 124 131 0 124 130 0 125 130 0 125 129 0 126 128 0 127 128 0 127 127 0 128 127 0 128 127 0 128 127 0 128 127 0 128 127 0 128 127 0 128 127 0 128 128 0 127 129 0 126 130 0 125 130 0 125 131 0 124 131 0 124 131 0 124 130 0 125 129 0 126 128 0 127 127 0 128 127 0 128 127 0 128 127 0 128 127 0 128 127 0 128 127 0 128 126 0 129 126 0 129 125 0 130 124 0 131 124 0 131 123 0 132 123 0 132 122 0 133 122 0 133 122 0 133 122 0 133 122 0 133 123 0 132 124 0 131 124 0 131 125 0 130 126 0 129 126 0 129 126 0 129 126 0 129 126 0 129 126 0 129 127 0 128 128 0 127 129 0 126 130 0 125 131 0 124 131 0 124 131 0 124 130 0 125 129 0 126 127 0 128 126 0 129 124 0 131 123 0 132 122 0 133 121 0 134 122 0 133 123 0 132 124 0 131 125 0 130 125 0 130 125 0 130 124 0 131 123 0 132 123 0 132 123 0 132 123 0 132 125 0 130 126 0 129 127 0 128 129 0 126 129 0 126 130 0 125 129 0 126 129 0 126 128 0 127 127 0 128 126 0 129 125 0 130 124 0 131 123 0 132 123 0 132 123 0 132 125 0 130 126 0 129 128 0 127 130 0 125 131 0 124 131 0 124 131 0 124 131 0 124 130 0 125 130 0 125 129 0 126 128 0 127 127 0 128 125 0 130 123 0 132 121 0 134 120 0 135 119 0 136 119 0 136 119 0 136 120 0 135 120 0 135 120 0 135 120 0 135 121 0 134 121 0 134 120 0 135 120 0 135 119 0 136 118 0 137 117 0 138 116 0 139 116 0 139 117 0 138 117 0 138 118 0 137 118 0 137 118 0 137 118 0 137 118 0 137 118 0 137 119 0 136 119 0 136 120 0 135 121 0 134 122 0 133 123 0 132 125 0 130 126 0 129 127 0 128 127 0 128 127 0 128 127 0 128 127 0 128 126 0 129 126 0 129 125 0 130 125 0 130 124 0 131 124 0 131 124 0 131 124 0 131 125 0 130 127 0 128 128 0 127 129 0 126 129 0 126 129 0 126 129 0 126 128 0 127 128 0 127 127 0 128 126 0 129 125 0 130 124 0 131 123 0 132 122 0 133 121 0 134 121 0 134 120 0 135 120 0 135 120 0 135 121 0 134 122 0 133 123 0 132 124 0 131 125 0 130 125 0 130 126 0 129 126 0 129 126 0 129 125 0 130 124 0 131 124 0 131 129 0 126 164 0 91 
124 0 131 120 0 135 123 0 132 126 0 129 128 0 127 130 0 125 130 0 125 131 0 124 131 0 124 131 0 124 131 0 124 130 0 125 130 0 125 129 0 126 128 0 127 127 0 128 126 0 129 126 0 129 126 0 129 126 0 129 126 0 129 126 0 129 126 0 129 127 0 128 128 0 127 129 0 126 130 0 125 130 0 125 131 0 124 130 0 125 129 0 126 128 0 127 127 0 128 127 0 128 126 0 129 126 0 129 126 0 129 126 0 129 126 0 129 126 0 129 126 0 129 125 0 130 125 0 130 124 0 131 124 0 131 123 0 132 123 0 132 123 0 132 123 0 132 123 0 132 123 0 132 124 0 131 124 0 131 125 0 130 125 0 130 126 0 129 126 0 129 126 0 129 125 0 130 125 0 130 125 0 130 125 0 130 126 0 129 127 0 128 128 0 127 129 0 126 130 0 125 130 0 125 130 0 125 129 0 126 128 0 127 126 0 129 125 0 130 123 0 132 122 0 133 121 0 134 121 0 134 121 0 134 122 0 133 123 0 132 124 0 131 124 0 131 124 0 131 124 0 131 123 0 132 123 0 132 123 0 132 124 0 131 125 0 130 126 0 129 128 0 127 129 0 126 130 0 125 130 0 125 129 0 126 129 0 126 128 0 127 127 0 128 126 0 129 125 0 130 124 0 131 123 0 132 123 0 132 124 0 131 125 0 130 126 0 129 128 0 127 130 0 125 131 0 124 131 0 124 131 0 124 130 0 125 130 0 125 129 0 126 128 0 127 127 0 128 125 0 130 124 0 131 122 0 133 120 0 135 119 0 136 119 0 136 119 0 136 119 0 136 120 0 135 120 0 135 120 0 135 120 0 135 120 0 135 120 0 135 120 0 135 120 0 135 119 0 136 118 0 137 117 0 138 117 0 138 117 0 138 118 0 137 119 0 136 119 0 136 119 0 136 119 0 136 119 0 136 119 0 136 119 0 136 119 0 136 119 0 136 120 0 135 121 0 134 122 0 133 124 0 131 125 0 130 126 0 129 127 0 128 127 0 128 126 0 129 126 0 129 126 0 129 125 0 130 124 0 131 124 0 131 123 0 132 123 0 132 123 0 132 123 0 132 123 0 132 124 0 131 125 0 130 127 0 128 128 0 127 128 0 127 128 0 127 129 0 126 128 0 127 128 0 127 128 0 127 127 0 128 127 0 128 126 0 129 124 0 131 123 0 132 122 0 133 121 0 134 120 0 135 120 0 135 120 0 135 121 0 134 122 0 133 123 0 132 124 0 131 124 0 131 125 0 130 125 0 130 125 0 130 124 0 131 124 0 131 123 0 132 121 0 134 119 0 136 124 0 131 
40 0 215 98 0 157 116 0 139 123 0 132 127 0 128 129 0 126 130 0 125 130 0 125 131 0 124 131 0 124 131 0 124 131 0 124 130 0 125 129 0 126 128 0 127 127 0 128 126 0 129 125 0 130 125 0 130 125 0 130 125 0 130 125 0 130 125 0 130 126 0 129 127 0 128 128 0 127 129 0 126 129 0 126 129 0 126 129 0 126 128 0 127 127 0 128 127 0 128 126 0 129 125 0 130 125 0 130 125 0 130 125 0 130 125 0 130 125 0 130 125 0 130 125 0 130 125 0 130 124 0 131 124 0 131 124 0 131 124 0 131 124 0 131 124 0 131 124 0 131 125 0 130 125 0 130 125 0 130 126 0 129 126 0 129 126 0 129 126 0 129 125 0 130 125 0 130 125 0 130 125 0 130 125 0 130 125 0 130 126 0 129 127 0 128 128 0 127 129 0 126 129 0 126 128 0 127 128 0 127 127 0 128 125 0 130 124 0 131 122 0 133 121 0 134 120 0 135 120 0 135 120 0 135 121 0 134 122 0 133 123 0 132 124 0 131 124 0 131 124 0 131 124 0 131 124 0 131 124 0 131 124 0 131 125 0 130 126 0 129 128 0 127 129 0 126 129 0 126 130 0 125 129 0 126 129 0 126 128 0 127 127 0 128 126 0 129 125 0 130 124 0 131 123 0 132 123 0 132 124 0 131 125 0 130 127 0 128 128 0 127 129 0 126 130 0 125 131 0 124 130 0 125 130 0 125 129 0 126 128 0 127 127 0 128 126 0 129 124 0 131 122 0 133 121 0 134 120 0 135 119 0 136 119 0 136 119 0 136 120 0 135 120 0 135 121 0 134 121 0 134 121 0 134 121 0 134 120 0 135 120 0 135 119 0 136 119 0 136 118 0 137 118 0 137 118 0 137 119 0 136 119 0 136 120 0 135 121 0 134 120 0 135 120 0 135 119 0 136 119 0 136 119 0 136 119 0 136 120 0 135 120 0 135 121 0 134 123 0 132 124 0 131 125 0 130 126 0 129 126 0 129 126 0 129 126 0 129 125 0 130 124 0 131 124 0 131 123 0 132 122 0 133 122 0 133 122 0 133 122 0 133 122 0 133 123 0 132 124 0 131 125 0 130 126 0 129 127 0 128 127 0 128 128 0 127 128 0 127 129 0 126 129 0 126 129 0 126 128 0 127 127 0 128 126 0 129 125 0 130 123 0 132 122 0 133 121 0 134 120 0 135 120 0 135 120 0 135 120 0 135 121 0 134 122 0 133 123 0 132 124 0 131 124 0 131 124 0 131 124 0 131 123 0 132 123 0 132 122 0 133 118 0 137 102 0 153 35 0 220 
123 0 132 115 0 140 119 0 136 124 0 131 127 0 128 128 0 127 129 0 126 130 0 125 131 0 124 131 0 124 131 0 124 131 0 124 131 0 124 129 0 126 128 0 127 126 0 129 125 0 130 124 0 131 123 0 132 123 0 132 123 0 132 124 0 131 124 0 131 125 0 130 125 0 130 127 0 128 127 0 128 128 0 127 128 0 127 128 0 127 127 0 128 126 0 129 126 0 129 125 0 130 125 0 130 125 0 130 125 0 130 125 0 130 125 0 130 125 0 130 125 0 130 125 0 130 125 0 130 125 0 130 125 0 130 124 0 131 124 0 131 124 0 131 125 0 130 125 0 130 125 0 130 126 0 129 126 0 129 126 0 129 126 0 129 126 0 129 125 0 130 125 0 130 125 0 130 124 0 131 124 0 131 125 0 130 125 0 130 126 0 129 127 0 128 127 0 128 128 0 127 128 0 127 127 0 128 127 0 128 126 0 129 124 0 131 123 0 132 121 0 134 120 0 135 119 0 136 119 0 136 120 0 135 121 0 134 122 0 133 123 0 132 124 0 131 124 0 131 124 0 131 124 0 131 124 0 131 124 0 131 125 0 130 126 0 129 126 0 129 127 0 128 128 0 127 129 0 126 129 0 126 129 0 126 129 0 126 128 0 127 127 0 128 126 0 129 125 0 130 124 0 131 124 0 131 124 0 131 124 0 131 125 0 130 127 0 128 128 0 127 129 0 126 130 0 125 130 0 125 129 0 126 129 0 126 128 0 127 127 0 128 126 0 129 125 0 130 123 0 132 122 0 133 120 0 135 120 0 135 119 0 136 120 0 135 120 0 135 121 0 134 122 0 133 122 0 133 122 0 133 122 0 133 121 0 134 121 0 134 120 0 135 120 0 135 119 0 136 119 0 136 119 0 136 119 0 136 120 0 135 121 0 134 122 0 133 122 0 133 122 0 133 121 0 134 120 0 135 120 0 135 119 0 136 120 0 135 120 0 135 121 0 134 122 0 133 123 0 132 124 0 131 125 0 130 126 0 129 126 0 129 126 0 129 125 0 130 124 0 131 124 0 131 123 0 132 122 0 133 121 0 134 121 0 134 121 0 134 121 0 134 122 0 133 123 0 132 123 0 132 124 0 131 125 0 130 126 0 129 127 0 128 127 0 128 128 0 127 129 0 126 129 0 126 129 0 126 129 0 126 128 0 127 127 0 128 125 0 130 123 0 132 122 0 133 121 0 134 120 0 135 120 0 135 119 0 136 120 0 135 121 0 134 122 0 133 122 0 133 123 0 132 123 0 132 123 0 132 123 0 132 123 0 132 123 0 132 125 0 130 127 0 128 135 0 120 169 0 86 
114 0 141 119 0 136 123 0 132 126 0 129 127 0 128 129 0 126 130 0 125 130 0 125 131 0 124 132 0 123 132 0 123 132 0 123 131 0 124 130 0 125 128 0 127 126 0 129 125 0 130 123 0 132 123 0 132 123 0 132 123 0 132 123 0 132 123 0 132 124 0 131 125 0 130 126 0 129 126 0 129 127 0 128 127 0 128 126 0 129 126 0 129 125 0 130 125 0 130 124 0 131 124 0 131 124 0 131 125 0 130 125 0 130 125 0 130 126 0 129 126 0 129 126 0 129 126 0 129 126 0 129 125 0 130 125 0 130 125 0 130 125 0 130 125 0 130 125 0 130 126 0 129 127 0 128 127 0 128 127 0 128 127 0 128 126 0 129 125 0 130 125 0 130 124 0 131 124 0 131 124 0 131 125 0 130 125 0 130 126 0 129 127 0 128 127 0 128 127 0 128 127 0 128 127 0 128 126 0 129 125 0 130 124 0 131 123 0 132 121 0 134 120 0 135 119 0 136 119 0 136 119 0 136 120 0 135 122 0 133 123 0 132 123 0 132 124 0 131 124 0 131 124 0 131 124 0 131 125 0 130 125 0 130 126 0 129 126 0 129 127 0 128 128 0 127 128 0 127 128 0 127 129 0 126 128 0 127 128 0 127 127 0 128 126 0 129 125 0 130 125 0 130 124 0 131 124 0 131 125 0 130 126 0 129 127 0 128 128 0 127 129 0 126 129 0 126 129 0 126 129 0 126 128 0 127 127 0 128 126 0 129 125 0 130 124 0 131 122 0 133 121 0 134 120 0 135 120 0 135 120 0 135 121 0 134 122 0 133 123 0 132 124 0 131 124 0 131 124 0 131 123 0 132 123 0 132 122 0 133 121 0 134 121 0 134 120 0 135 120 0 135 120 0 135 120 0 135 121 0 134 123 0 132 123 0 132 124 0 131 124 0 131 123 0 132 122 0 133 121 0 134 120 0 135 120 0 135 121 0 134 122 0 133 123 0 132 124 0 131 125 0 130 126 0 129 126 0 129 126 0 129 125 0 130 125 0 130 124 0 131 123 0 132 122 0 133 121 0 134 121 0 134 120 0 135 121 0 134 121 0 134 122 0 133 122 0 133 123 0 132 124 0 131 124 0 131 125 0 130 126 0 129 127 0 128 128 0 127 129 0 126 129 0 126 129 0 126 129 0 126 128 0 127 126 0 129 124 0 131 123 0 132 122 0 133 120 0 135 120 0 135 119 0 136 119 0 136 120 0 135 120 0 135 121 0 134 122 0 133 123 0 132 123 0 132 123 0 132 122 0 133 123 0 132 123 0 132 126 0 129 131 0 124 144 0 111 174 0 81 
113 0 142 123 0 132 126 0 129 128 0 127 129 0 126 130 0 125 130 0 125 131 0 124 131 0 124 132 0 123 132 0 123 132 0 123 131 0 124 130 0 125 128 0 127 126 0 129 125 0 130 123 0 132 123 0 132 123 0 132 123 0 132 123 0 132 123 0 132 124 0 131 124 0 131 125 0 130 126 0 129 126 0 129 126 0 129 125 0 130 125 0 130 125 0 130 124 0 131 124 0 131 124 0 131 124 0 131 125 0 130 125 0 130 126 0 129 126 0 129 127 0 128 127 0 128 127 0 128 127 0 128 126 0 129 126 0 129 125 0 130 125 0 130 125 0 130 126 0 129 126 0 129 127 0 128 127 0 128 127 0 128 127 0 128 126 0 129 125 0 130 125 0 130 124 0 131 124 0 131 124 0 131 125 0 130 125 0 130 126 0 129 126 0 129 127 0 128 127 0 128 127 0 128 127 0 128 126 0 129 125 0 130 124 0 131 123 0 132 121 0 134 120 0 135 119 0 136 119 0 136 120 0 135 120 0 135 122 0 133 123 0 132 123 0 132 124 0 131 124 0 131 124 0 131 125 0 130 125 0 130 125 0 130 126 0 129 126 0 129 127 0 128 127 0 128 127 0 128 128 0 127 128 0 127 128 0 127 127 0 128 127 0 128 126 0 129 125 0 130 124 0 131 124 0 131 124 0 131 125 0 130 126 0 129 127 0 128 128 0 127 129 0 126 129 0 126 129 0 126 128 0 127 128 0 127 127 0 128 126 0 129 125 0 130 124 0 131 122 0 133 121 0 134 121 0 134 121 0 134 121 0 134 122 0 133 124 0 131 125 0 130 126 0 129 126 0 129 126 0 129 125 0 130 124 0 131 124 0 131 123 0 132 122 0 133 121 0 134 121 0 134 121 0 134 122 0 133 123 0 132 124 0 131 125 0 130 126 0 129 125 0 130 124 0 131 123 0 132 122 0 133 122 0 133 122 0 133 122 0 133 123 0 132 124 0 131 125 0 130 126 0 129 127 0 128 127 0 128 126 0 129 125 0 130 125 0 130 124 0 131 123 0 132 122 0 133 121 0 134 120 0 135 120 0 135 120 0 135 121 0 134 121 0 134 122 0 133 123 0 132 123 0 132 124 0 131 124 0 131 126 0 129 127 0 128 128 0 127 129 0 126 130 0 125 129 0 126 129 0 126 127 0 128 125 0 130 124 0 131 122 0 133 121 0 134 120 0 135 120 0 135 119 0 136 119 0 136 120 0 135 120 0 135 121 0 134 122 0 133 123 0 132 123 0 132 123 0 132 122 0 133 122 0 133 123 0 132 125 0 130 128 0 127 135 0 120 147 0 108 
158 0 97 135 0 120 131 0 124 130 0 125 130 0 125 131 0 124 131 0 124 131 0 124 132 0 123 132 0 123 132 0 123 132 0 123 131 0 124 130 0 125 128 0 127 127 0 128 125 0 130 124 0 131 123 0 132 123 0 132 123 0 132 124 0 131 124 0 131 125 0 130 125 0 130 125 0 130 125 0 130 125 0 130 125 0 130 125 0 130 124 0 131 124 0 131 124 0 131 124 0 131 125 0 130 125 0 130 125 0 130 126 0 129 127 0 128 127 0 128 128 0 127 128 0 127 128 0 127 128 0 127 127 0 128 126 0 129 126 0 129 125 0 130 126 0 129 126 0 129 127 0 128 128 0 127 128 0 127 128 0 127 127 0 128 126 0 129 126 0 129 125 0 130 124 0 131 124 0 131 125 0 130 125 0 130 125 0 130 126 0 129 126 0 129 127 0 128 127 0 128 127 0 128 127 0 128 127 0 128 126 0 129 125 0 130 123 0 132 122 0 133 121 0 134 120 0 135 120 0 135 120 0 135 121 0 134 122 0 133 123 0 132 124 0 131 124 0 131 124 0 131 124 0 131 124 0 131 125 0 130 125 0 130 126 0 129 126 0 129 126 0 129 127 0 128 127 0 128 127 0 128 127 0 128 127 0 128 127 0 128 126 0 129 125 0 130 124 0 131 124 0 131 124 0 131 124 0 131 125 0 130 126 0 129 127 0 128 128 0 127 129 0 126 129 0 126 129 0 126 128 0 127 128 0 127 127 0 128 126 0 129 125 0 130 124 0 131 122 0 133 121 0 134 121 0 134 122 0 133 123 0 132 124 0 131 126 0 129 127 0 128 128 0 127 128 0 127 128 0 127 127 0 128 126 0 129 125 0 130 124 0 131 123 0 132 123 0 132 122 0 133 122 0 133 123 0 132 124 0 131 126 0 129 127 0 128 127 0 128 127 0 128 126 0 129 125 0 130 124 0 131 124 0 131 124 0 131 124 0 131 125 0 130 126 0 129 127 0 128 128 0 127 128 0 127 127 0 128 127 0 128 126 0 129 125 0 130 124 0 131 123 0 132 121 0 134 121 0 134 120 0 135 120 0 135 120 0 135 121 0 134 121 0 134 122 0 133 122 0 133 123 0 132 123 0 132 124 0 131 125 0 130 126 0 129 128 0 127 129 0 126 129 0 126 129 0 126 128 0 127 126 0 129 125 0 130 123 0 132 122 0 133 121 0 134 120 0 135 120 0 135 120 0 135 120 0 135 120 0 135 121 0 134 122 0 133 123 0 132 123 0 132 124 0 131 123 0 132 123 0 132 122 0 133 122 0 133 122 0 133 123 0 132 121 0 134 113 0 142 
124 0 131 130 0 125 131 0 124 131 0 124 132 0 123 132 0 123 132 0 123 132 0 123 132 0 123 132 0 123 132 0 123 132 0 123 131 0 124 130 0 125 128 0 127 127 0 128 125 0 130 124 0 131 124 0 131 124 0 131 125 0 130 125 0 130 125 0 130 126 0 129 126 0 129 126 0 129 126 0 129 126 0 129 125 0 130 125 0 130 125 0 130 125 0 130 125 0 130 125 0 130 125 0 130 125 0 130 126 0 129 127 0 128 128 0 127 128 0 127 129 0 126 129 0 126 129 0 126 129 0 126 128 0 127 127 0 128 126 0 129 126 0 129 126 0 129 127 0 128 128 0 127 129 0 126 129 0 126 129 0 126 128 0 127 127 0 128 126 0 129 125 0 130 125 0 130 124 0 131 124 0 131 125 0 130 125 0 130 125 0 130 126 0 129 126 0 129 127 0 128 127 0 128 128 0 127 127 0 128 127 0 128 126 0 129 124 0 131 123 0 132 122 0 133 121 0 134 121 0 134 121 0 134 122 0 133 123 0 132 124 0 131 124 0 131 124 0 131 124 0 131 124 0 131 124 0 131 124 0 131 125 0 130 125 0 130 126 0 129 126 0 129 127 0 128 127 0 128 127 0 128 127 0 128 127 0 128 126 0 129 125 0 130 124 0 131 124 0 131 123 0 132 123 0 132 124 0 131 125 0 130 127 0 128 128 0 127 129 0 126 130 0 125 130 0 125 130 0 125 129 0 126 128 0 127 127 0 128 126 0 129 125 0 130 124 0 131 123 0 132 122 0 133 122 0 133 123 0 132 124 0 131 126 0 129 128 0 127 130 0 125 131 0 124 131 0 124 130 0 125 130 0 125 128 0 127 127 0 128 126 0 129 125 0 130 124 0 131 124 0 131 124 0 131 124 0 131 126 0 129 127 0 128 128 0 127 128 0 127 128 0 127 128 0 127 127 0 128 126 0 129 126 0 129 126 0 129 127 0 128 128 0 127 129 0 126 129 0 126 129 0 126 129 0 126 128 0 127 127 0 128 126 0 129 125 0 130 124 0 131 123 0 132 122 0 133 121 0 134 120 0 135 120 0 135 120 0 135 121 0 134 122 0 133 122 0 133 122 0 133 123 0 132 123 0 132 123 0 132 124 0 131 126 0 129 127 0 128 128 0 127 129 0 126 128 0 127 127 0 128 126 0 129 124 0 131 122 0 133 121 0 134 120 0 135 120 0 135 120 0 135 120 0 135 120 0 135 121 0 134 122 0 133 123 0 132 124 0 131 125 0 130 125 0 130 124 0 131 124 0 131 123 0 132 122 0 133 121 0 134 119 0 136 115 0 140 103 0 152 
134 0 121 129 0 126 131 0 124 133 0 122 133 0 122 133 0 122 133 0 122 133 0 122 132 0 123 132 0 123 131 0 124 131 0 124 130 0 125 129 0 126 128 0 127 126 0 129 125 0 130 125 0 130 125 0 130 125 0 130 126 0 129 126 0 129 127 0 128 127 0 128 127 0 128 127 0 128 127 0 128 126 0 129 126 0 129 125 0 130 125 0 130 125 0 130 125 0 130 125 0 130 126 0 129 126 0 129 126 0 129 127 0 128 128 0 127 129 0 126 130 0 125 130 0 125 130 0 125 129 0 126 128 0 127 127 0 128 126 0 129 126 0 129 126 0 129 127 0 128 129 0 126 130 0 125 130 0 125 130 0 125 129 0 126 128 0 127 127 0 128 126 0 129 125 0 130 124 0 131 124 0 131 124 0 131 124 0 131 125 0 130 125 0 130 126 0 129 127 0 128 128 0 127 128 0 127 128 0 127 127 0 128 127 0 128 125 0 130 124 0 131 123 0 132 122 0 133 122 0 133 123 0 132 123 0 132 124 0 131 124 0 131 124 0 131 124 0 131 124 0 131 124 0 131 124 0 131 124 0 131 125 0 130 125 0 130 126 0 129 126 0 129 127 0 128 127 0 128 127 0 128 127 0 128 127 0 128 126 0 129 125 0 130 124 0 131 123 0 132 123 0 132 123 0 132 124 0 131 126 0 129 127 0 128 129 0 126 130 0 125 131 0 124 131 0 124 130 0 125 130 0 125 129 0 126 128 0 127 127 0 128 126 0 129 124 0 131 123 0 132 123 0 132 123 0 132 124 0 131 125 0 130 128 0 127 130 0 125 132 0 123 133 0 122 133 0 122 132 0 123 131 0 124 130 0 125 129 0 126 128 0 127 126 0 129 126 0 129 125 0 130 125 0 130 125 0 130 126 0 129 127 0 128 128 0 127 129 0 126 129 0 126 129 0 126 128 0 127 128 0 127 128 0 127 128 0 127 129 0 126 130 0 125 131 0 124 131 0 124 131 0 124 131 0 124 129 0 126 128 0 127 127 0 128 125 0 130 124 0 131 123 0 132 122 0 133 121 0 134 121 0 134 120 0 135 121 0 134 121 0 134 122 0 133 122 0 133 122 0 133 122 0 133 122 0 133 123 0 132 124 0 131 125 0 130 126 0 129 127 0 128 128 0 127 127 0 128 126 0 129 125 0 130 123 0 132 122 0 133 121 0 134 120 0 135 120 0 135 120 0 135 121 0 134 121 0 134 122 0 133 123 0 132 124 0 131 126 0 129 126 0 129 126 0 129 126 0 129 125 0 130 124 0 131 122 0 133 121 0 134 119 0 136 116 0 139 102 0 153 
95 0 160 123 0 132 131 0 124 134 0 121 134 0 121 134 0 121 134 0 121 133 0 122 132 0 123 131 0 124 131 0 124 130 0 125 129 0 126 128 0 127 127 0 128 126 0 129 125 0 130 125 0 130 125 0 130 126 0 129 127 0 128 128 0 127 128 0 127 128 0 127 128 0 127 128 0 127 127 0 128 127 0 128 126 0 129 126 0 129 125 0 130 125 0 130 126 0 129 126 0 129 126 0 129 126 0 129 127 0 128 127 0 128 128 0 127 130 0 125 130 0 125 131 0 124 130 0 125 130 0 125 129 0 126 127 0 128 127 0 128 126 0 129 127 0 128 128 0 127 130 0 125 131 0 124 131 0 124 131 0 124 130 0 125 128 0 127 127 0 128 126 0 129 125 0 130 124 0 131 124 0 131 124 0 131 124 0 131 124 0 131 125 0 130 126 0 129 127 0 128 128 0 127 128 0 127 129 0 126 128 0 127 127 0 128 126 0 129 125 0 130 124 0 131 124 0 131 124 0 131 124 0 131 124 0 131 125 0 130 125 0 130 125 0 130 124 0 131 123 0 132 123 0 132 123 0 132 124 0 131 124 0 131 125 0 130 126 0 129 127 0 128 128 0 127 128 0 127 128 0 127 128 0 127 127 0 128 126 0 129 125 0 130 123 0 132 123 0 132 123 0 132 123 0 132 125 0 130 127 0 128 128 0 127 130 0 125 131 0 124 132 0 123 132 0 123 131 0 124 130 0 125 129 0 126 128 0 127 127 0 128 126 0 129 125 0 130 124 0 131 123 0 132 123 0 132 124 0 131 126 0 129 129 0 126 131 0 124 133 0 122 134 0 121 134 0 121 134 0 121 133 0 122 132 0 123 130 0 125 129 0 126 127 0 128 126 0 129 126 0 129 125 0 130 126 0 129 126 0 129 127 0 128 128 0 127 129 0 126 130 0 125 130 0 125 129 0 126 129 0 126 129 0 126 130 0 125 131 0 124 132 0 123 132 0 123 133 0 122 132 0 123 132 0 123 130 0 125 129 0 126 127 0 128 126 0 129 124 0 131 123 0 132 122 0 133 121 0 134 121 0 134 121 0 134 121 0 134 122 0 133 122 0 133 123 0 132 123 0 132 122 0 133 122 0 133 122 0 133 123 0 132 124 0 131 125 0 130 126 0 129 126 0 129 126 0 129 125 0 130 124 0 131 122 0 133 121 0 134 121 0 134 120 0 135 121 0 134 121 0 134 121 0 134 122 0 133 123 0 132 125 0 130 126 0 129 127 0 128 128 0 127 128 0 127 127 0 128 126 0 129 125 0 130 123 0 132 122 0 133 122 0 133 130 0 125 177 0 78 
130 0 125 136 0 119 137 0 118 136 0 119 136 0 119 135 0 120 134 0 121 133 0 122 132 0 123 131 0 124 130 0 125 129 0 126 128 0 127 127 0 128 126 0 129 126 0 129 125 0 130 125 0 130 126 0 129 127 0 128 128 0 127 128 0 127 129 0 126 129 0 126 129 0 126 128 0 127 128 0 127 127 0 128 127 0 128 126 0 129 126 0 129 126 0 129 126 0 129 126 0 129 126 0 129 126 0 129 127 0 128 128 0 127 129 0 126 130 0 125 130 0 125 131 0 124 131 0 124 130 0 125 129 0 126 128 0 127 127 0 128 127 0 128 128 0 127 129 0 126 130 0 125 132 0 123 132 0 123 131 0 124 130 0 125 129 0 126 127 0 128 126 0 129 125 0 130 124 0 131 123 0 132 123 0 132 123 0 132 123 0 132 124 0 131 125 0 130 126 0 129 127 0 128 128 0 127 129 0 126 129 0 126 128 0 127 127 0 128 126 0 129 125 0 130 124 0 131 124 0 131 125 0 130 125 0 130 125 0 130 125 0 130 124 0 131 124 0 131 123 0 132 122 0 133 122 0 133 123 0 132 124 0 131 125 0 130 127 0 128 128 0 127 129 0 126 129 0 126 129 0 126 129 0 126 128 0 127 127 0 128 125 0 130 124 0 131 123 0 132 123 0 132 124 0 131 126 0 129 128 0 127 130 0 125 131 0 124 133 0 122 133 0 122 133 0 122 132 0 123 131 0 124 130 0 125 129 0 126 128 0 127 127 0 128 126 0 129 124 0 131 124 0 131 124 0 131 125 0 130 127 0 128 129 0 126 132 0 123 134 0 121 135 0 120 135 0 120 135 0 120 134 0 121 132 0 123 131 0 124 129 0 126 128 0 127 127 0 128 126 0 129 125 0 130 125 0 130 126 0 129 127 0 128 128 0 127 129 0 126 130 0 125 130 0 125 130 0 125 130 0 125 130 0 125 131 0 124 132 0 123 133 0 122 133 0 122 133 0 122 133 0 122 132 0 123 131 0 124 129 0 126 127 0 128 126 0 129 125 0 130 123 0 132 122 0 133 122 0 133 121 0 134 121 0 134 122 0 133 122 0 133 123 0 132 123 0 132 123 0 132 123 0 132 122 0 133 122 0 133 122 0 133 123 0 132 124 0 131 124 0 131 125 0 130 124 0 131 124 0 131 123 0 132 122 0 133 121 0 134 121 0 134 121 0 134 121 0 134 121 0 134 122 0 133 123 0 132 124 0 131 126 0 129 127 0 128 128 0 127 129 0 126 129 0 126 128 0 127 127 0 128 126 0 129 124 0 131 121 0 134 117 0 138 105 0 150 62 0 193 
181 0 74 153 0 102 143 0 112 139 0 116 137 0 118 135 0 120 134 0 121 133 0 122 132 0 123 131 0 124 130 0 125 129 0 126 128 0 127 126 0 129 126 0 129 125 0 130 125 0 130 125 0 130 126 0 129 127 0 128 128 0 127 129 0 126 129 0 126 129 0 126 129 0 126 129 0 126 128 0 127 127 0 128 127 0 128 126 0 129 126 0 129 126 0 129 126 0 129 126 0 129 126 0 129 126 0 129 127 0 128 128 0 127 129 0 126 129 0 126 130 0 125 131 0 124 130 0 125 130 0 125 129 0 126 128 0 127 127 0 128 127 0 128 128 0 127 130 0 125 131 0 124 132 0 123 132 0 123 131 0 124 130 0 125 128 0 127 127 0 128 125 0 130 124 0 131 124 0 131 123 0 132 123 0 132 123 0 132 123 0 132 124 0 131 125 0 130 126 0 129 127 0 128 128 0 127 129 0 126 128 0 127 128 0 127 127 0 128 126 0 129 125 0 130 125 0 130 125 0 130 125 0 130 125 0 130 125 0 130 124 0 131 124 0 131 123 0 132 122 0 133 121 0 134 122 0 133 122 0 133 124 0 131 125 0 130 127 0 128 128 0 127 129 0 126 130 0 125 130 0 125 130 0 125 129 0 126 127 0 128 126 0 129 124 0 131 124 0 131 124 0 131 125 0 130 127 0 128 129 0 126 131 0 124 132 0 123 133 0 122 134 0 121 133 0 122 132 0 123 131 0 124 130 0 125 130 0 125 129 0 126 128 0 127 126 0 129 125 0 130 125 0 130 125 0 130 126 0 129 127 0 128 129 0 126 132 0 123 133 0 122 135 0 120 135 0 120 135 0 120 134 0 121 133 0 122 131 0 124 130 0 125 128 0 127 127 0 128 126 0 129 125 0 130 125 0 130 125 0 130 126 0 129 127 0 128 128 0 127 129 0 126 130 0 125 130 0 125 130 0 125 131 0 124 132 0 123 132 0 123 133 0 122 133 0 122 133 0 122 133 0 122 132 0 123 131 0 124 129 0 126 127 0 128 126 0 129 125 0 130 123 0 132 122 0 133 122 0 133 121 0 134 121 0 134 122 0 133 123 0 132 124 0 131 124 0 131 124 0 131 123 0 132 122 0 133 122 0 133 122 0 133 122 0 133 123 0 132 123 0 132 123 0 132 123 0 132 123 0 132 123 0 132 122 0 133 122 0 133 122 0 133 122 0 133 122 0 133 122 0 133 123 0 132 124 0 131 125 0 130 126 0 129 128 0 127 129 0 126 129 0 126 129 0 126 129 0 126 128 0 127 126 0 129 125 0 130 123 0 132 119 0 136 110 0 145 89 0 166 
170 0 85 152 0 103 143 0 112 138 0 117 136 0 119 135 0 120 134 0 121 133 0 122 132 0 123 131 0 124 130 0 125 128 0 127 127 0 128 126 0 129 125 0 130 125 0 130 125 0 130 125 0 130 126 0 129 127 0 128 128 0 127 129 0 126 129 0 126 129 0 126 129 0 126 128 0 127 128 0 127 127 0 128 126 0 129 126 0 129 126 0 129 126 0 129 126 0 129 126 0 129 126 0 129 127 0 128 127 0 128 128 0 127 129 0 126 129 0 126 130 0 125 130 0 125 130 0 125 130 0 125 129 0 126 128 0 127 128 0 127 128 0 127 129 0 126 130 0 125 131 0 124 131 0 124 131 0 124 130 0 125 129 0 126 127 0 128 126 0 129 125 0 130 124 0 131 123 0 132 123 0 132 123 0 132 123 0 132 123 0 132 124 0 131 124 0 131 125 0 130 127 0 128 127 0 128 128 0 127 128 0 127 127 0 128 126 0 129 125 0 130 125 0 130 125 0 130 125 0 130 125 0 130 125 0 130 124 0 131 124 0 131 123 0 132 122 0 133 121 0 134 120 0 135 121 0 134 122 0 133 123 0 132 125 0 130 127 0 128 129 0 126 130 0 125 131 0 124 131 0 124 131 0 124 130 0 125 128 0 127 127 0 128 126 0 129 125 0 130 125 0 130 126 0 129 127 0 128 129 0 126 131 0 124 133 0 122 134 0 121 134 0 121 133 0 122 132 0 123 131 0 124 131 0 124 130 0 125 129 0 126 128 0 127 127 0 128 126 0 129 126 0 129 125 0 130 126 0 129 127 0 128 129 0 126 131 0 124 133 0 122 134 0 121 135 0 120 135 0 120 134 0 121 133 0 122 131 0 124 130 0 125 128 0 127 127 0 128 126 0 129 125 0 130 124 0 131 125 0 130 125 0 130 126 0 129 128 0 127 129 0 126 129 0 126 130 0 125 131 0 124 131 0 124 132 0 123 132 0 123 132 0 123 132 0 123 132 0 123 132 0 123 131 0 124 130 0 125 129 0 126 127 0 128 126 0 129 125 0 130 123 0 132 122 0 133 121 0 134 121 0 134 121 0 134 122 0 133 123 0 132 124 0 131 125 0 130 125 0 130 124 0 131 123 0 132 122 0 133 121 0 134 122 0 133 122 0 133 123 0 132 123 0 132 123 0 132 123 0 132 123 0 132 123 0 132 123 0 132 123 0 132 123 0 132 123 0 132 123 0 132 123 0 132 124 0 131 125 0 130 126 0 129 127 0 128 128 0 127 128 0 127 128 0 127 128 0 127 127 0 128 127 0 128 127 0 128 127 0 128 128 0 127 126 0 129 103 0 152 
158 0 97 143 0 112 137 0 118 135 0 120 134 0 121 133 0 122 133 0 122 132 0 123 132 0 123 131 0 124 129 0 126 128 0 127 127 0 128 126 0 129 125 0 130 124 0 131 124 0 131 125 0 130 126 0 129 127 0 128 128 0 127 129 0 126 129 0 126 129 0 126 128 0 127 128 0 127 127 0 128 127 0 128 126 0 129 126 0 129 125 0 130 125 0 130 126 0 129 126 0 129 126 0 129 127 0 128 128 0 127 128 0 127 129 0 126 130 0 125 130 0 125 130 0 125 130 0 125 130 0 125 129 0 126 129 0 126 128 0 127 128 0 127 129 0 126 130 0 125 130 0 125 130 0 125 130 0 125 129 0 126 128 0 127 126 0 129 125 0 130 124 0 131 123 0 132 123 0 132 123 0 132 123 0 132 123 0 132 123 0 132 124 0 131 124 0 131 125 0 130 126 0 129 126 0 129 127 0 128 126 0 129 126 0 129 125 0 130 124 0 131 124 0 131 124 0 131 124 0 131 124 0 131 123 0 132 123 0 132 122 0 133 121 0 134 120 0 135 120 0 135 119 0 136 120 0 135 121 0 134 122 0 133 124 0 131 126 0 129 128 0 127 130 0 125 131 0 124 131 0 124 131 0 124 130 0 125 129 0 126 128 0 127 127 0 128 126 0 129 126 0 129 126 0 129 127 0 128 129 0 126 131 0 124 132 0 123 133 0 122 133 0 122 132 0 123 132 0 123 131 0 124 130 0 125 130 0 125 129 0 126 128 0 127 128 0 127 127 0 128 126 0 129 126 0 129 126 0 129 127 0 128 128 0 127 130 0 125 132 0 123 133 0 122 134 0 121 134 0 121 133 0 122 132 0 123 131 0 124 130 0 125 128 0 127 127 0 128 125 0 130 124 0 131 123 0 132 124 0 131 124 0 131 125 0 130 127 0 128 128 0 127 129 0 126 130 0 125 131 0 124 131 0 124 131 0 124 131 0 124 131 0 124 131 0 124 131 0 124 131 0 124 130 0 125 129 0 126 128 0 127 127 0 128 126 0 129 124 0 131 123 0 132 122 0 133 121 0 134 121 0 134 122 0 133 123 0 132 124 0 131 125 0 130 126 0 129 125 0 130 124 0 131 123 0 132 122 0 133 121 0 134 122 0 133 122 0 133 123 0 132 124 0 131 124 0 131 124 0 131 125 0 130 125 0 130 125 0 130 124 0 131 124 0 131 123 0 132 123 0 132 123 0 132 124 0 131 124 0 131 125 0 130 126 0 129 127 0 128 127 0 128 127 0 128 126 0 129 126 0 129 126 0 129 127 0 128 131 0 124 140 0 115 164 0 91 240 0 15 
128 0 127 124 0 131 127 0 128 129 0 126 131 0 124 132 0 123 132 0 123 132 0 123 131 0 124 131 0 124 130 0 125 128 0 127 127 0 128 125 0 130 124 0 131 124 0 131 124 0 131 124 0 131 125 0 130 126 0 129 127 0 128 128 0 127 128 0 127 128 0 127 127 0 128 127 0 128 126 0 129 126 0 129 126 0 129 125 0 130 125 0 130 125 0 130 126 0 129 126 0 129 127 0 128 127 0 128 128 0 127 129 0 126 129 0 126 130 0 125 130 0 125 130 0 125 130 0 125 130 0 125 129 0 126 129 0 126 129 0 126 129 0 126 129 0 126 129 0 126 129 0 126 129 0 126 128 0 127 127 0 128 126 0 129 125 0 130 124 0 131 124 0 131 123 0 132 123 0 132 123 0 132 124 0 131 124 0 131 124 0 131 124 0 131 125 0 130 125 0 130 125 0 130 125 0 130 125 0 130 124 0 131 124 0 131 123 0 132 123 0 132 122 0 133 122 0 133 122 0 133 122 0 133 122 0 133 121 0 134 120 0 135 119 0 136 119 0 136 118 0 137 118 0 137 119 0 136 120 0 135 122 0 133 124 0 131 126 0 129 127 0 128 129 0 126 130 0 125 131 0 124 131 0 124 130 0 125 130 0 125 128 0 127 127 0 128 126 0 129 126 0 129 126 0 129 127 0 128 128 0 127 129 0 126 131 0 124 131 0 124 131 0 124 131 0 124 130 0 125 130 0 125 129 0 126 129 0 126 128 0 127 128 0 127 127 0 128 127 0 128 126 0 129 126 0 129 126 0 129 126 0 129 128 0 127 129 0 126 130 0 125 132 0 123 133 0 122 133 0 122 132 0 123 132 0 123 131 0 124 129 0 126 128 0 127 126 0 129 125 0 130 123 0 132 123 0 132 123 0 132 123 0 132 125 0 130 126 0 129 128 0 127 129 0 126 130 0 125 131 0 124 131 0 124 131 0 124 131 0 124 130 0 125 130 0 125 130 0 125 129 0 126 129 0 126 129 0 126 128 0 127 127 0 128 126 0 129 125 0 130 123 0 132 122 0 133 122 0 133 121 0 134 122 0 133 123 0 132 125 0 130 126 0 129 127 0 128 126 0 129 125 0 130 124 0 131 122 0 133 122 0 133 122 0 133 122 0 133 123 0 132 124 0 131 125 0 130 126 0 129 126 0 129 126 0 129 126 0 129 126 0 129 125 0 130 124 0 131 123 0 132 123 0 132 123 0 132 124 0 131 124 0 131 125 0 130 125 0 130 125 0 130 124 0 131 124 0 131 124 0 131 125 0 130 126 0 129 129 0 126 136 0 119 150 0 105 177 0 78 
50 0 205 100 0 155 117 0 138 124 0 131 128 0 127 130 0 125 131 0 124 131 0 124 131 0 124 131 0 124 130 0 125 129 0 126 127 0 128 126 0 129 124 0 131 124 0 131 123 0 132 124 0 131 124 0 131 125 0 130 126 0 129 127 0 128 127 0 128 127 0 128 127 0 128 126 0 129 126 0 129 125 0 130 125 0 130 125 0 130 125 0 130 126 0 129 126 0 129 127 0 128 127 0 128 128 0 127 129 0 126 129 0 126 130 0 125 130 0 125 130 0 125 130 0 125 130 0 125 130 0 125 130 0 125 129 0 126 129 0 126 129 0 126 129 0 126 128 0 127 128 0 127 127 0 128 126 0 129 125 0 130 125 0 130 124 0 131 123 0 132 123 0 132 124 0 131 124 0 131 124 0 131 125 0 130 125 0 130 125 0 130 125 0 130 125 0 130 124 0 131 124 0 131 123 0 132 122 0 133 121 0 134 121 0 134 120 0 135 120 0 135 120 0 135 119 0 136 119 0 136 119 0 136 119 0 136 118 0 137 117 0 138 117 0 138 116 0 139 116 0 139 116 0 139 117 0 138 118 0 137 120 0 135 122 0 133 124 0 131 126 0 129 127 0 128 128 0 127 129 0 126 129 0 126 129 0 126 129 0 126 128 0 127 127 0 128 126 0 129 125 0 130 125 0 130 125 0 130 126 0 129 127 0 128 128 0 127 128 0 127 129 0 126 128 0 127 128 0 127 127 0 128 127 0 128 126 0 129 126 0 129 126 0 129 126 0 129 125 0 130 125 0 130 125 0 130 125 0 130 125 0 130 126 0 129 127 0 128 128 0 127 129 0 126 130 0 125 131 0 124 130 0 125 130 0 125 129 0 126 128 0 127 127 0 128 125 0 130 123 0 132 122 0 133 121 0 134 121 0 134 122 0 133 124 0 131 125 0 130 127 0 128 129 0 126 130 0 125 131 0 124 131 0 124 131 0 124 130 0 125 129 0 126 129 0 126 128 0 127 128 0 127 128 0 127 128 0 127 128 0 127 127 0 128 126 0 129 125 0 130 124 0 131 123 0 132 122 0 133 122 0 133 122 0 133 124 0 131 125 0 130 127 0 128 128 0 127 127 0 128 126 0 129 124 0 131 123 0 132 122 0 133 122 0 133 123 0 132 124 0 131 125 0 130 126 0 129 127 0 128 128 0 127 128 0 127 127 0 128 126 0 129 126 0 129 124 0 131 124 0 131 123 0 132 123 0 132 123 0 132 123 0 132 123 0 132 123 0 132 123 0 132 122 0 133 122 0 133 122 0 133 123 0 132 124 0 131 125 0 130 125 0 130 124 0 131 119 0 136 
102 0 153 107 0 148 116 0 139 123 0 132 127 0 128 129 0 126 130 0 125 131 0 124 131 0 124 131 0 124 130 0 125 129 0 126 128 0 127 126 0 129 125 0 130 124 0 131 123 0 132 123 0 132 124 0 131 124 0 131 125 0 130 126 0 129 126 0 129 126 0 129 126 0 129 126 0 129 125 0 130 125 0 130 125 0 130 125 0 130 126 0 129 126 0 129 126 0 129 127 0 128 128 0 127 128 0 127 129 0 126 130 0 125 130 0 125 130 0 125 131 0 124 131 0 124 131 0 124 130 0 125 130 0 125 130 0 125 129 0 126 129 0 126 128 0 127 128 0 127 127 0 128 126 0 129 125 0 130 124 0 131 123 0 132 123 0 132 123 0 132 123 0 132 124 0 131 125 0 130 125 0 130 126 0 129 126 0 129 126 0 129 126 0 129 125 0 130 123 0 132 121 0 134 120 0 135 118 0 137 117 0 138 116 0 139 116 0 139 115 0 140 115 0 140 115 0 140 115 0 140 115 0 140 114 0 141 114 0 141 113 0 142 113 0 142 112 0 143 112 0 143 113 0 142 114 0 141 115 0 140 117 0 138 119 0 136 121 0 134 122 0 133 123 0 132 124 0 131 125 0 130 126 0 129 126 0 129 126 0 129 125 0 130 124 0 131 123 0 132 122 0 133 121 0 134 121 0 134 121 0 134 122 0 133 123 0 132 123 0 132 124 0 131 124 0 131 123 0 132 123 0 132 123 0 132 122 0 133 122 0 133 122 0 133 122 0 133 122 0 133 121 0 134 121 0 134 121 0 134 121 0 134 122 0 133 123 0 132 124 0 131 125 0 130 126 0 129 126 0 129 126 0 129 126 0 129 125 0 130 125 0 130 124 0 131 122 0 133 121 0 134 120 0 135 120 0 135 120 0 135 121 0 134 123 0 132 125 0 130 126 0 129 128 0 127 130 0 125 131 0 124 131 0 124 131 0 124 130 0 125 128 0 127 128 0 127 127 0 128 127 0 128 127 0 128 128 0 127 127 0 128 127 0 128 126 0 129 125 0 130 124 0 131 123 0 132 122 0 133 122 0 133 123 0 132 124 0 131 126 0 129 127 0 128 128 0 127 128 0 127 126 0 129 125 0 130 123 0 132 122 0 133 122 0 133 123 0 132 125 0 130 126 0 129 127 0 128 128 0 127 128 0 127 128 0 127 128 0 127 127 0 128 126 0 129 124 0 131 123 0 132 123 0 132 122 0 133 122 0 133 122 0 133 122 0 133 121 0 134 121 0 134 120 0 135 120 0 135 120 0 135 121 0 134 121 0 134 121 0 134 117 0 138 101 0 154 45 0 210 
98 0 157 111 0 144 118 0 137 123 0 132 126 0 129 129 0 126 130 0 125 131 0 124 131 0 124 131 0 124 131 0 124 129 0 126 128 0 127 127 0 128 125 0 130 124 0 131 124 0 131 123 0 132 123 0 132 124 0 131 125 0 130 126 0 129 126 0 129 126 0 129 126 0 129 126 0 129 126 0 129 126 0 129 126 0 129 126 0 129 126 0 129 126 0 129 127 0 128 127 0 128 128 0 127 129 0 126 129 0 126 130 0 125 130 0 125 130 0 125 131 0 124 131 0 124 131 0 124 131 0 124 130 0 125 130 0 125 129 0 126 129 0 126 128 0 127 127 0 128 126 0 129 125 0 130 124 0 131 123 0 132 123 0 132 123 0 132 123 0 132 124 0 131 125 0 130 126 0 129 127 0 128 127 0 128 127 0 128 127 0 128 126 0 129 124 0 131 121 0 134 117 0 138 114 0 141 112 0 143 110 0 145 109 0 146 108 0 147 108 0 147 108 0 147 108 0 147 108 0 147 108 0 147 107 0 148 107 0 148 106 0 149 106 0 149 106 0 149 106 0 149 107 0 148 108 0 147 110 0 145 112 0 143 113 0 142 115 0 140 116 0 139 117 0 138 118 0 137 118 0 137 119 0 136 120 0 135 120 0 135 120 0 135 119 0 136 117 0 138 116 0 139 115 0 140 114 0 141 114 0 141 114 0 141 115 0 140 116 0 139 116 0 139 116 0 139 116 0 139 116 0 139 115 0 140 115 0 140 115 0 140 115 0 140 115 0 140 115 0 140 114 0 141 114 0 141 114 0 141 115 0 140 115 0 140 116 0 139 117 0 138 118 0 137 118 0 137 119 0 136 119 0 136 119 0 136 119 0 136 118 0 137 118 0 137 117 0 138 117 0 138 117 0 138 118 0 137 119 0 136 120 0 135 122 0 133 124 0 131 126 0 129 128 0 127 129 0 126 130 0 125 131 0 124 130 0 125 129 0 126 128 0 127 127 0 128 126 0 129 126 0 129 127 0 128 127 0 128 127 0 128 127 0 128 127 0 128 126 0 129 124 0 131 123 0 132 123 0 132 123 0 132 123 0 132 125 0 130 126 0 129 128 0 127 128 0 127 128 0 127 127 0 128 125 0 130 124 0 131 123 0 132 123 0 132 124 0 131 125 0 130 126 0 129 127 0 128 128 0 127 128 0 127 128 0 127 127 0 128 127 0 128 125 0 130 124 0 131 123 0 132 122 0 133 121 0 134 121 0 134 121 0 134 120 0 135 120 0 135 119 0 136 119 0 136 119 0 136 119 0 136 120 0 135 121 0 134 121 0 134 121 0 134 118 0 137 109 0 146 
126 0 129 120 0 135 121 0 134 124 0 131 127 0 128 129 0 126 130 0 125 131 0 124 131 0 124 131 0 124 131 0 124 130 0 125 129 0 126 127 0 128 126 0 129 125 0 130 124 0 131 123 0 132 123 0 132 124 0 131 125 0 130 126 0 129 126 0 129 127 0 128 127 0 128 127 0 128 126 0 129 126 0 129 126 0 129 126 0 129 127 0 128 127 0 128 127 0 128 127 0 128 128 0 127 128 0 127 129 0 126 129 0 126 130 0 125 130 0 125 130 0 125 131 0 124 131 0 124 131 0 124 131 0 124 130 0 125 130 0 125 129 0 126 128 0 127 127 0 128 126 0 129 125 0 130 124 0 131 123 0 132 123 0 132 123 0 132 123 0 132 124 0 131 125 0 130 126 0 129 127 0 128 128 0 127 128 0 127 127 0 128 124 0 131 120 0 135 115 0 140 110 0 145 105 0 150 101 0 154 99 0 156 98 0 157 97 0 158 97 0 158 98 0 157 98 0 157 97 0 158 97 0 158 96 0 159 96 0 159 95 0 160 95 0 160 95 0 160 96 0 159 97 0 158 98 0 157 100 0 155 101 0 154 103 0 152 104 0 151 105 0 150 106 0 149 106 0 149 107 0 148 108 0 147 108 0 147 109 0 146 109 0 146 108 0 147 107 0 148 105 0 150 104 0 151 103 0 152 102 0 153 102 0 153 103 0 152 103 0 152 104 0 151 104 0 151 104 0 151 104 0 151 103 0 152 103 0 152 103 0 152 103 0 152 103 0 152 103 0 152 103 0 152 103 0 152 103 0 152 103 0 152 104 0 151 105 0 150 105 0 150 106 0 149 106 0 149 107 0 148 107 0 148 107 0 148 107 0 148 107 0 148 108 0 147 109 0 146 111 0 144 113 0 142 115 0 140 117 0 138 119 0 136 121 0 134 123 0 132 125 0 130 127 0 128 129 0 126 130 0 125 130 0 125 129 0 126 128 0 127 127 0 128 126 0 129 125 0 130 125 0 130 126 0 129 127 0 128 127 0 128 128 0 127 127 0 128 126 0 129 125 0 130 124 0 131 123 0 132 123 0 132 123 0 132 125 0 130 126 0 129 127 0 128 128 0 127 128 0 127 127 0 128 125 0 130 124 0 131 123 0 132 123 0 132 124 0 131 125 0 130 126 0 129 127 0 128 128 0 127 128 0 127 128 0 127 127 0 128 126 0 129 125 0 130 124 0 131 122 0 133 121 0 134 121 0 134 120 0 135 119 0 136 119 0 136 118 0 137 118 0 137 117 0 138 118 0 137 118 0 137 119 0 136 121 0 134 123 0 132 128 0 127 142 0 113 193 0 62 
113 0 142 120 0 135 123 0 132 126 0 129 128 0 127 130 0 125 131 0 124 131 0 124 131 0 124 131 0 124 131 0 124 130 0 125 129 0 126 128 0 127 127 0 128 126 0 129 125 0 130 124 0 131 124 0 131 124 0 131 125 0 130 126 0 129 127 0 128 128 0 127 128 0 127 128 0 127 128 0 127 127 0 128 127 0 128 127 0 128 127 0 128 127 0 128 127 0 128 127 0 128 128 0 127 128 0 127 128 0 127 129 0 126 129 0 126 130 0 125 130 0 125 131 0 124 131 0 124 132 0 123 131 0 124 131 0 124 130 0 125 129 0 126 128 0 127 127 0 128 126 0 129 125 0 130 124 0 131 124 0 131 123 0 132 123 0 132 124 0 131 125 0 130 126 0 129 127 0 128 128 0 127 128 0 127 127 0 128 125 0 130 121 0 134 114 0 141 106 0 149 97 0 158 91 0 164 86 0 169 83 0 172 81 0 174 81 0 174 81 0 174 81 0 174 81 0 174 81 0 174 81 0 174 80 0 175 80 0 175 79 0 176 79 0 176 79 0 176 80 0 175 81 0 174 82 0 173 84 0 171 85 0 170 86 0 169 87 0 168 88 0 167 88 0 167 89 0 166 89 0 166 90 0 165 91 0 164 91 0 164 91 0 164 91 0 164 90 0 165 88 0 167 87 0 168 86 0 169 85 0 170 85 0 170 85 0 170 86 0 169 86 0 169 87 0 168 87 0 168 86 0 169 86 0 169 86 0 169 86 0 169 86 0 169 85 0 170 86 0 169 86 0 169 86 0 169 86 0 169 86 0 169 87 0 168 87 0 168 88 0 167 88 0 167 88 0 167 89 0 166 89 0 166 89 0 166 90 0 165 91 0 164 92 0 163 96 0 159 101 0 154 106 0 149 111 0 144 115 0 140 118 0 137 121 0 134 123 0 132 125 0 130 127 0 128 128 0 127 129 0 126 129 0 126 129 0 126 127 0 128 126 0 129 125 0 130 124 0 131 124 0 131 125 0 130 126 0 129 127 0 128 128 0 127 127 0 128 127 0 128 125 0 130 124 0 131 123 0 132 123 0 132 123 0 132 124 0 131 126 0 129 127 0 128 127 0 128 127 0 128 126 0 129 125 0 130 124 0 131 123 0 132 123 0 132 124 0 131 124 0 131 126 0 129 126 0 129 127 0 128 127 0 128 127 0 128 126 0 129 126 0 129 124 0 131 123 0 132 122 0 133 121 0 134 120 0 135 119 0 136 118 0 137 117 0 138 117 0 138 117 0 138 117 0 138 117 0 138 118 0 137 119 0 136 121 0 134 123 0 132 126 0 129 128 0 127 123 0 132 
122 0 133 122 0 133 125 0 130 127 0 128 129 0 126 130 0 125 131 0 124 131 0 124 131 0 124 131 0 124 130 0 125 130 0 125 129 0 126 128 0 127 127 0 128 127 0 128 126 0 129 125 0 130 125 0 130 125 0 130 126 0 129 127 0 128 129 0 126 129 0 126 130 0 125 129 0 126 129 0 126 129 0 126 128 0 127 128 0 127 128 0 127 128 0 127 127 0 128 127 0 128 128 0 127 128 0 127 128 0 127 128 0 127 129 0 126 129 0 126 130 0 125 131 0 124 132 0 123 132 0 123 132 0 123 132 0 123 131 0 124 129 0 126 128 0 127 127 0 128 126 0 129 126 0 129 125 0 130 125 0 130 124 0 131 124 0 131 124 0 131 125 0 130 126 0 129 127 0 128 128 0 127 128 0 127 126 0 129 122 0 133 115 0 140 105 0 150 92 0 163 78 0 177 69 0 186 64 0 191 61 0 194 59 0 196 59 0 196 59 0 196 59 0 196 59 0 196 59 0 196 59 0 196 58 0 197 58 0 197 58 0 197 58 0 197 58 0 197 58 0 197 59 0 196 60 0 195 61 0 194 62 0 193 63 0 192 64 0 191 64 0 191 64 0 191 65 0 190 65 0 190 66 0 189 66 0 189 66 0 189 67 0 188 66 0 189 65 0 190 64 0 191 63 0 192 63 0 192 62 0 193 62 0 193 62 0 193 62 0 193 63 0 192 63 0 192 63 0 192 63 0 192 62 0 193 62 0 193 62 0 193 62 0 193 62 0 193 62 0 193 62 0 193 62 0 193 62 0 193 63 0 192 63 0 192 63 0 192 64 0 191 64 0 191 64 0 191 64 0 191 64 0 191 65 0 190 65 0 190 67 0 188 70 0 185 76 0 179 86 0 169 97 0 158 106 0 149 112 0 143 117 0 138 120 0 135 123 0 132 125 0 130 126 0 129 128 0 127 128 0 127 128 0 127 128 0 127 127 0 128 125 0 130 124 0 131 124 0 131 124 0 131 125 0 130 126 0 129 127 0 128 128 0 127 127 0 128 127 0 128 125 0 130 124 0 131 123 0 132 123 0 132 123 0 132 124 0 131 125 0 130 126 0 129 127 0 128 127 0 128 126 0 129 125 0 130 124 0 131 124 0 131 123 0 132 124 0 131 124 0 131 125 0 130 126 0 129 126 0 129 127 0 128 127 0 128 126 0 129 125 0 130 124 0 131 123 0 132 122 0 133 120 0 135 119 0 136 118 0 137 117 0 138 116 0 139 116 0 139 116 0 139 117 0 138 117 0 138 119 0 136 120 0 135 122 0 133 124 0 131 125 0 130 122 0 133 101 0 154 
98 0 157 122 0 133 127 0 128 129 0 126 130 0 125 131 0 124 131 0 124 131 0 124 131 0 124 130 0 125 130 0 125 129 0 126 129 0 126 128 0 127 128 0 127 127 0 128 127 0 128 126 0 129 126 0 129 126 0 129 127 0 128 129 0 126 130 0 125 131 0 124 131 0 124 131 0 124 131 0 124 130 0 125 129 0 126 129 0 126 128 0 127 128 0 127 128 0 127 127 0 128 127 0 128 128 0 127 128 0 127 128 0 127 128 0 127 129 0 126 130 0 125 131 0 124 132 0 123 133 0 122 133 0 122 133 0 122 131 0 124 130 0 125 129 0 126 128 0 127 127 0 128 127 0 128 126 0 129 126 0 129 125 0 130 125 0 130 125 0 130 125 0 130 126 0 129 127 0 128 127 0 128 127 0 128 124 0 131 118 0 137 108 0 147 93 0 162 72 0 183 50 0 205 40 0 215 35 0 220 33 0 222 32 0 223 32 0 223 32 0 223 32 0 223 32 0 223 32 0 223 32 0 223 31 0 224 31 0 224 31 0 224 31 0 224 31 0 224 31 0 224 32 0 223 32 0 223 33 0 222 34 0 221 34 0 221 34 0 221 35 0 220 35 0 220 35 0 220 35 0 220 35 0 220 36 0 219 36 0 219 36 0 219 36 0 219 35 0 220 35 0 220 34 0 221 34 0 221 33 0 222 33 0 222 33 0 222 33 0 222 34 0 221 34 0 221 34 0 221 34 0 221 34 0 221 33 0 222 33 0 222 33 0 222 33 0 222 33 0 222 33 0 222 33 0 222 34 0 221 34 0 221 34 0 221 34 0 221 34 0 221 34 0 221 34 0 221 34 0 221 35 0 220 35 0 220 35 0 220 37 0 218 40 0 215 48 0 207 68 0 187 86 0 169 100 0 155 109 0 146 116 0 139 120 0 135 123 0 132 124 0 131 126 0 129 127 0 128 128 0 127 128 0 127 127 0 128 126 0 129 125 0 130 124 0 131 123 0 132 124 0 131 125 0 130 126 0 129 127 0 128 127 0 128 127 0 128 126 0 129 125 0 130 124 0 131 123 0 132 123 0 132 123 0 132 123 0 132 124 0 131 125 0 130 126 0 129 126 0 129 126 0 129 126 0 129 125 0 130 124 0 131 124 0 131 124 0 131 124 0 131 125 0 130 125 0 130 126 0 129 126 0 129 127 0 128 126 0 129 126 0 129 125 0 130 124 0 131 122 0 133 120 0 135 119 0 136 117 0 138 116 0 139 116 0 139 116 0 139 116 0 139 117 0 138 118 0 137 119 0 136 121 0 134 123 0 132 125 0 130 128 0 127 135 0 120 159 0 96 
193 0 62 140 0 115 130 0 125 130 0 125 131 0 124 131 0 124 131 0 124 131 0 124 130 0 125 130 0 125 129 0 126 129 0 126 129 0 126 129 0 126 129 0 126 128 0 127 128 0 127 128 0 127 128 0 127 128 0 127 129 0 126 130 0 125 131 0 124 132 0 123 132 0 123 132 0 123 132 0 123 131 0 124 130 0 125 129 0 126 128 0 127 128 0 127 128 0 127 128 0 127 128 0 127 128 0 127 128 0 127 128 0 127 128 0 127 129 0 126 130 0 125 132 0 123 133 0 122 134 0 121 134 0 121 134 0 121 132 0 123 131 0 124 129 0 126 128 0 127 128 0 127 127 0 128 127 0 128 127 0 128 126 0 129 125 0 130 125 0 130 125 0 130 126 0 129 126 0 129 126 0 129 125 0 130 121 0 134 113 0 142 100 0 155 80 0 175 50 0 205 5 0 250 2 0 253 1 0 254 1 0 254 1 0 254 1 0 254 1 0 254 1 0 254 1 0 254 1 0 254 1 0 254 1 0 254 1 0 254 1 0 254 1 0 254 1 0 254 1 0 254 1 0 254 1 0 254 1 0 254 1 0 254 1 0 254 1 0 254 1 0 254 1 0 254 1 0 254 1 0 254 1 0 254 1 0 254 1 0 254 1 0 254 1 0 254 1 0 254 1 0 254 1 0 254 1 0 254 1 0 254 1 0 254 1 0 254 1 0 254 1 0 254 1 0 254 1 0 254 1 0 254 1 0 254 1 0 254 1 0 254 1 0 254 1 0 254 1 0 254 1 0 254 1 0 254 1 0 254 1 0 254 1 0 254 1 0 254 1 0 254 1 0 254 1 0 254 1 0 254 1 0 254 1 0 254 1 0 254 1 0 254 2 0 253 4 0 251 47 0 208 75 0 180 94 0 161 106 0 149 114 0 141 119 0 136 122 0 133 124 0 131 125 0 130 126 0 129 127 0 128 127 0 128 127 0 128 126 0 129 125 0 130 124 0 131 124 0 131 124 0 131 125 0 130 126 0 129 126 0 129 127 0 128 127 0 128 126 0 129 125 0 130 124 0 131 123 0 132 123 0 132 123 0 132 123 0 132 124 0 131 125 0 130 126 0 129 126 0 129 126 0 129 126 0 129 126 0 129 125 0 130 125 0 130 124 0 131 124 0 131 125 0 130 125 0 130 126 0 129 127 0 128 127 0 128 127 0 128 127 0 128 126 0 129 124 0 131 123 0 132 121 0 134 119 0 136 117 0 138 116 0 139 115 0 140 115 0 140 116 0 139 117 0 138 119 0 136 120 0 135 122 0 133 124 0 131 126 0 129 128 0 127 132 0 123 136 0 119 
82 0 173 113 0 142 124 0 131 128 0 127 130 0 125 131 0 124 131 0 124 131 0 124 130 0 125 130 0 125 129 0 126 129 0 126 129 0 126 129 0 126 129 0 126 130 0 125 129 0 126 129 0 126 129 0 126 129 0 126 130 0 125 131 0 124 132 0 123 133 0 122 133 0 122 133 0 122 132 0 123 131 0 124 130 0 125 129 0 126 128 0 127 128 0 127 128 0 127 128 0 127 128 0 127 128 0 127 128 0 127 128 0 127 128 0 127 129 0 126 130 0 125 132 0 123 134 0 121 135 0 120 135 0 120 135 0 120 133 0 122 132 0 123 130 0 125 129 0 126 129 0 126 128 0 127 128 0 127 127 0 128 127 0 128 126 0 129 125 0 130 125 0 130 125 0 130 126 0 129 125 0 130 123 0 132 119 0 136 110 0 145 95 0 160 72 0 183 41 0 214 2 0 253 0 0 255 0 0 255 0 0 255 0 0 255 0 0 255 0 0 255 0 0 255 0 0 255 0 0 255 0 0 255 0 0 255 0 0 255 0 0 255 0 0 255 0 0 255 0 0 255 0 0 255 0 0 255 0 0 255 0 0 255 0 0 255 0 0 255 0 0 255 0 0 255 0 0 255 0 0 255 0 0 255 0 0 255 0 0 255 0 0 255 0 0 255 0 0 255 0 0 255 0 0 255 0 0 255 0 0 255 0 0 255 0 0 255 0 0 255 0 0 255 0 0 255 0 0 255 0 0 255 0 0 255 0 0 255 0 0 255 0 0 255 0 0 255 0 0 255 0 0 255 0 0 255 0 0 255 0 0 255 0 0 255 0 0 255 0 0 255 0 0 255 0 0 255 0 0 255 0 0 255 0 0 255 0 0 255 0 0 255 0 0 255 2 0 253 39 0 216 68 0 187 89 0 166 104 0 151 113 0 142 119 0 136 122 0 133 123 0 132 124 0 131 125 0 130 126 0 129 127 0 128 127 0 128 126 0 129 126 0 129 125 0 130 125 0 130 125 0 130 125 0 130 126 0 129 126 0 129 126 0 129 126 0 129 125 0 130 124 0 131 123 0 132 123 0 132 123 0 132 123 0 132 123 0 132 124 0 131 125 0 130 126 0 129 127 0 128 127 0 128 127 0 128 126 0 129 126 0 129 125 0 130 125 0 130 125 0 130 125 0 130 125 0 130 126 0 129 127 0 128 127 0 128 128 0 127 127 0 128 127 0 128 126 0 129 124 0 131 122 0 133 119 0 136 117 0 138 116 0 139 115 0 140 116 0 139 117 0 138 118 0 137 119 0 136 121 0 134 123 0 132 124 0 131 126 0 129 128 0 127 128 0 127 114 0 141 
51 0 204 107 0 148 123 0 132 129 0 126 131 0 124 131 0 124 131 0 124 131 0 124 130 0 125 130 0 125 129 0 126 129 0 126 129 0 126 130 0 125 131 0 124 131 0 124 131 0 124 130 0 125 130 0 125 130 0 125 131 0 124 132 0 123 133 0 122 134 0 121 134 0 121 133 0 122 132 0 123 130 0 125 129 0 126 128 0 127 127 0 128 127 0 128 127 0 128 128 0 127 128 0 127 128 0 127 128 0 127 128 0 127 128 0 127 129 0 126 130 0 125 132 0 123 134 0 121 135 0 120 136 0 119 136 0 119 135 0 120 133 0 122 131 0 124 130 0 125 129 0 126 129 0 126 128 0 127 128 0 127 127 0 128 126 0 129 125 0 130 125 0 130 125 0 130 125 0 130 124 0 131 122 0 133 117 0 138 107 0 148 91 0 164 67 0 188 37 0 218 1 0 254 0 0 255 0 0 255 0 0 255 0 0 255 0 0 255 0 0 255 0 0 255 0 0 255 0 0 255 0 0 255 0 0 255 0 0 255 0 0 255 0 0 255 0 0 255 0 0 255 0 0 255 0 0 255 0 0 255 0 0 255 0 0 255 0 0 255 0 0 255 0 0 255 0 0 255 0 0 255 0 0 255 0 0 255 0 0 255 0 0 255 0 0 255 0 0 255 0 0 255 0 0 255 0 0 255 0 0 255 0 0 255 0 0 255 0 0 255 0 0 255 0 0 255 0 0 255 0 0 255 0 0 255 0 0 255 0 0 255 0 0 255 0 0 255 0 0 255 0 0 255 0 0 255 0 0 255 0 0 255 0 0 255 0 0 255 0 0 255 0 0 255 0 0 255 0 0 255 0 0 255 0 0 255 0 0 255 0 0 255 0 0 255 1 0 254 35 0 220 64 0 191 87 0 168 102 0 153 112 0 143 118 0 137 121 0 134 123 0 132 124 0 131 125 0 130 126 0 129 127 0 128 127 0 128 127 0 128 127 0 128 127 0 128 126 0 129 126 0 129 126 0 129 126 0 129 126 0 129 126 0 129 125 0 130 125 0 130 124 0 131 123 0 132 123 0 132 123 0 132 123 0 132 124 0 131 125 0 130 125 0 130 126 0 129 127 0 128 127 0 128 127 0 128 127 0 128 127 0 128 126 0 129 125 0 130 125 0 130 125 0 130 125 0 130 126 0 129 127 0 128 127 0 128 128 0 127 128 0 127 128 0 127 127 0 128 125 0 130 123 0 132 120 0 135 118 0 137 117 0 138 116 0 139 116 0 139 117 0 138 118 0 137 120 0 135 121 0 134 123 0 132 124 0 131 126 0 129 129 0 126 137 0 118 166 0 89 
162 0 93 139 0 116 134 0 121 132 0 123 132 0 123 131 0 124 131 0 124 131 0 124 130 0 125 130 0 125 130 0 125 130 0 125 130 0 125 131 0 124 132 0 123 132 0 123 132 0 123 132 0 123 131 0 124 131 0 124 132 0 123 132 0 123 133 0 122 134 0 121 134 0 121 133 0 122 132 0 123 130 0 125 128 0 127 127 0 128 126 0 129 127 0 128 127 0 128 128 0 127 128 0 127 128 0 127 128 0 127 128 0 127 128 0 127 129 0 126 130 0 125 132 0 123 134 0 121 136 0 119 136 0 119 136 0 119 135 0 120 134 0 121 132 0 123 131 0 124 130 0 125 129 0 126 129 0 126 128 0 127 127 0 128 126 0 129 125 0 130 124 0 131 124 0 131 124 0 131 123 0 132 121 0 134 115 0 140 105 0 150 88 0 167 65 0 190 35 0 220 1 0 254 0 0 255 0 0 255 0 0 255 0 0 255 0 0 255 0 0 255 0 0 255 0 0 255 0 0 255 0 0 255 0 0 255 0 0 255 0 0 255 0 0 255 0 0 255 0 0 255 0 0 255 0 0 255 0 0 255 0 0 255 0 0 255 0 0 255 0 0 255 0 0 255 0 0 255 0 0 255 0 0 255 0 0 255 0 0 255 0 0 255 0 0 255 0 0 255 0 0 255 0 0 255 0 0 255 0 0 255 0 0 255 0 0 255 0 0 255 0 0 255 0 0 255 0 0 255 0 0 255 0 0 255 0 0 255 0 0 255 0 0 255 0 0 255 0 0 255 0 0 255 0 0 255 0 0 255 0 0 255 0 0 255 0 0 255 0 0 255 0 0 255 0 0 255 0 0 255 0 0 255 0 0 255 0 0 255 0 0 255 0 0 255 1 0 254 34 0 221 63 0 192 85 0 170 101 0 154 111 0 144 117 0 138 120 0 135 122 0 133 123 0 132 125 0 130 126 0 129 127 0 128 128 0 127 128 0 127 129 0 126 128 0 127 128 0 127 128 0 127 127 0 128 127 0 128 126 0 129 126 0 129 125 0 130 125 0 130 124 0 131 124 0 131 123 0 132 123 0 132 124 0 131 124 0 131 125 0 130 126 0 129 126 0 129 127 0 128 128 0 127 128 0 127 128 0 127 127 0 128 127 0 128 126 0 129 125 0 130 125 0 130 125 0 130 125 0 130 126 0 129 127 0 128 128 0 127 129 0 126 129 0 126 128 0 127 126 0 129 124 0 131 121 0 134 119 0 136 117 0 138 117 0 138 117 0 138 118 0 137 119 0 136 120 0 135 122 0 133 123 0 132 124 0 131 124 0 131 125 0 130 124 0 131 112 0 143 
200 0 55 154 0 101 140 0 115 134 0 121 132 0 123 131 0 124 131 0 124 131 0 124 130 0 125 130 0 125 130 0 125 131 0 124 131 0 124 132 0 123 133 0 122 133 0 122 133 0 122 133 0 122 132 0 123 132 0 123 132 0 123 133 0 122 134 0 121 134 0 121 134 0 121 133 0 122 131 0 124 129 0 126 127 0 128 126 0 129 125 0 130 126 0 129 127 0 128 128 0 127 128 0 127 129 0 126 129 0 126 129 0 126 129 0 126 129 0 126 130 0 125 132 0 123 134 0 121 136 0 119 136 0 119 136 0 119 136 0 119 134 0 121 132 0 123 131 0 124 130 0 125 130 0 125 129 0 126 129 0 126 128 0 127 126 0 129 125 0 130 124 0 131 124 0 131 123 0 132 122 0 133 119 0 136 113 0 142 103 0 152 86 0 169 63 0 192 34 0 221 1 0 254 0 0 255 0 0 255 0 0 255 0 0 255 0 0 255 0 0 255 0 0 255 0 0 255 0 0 255 0 0 255 0 0 255 0 0 255 0 0 255 0 0 255 0 0 255 0 0 255 0 0 255 0 0 255 0 0 255 0 0 255 0 0 255 0 0 255 0 0 255 0 0 255 0 0 255 0 0 255 0 0 255 0 0 255 0 0 255 0 0 255 0 0 255 0 0 255 0 0 255 0 0 255 0 0 255 0 0 255 0 0 255 0 0 255 0 0 255 0 0 255 0 0 255 0 0 255 0 0 255 0 0 255 0 0 255 0 0 255 0 0 255 0 0 255 0 0 255 0 0 255 0 0 255 0 0 255 0 0 255 0 0 255 0 0 255 0 0 255 0 0 255 0 0 255 0 0 255 0 0 255 0 0 255 0 0 255 0 0 255 0 0 255 1 0 254 33 0 222 62 0 193 84 0 171 100 0 155 111 0 144 117 0 138 120 0 135 122 0 133 124 0 131 125 0 130 126 0 129 128 0 127 129 0 126 130 0 125 130 0 125 130 0 125 130 0 125 129 0 126 129 0 126 128 0 127 127 0 128 127 0 128 126 0 129 125 0 130 125 0 130 124 0 131 124 0 131 124 0 131 124 0 131 125 0 130 125 0 130 126 0 129 126 0 129 127 0 128 128 0 127 128 0 127 128 0 127 128 0 127 127 0 128 126 0 129 125 0 130 124 0 131 124 0 131 125 0 130 126 0 129 127 0 128 128 0 127 129 0 126 129 0 126 128 0 127 127 0 128 124 0 131 122 0 133 120 0 135 118 0 137 118 0 137 118 0 137 118 0 137 119 0 136 120 0 135 121 0 134 122 0 133 123 0 132 123 0 132 123 0 132 122 0 133 116 0 139 
102 0 153 138 0 117 138 0 117 134 0 121 132 0 123 131 0 124 130 0 125 130 0 125 131 0 124 131 0 124 131 0 124 131 0 124 132 0 123 133 0 122 134 0 121 134 0 121 134 0 121 133 0 122 133 0 122 132 0 123 133 0 122 133 0 122 134 0 121 134 0 121 134 0 121 132 0 123 130 0 125 128 0 127 126 0 129 125 0 130 124 0 131 125 0 130 126 0 129 128 0 127 129 0 126 129 0 126 129 0 126 129 0 126 129 0 126 129 0 126 130 0 125 132 0 123 133 0 122 135 0 120 136 0 119 136 0 119 135 0 120 134 0 121 132 0 123 131 0 124 131 0 124 130 0 125 130 0 125 129 0 126 128 0 127 127 0 128 125 0 130 124 0 131 123 0 132 123 0 132 121 0 134 118 0 137 112 0 143 101 0 154 85 0 170 62 0 193 33 0 222 1 0 254 0 0 255 0 0 255 0 0 255 0 0 255 0 0 255 0 0 255 0 0 255 0 0 255 0 0 255 0 0 255 0 0 255 0 0 255 0 0 255 0 0 255 0 0 255 0 0 255 0 0 255 0 0 255 0 0 255 0 0 255 0 0 255 0 0 255 0 0 255 0 0 255 0 0 255 0 0 255 0 0 255 0 0 255 0 0 255 0 0 255 0 0 255 0 0 255 0 0 255 0 0 255 0 0 255 0 0 255 0 0 255 0 0 255 0 0 255 0 0 255 0 0 255 0 0 255 0 0 255 0 0 255 0 0 255 0 0 255 0 0 255 0 0 255 0 0 255 0 0 255 0 0 255 0 0 255 0 0 255 0 0 255 0 0 255 0 0 255 0 0 255 0 0 255 0 0 255 0 0 255 0 0 255 0 0 255 0 0 255 0 0 255 1 0 254 33 0 222 61 0 194 83 0 172 100 0 155 110 0 145 117 0 138 120 0 135 123 0 132 124 0 131 126 0 129 127 0 128 129 0 126 130 0 125 131 0 124 131 0 124 131 0 124 131 0 124 131 0 124 130 0 125 129 0 126 129 0 126 128 0 127 127 0 128 127 0 128 126 0 129 126 0 129 125 0 130 125 0 130 125 0 130 125 0 130 126 0 129 126 0 129 126 0 129 127 0 128 128 0 127 128 0 127 128 0 127 128 0 127 127 0 128 126 0 129 124 0 131 123 0 132 123 0 132 124 0 131 125 0 130 126 0 129 127 0 128 128 0 127 129 0 126 128 0 127 127 0 128 125 0 130 123 0 132 121 0 134 119 0 136 118 0 137 118 0 137 119 0 136 120 0 135 121 0 134 121 0 134 122 0 133 122 0 133 122 0 133 123 0 132 126 0 129 141 0 114 
213 0 42 157 0 98 141 0 114 134 0 121 131 0 124 130 0 125 130 0 125 130 0 125 131 0 124 131 0 124 131 0 124 132 0 123 133 0 122 133 0 122 134 0 121 134 0 121 134 0 121 133 0 122 132 0 123 132 0 123 132 0 123 133 0 122 133 0 122 134 0 121 133 0 122 132 0 123 130 0 125 127 0 128 125 0 130 124 0 131 124 0 131 125 0 130 126 0 129 128 0 127 129 0 126 130 0 125 130 0 125 130 0 125 130 0 125 130 0 125 130 0 125 131 0 124 133 0 122 134 0 121 135 0 120 135 0 120 134 0 121 133 0 122 132 0 123 131 0 124 130 0 125 130 0 125 130 0 125 130 0 125 129 0 126 127 0 128 126 0 129 125 0 130 123 0 132 122 0 133 120 0 135 117 0 138 110 0 145 99 0 156 83 0 172 60 0 195 32 0 223 1 0 254 0 0 255 0 0 255 0 0 255 0 0 255 0 0 255 0 0 255 0 0 255 0 0 255 0 0 255 0 0 255 0 0 255 0 0 255 0 0 255 0 0 255 0 0 255 0 0 255 0 0 255 0 0 255 0 0 255 0 0 255 0 0 255 0 0 255 0 0 255 0 0 255 0 0 255 0 0 255 0 0 255 0 0 255 0 0 255 0 0 255 0 0 255 0 0 255 0 0 255 0 0 255 0 0 255 0 0 255 0 0 255 0 0 255 0 0 255 0 0 255 0 0 255 0 0 255 0 0 255 0 0 255 0 0 255 0 0 255 0 0 255 0 0 255 0 0 255 0 0 255 0 0 255 0 0 255 0 0 255 0 0 255 0 0 255 0 0 255 0 0 255 0 0 255 0 0 255 0 0 255 0 0 255 0 0 255 0 0 255 0 0 255 1 0 254 32 0 223 60 0 195 83 0 172 99 0 156 110 0 145 117 0 138 121 0 134 123 0 132 125 0 130 127 0 128 129 0 126 130 0 125 131 0 124 132 0 123 133 0 122 133 0 122 133 0 122 132 0 123 132 0 123 131 0 124 131 0 124 130 0 125 129 0 126 129 0 126 128 0 127 127 0 128 127 0 128 127 0 128 126 0 129 126 0 129 126 0 129 126 0 129 127 0 128 127 0 128 128 0 127 128 0 127 128 0 127 128 0 127 127 0 128 126 0 129 124 0 131 123 0 132 122 0 133 123 0 132 124 0 131 125 0 130 126 0 129 127 0 128 128 0 127 127 0 128 126 0 129 124 0 131 122 0 133 121 0 134 119 0 136 119 0 136 119 0 136 119 0 136 120 0 135 121 0 134 121 0 134 122 0 133 122 0 133 121 0 134 120 0 135 117 0 138 100 0 155 
119 0 136 139 0 116 136 0 119 132 0 123 129 0 126 128 0 127 129 0 126 130 0 125 130 0 125 131 0 124 131 0 124 132 0 123 133 0 122 133 0 122 134 0 121 134 0 121 133 0 122 132 0 123 132 0 123 131 0 124 131 0 124 132 0 123 132 0 123 133 0 122 132 0 123 131 0 124 129 0 126 127 0 128 125 0 130 124 0 131 124 0 131 125 0 130 126 0 129 128 0 127 130 0 125 131 0 124 131 0 124 131 0 124 131 0 124 130 0 125 131 0 124 131 0 124 132 0 123 133 0 122 134 0 121 133 0 122 132 0 123 131 0 124 130 0 125 130 0 125 130 0 125 130 0 125 130 0 125 130 0 125 130 0 125 128 0 127 127 0 128 125 0 130 123 0 132 121 0 134 119 0 136 115 0 140 108 0 147 98 0 157 81 0 174 59 0 196 32 0 223 1 0 254 0 0 255 0 0 255 0 0 255 0 0 255 0 0 255 0 0 255 0 0 255 0 0 255 0 0 255 0 0 255 0 0 255 0 0 255 0 0 255 0 0 255 0 0 255 0 0 255 0 0 255 0 0 255 0 0 255 0 0 255 0 0 255 0 0 255 0 0 255 0 0 255 0 0 255 0 0 255 0 0 255 0 0 255 0 0 255 0 0 255 0 0 255 0 0 255 0 0 255 0 0 255 0 0 255 0 0 255 0 0 255 0 0 255 0 0 255 0 0 255 0 0 255 0 0 255 0 0 255 0 0 255 0 0 255 0 0 255 0 0 255 0 0 255 0 0 255 0 0 255 0 0 255 0 0 255 0 0 255 0 0 255 0 0 255 0 0 255 0 0 255 0 0 255 0 0 255 0 0 255 0 0 255 0 0 255 0 0 255 0 0 255 1 0 254 32 0 223 60 0 195 82 0 173 98 0 157 109 0 146 117 0 138 121 0 134 124 0 131 127 0 128 129 0 126 130 0 125 132 0 123 132 0 123 133 0 122 133 0 122 134 0 121 134 0 121 133 0 122 133 0 122 133 0 122 133 0 122 132 0 123 132 0 123 131 0 124 130 0 125 129 0 126 129 0 126 128 0 127 128 0 127 127 0 128 127 0 128 127 0 128 127 0 128 127 0 128 128 0 127 128 0 127 128 0 127 128 0 127 127 0 128 126 0 129 124 0 131 122 0 133 122 0 133 122 0 133 123 0 132 124 0 131 125 0 130 126 0 129 126 0 129 126 0 129 124 0 131 123 0 132 121 0 134 120 0 135 119 0 136 119 0 136 119 0 136 120 0 135 120 0 135 121 0 134 122 0 133 122 0 133 122 0 133 122 0 133 121 0 134 122 0 133 142 0 113 
163 0 92 143 0 112 134 0 121 129 0 126 127 0 128 127 0 128 128 0 127 129 0 126 130 0 125 131 0 124 131 0 124 132 0 123 133 0 122 133 0 122 133 0 122 133 0 122 132 0 123 131 0 124 130 0 125 130 0 125 130 0 125 131 0 124 131 0 124 131 0 124 131 0 124 130 0 125 128 0 127 126 0 129 125 0 130 124 0 131 124 0 131 125 0 130 127 0 128 129 0 126 131 0 124 132 0 123 133 0 122 133 0 122 132 0 123 131 0 124 131 0 124 132 0 123 132 0 123 132 0 123 132 0 123 131 0 124 130 0 125 129 0 126 129 0 126 129 0 126 129 0 126 130 0 125 131 0 124 131 0 124 130 0 125 129 0 126 127 0 128 125 0 130 123 0 132 121 0 134 118 0 137 113 0 142 106 0 149 95 0 160 79 0 176 58 0 197 31 0 224 1 0 254 0 0 255 0 0 255 0 0 255 0 0 255 0 0 255 0 0 255 0 0 255 0 0 255 0 0 255 0 0 255 0 0 255 0 0 255 0 0 255 0 0 255 0 0 255 0 0 255 0 0 255 0 0 255 0 0 255 0 0 255 0 0 255 0 0 255 0 0 255 0 0 255 0 0 255 0 0 255 0 0 255 0 0 255 0 0 255 0 0 255 0 0 255 0 0 255 0 0 255 0 0 255 0 0 255 0 0 255 0 0 255 0 0 255 0 0 255 0 0 255 0 0 255 0 0 255 0 0 255 0 0 255 0 0 255 0 0 255 0 0 255 0 0 255 0 0 255 0 0 255 0 0 255 0 0 255 0 0 255 0 0 255 0 0 255 0 0 255 0 0 255 0 0 255 0 0 255 0 0 255 0 0 255 0 0 255 0 0 255 0 0 255 1 0 254 32 0 223 59 0 196 81 0 174 98 0 157 109 0 146 116 0 139 121 0 134 125 0 130 128 0 127 130 0 125 131 0 124 132 0 123 133 0 122 134 0 121 134 0 121 134 0 121 134 0 121 134 0 121 135 0 120 135 0 120 135 0 120 134 0 121 134 0 121 133 0 122 132 0 123 132 0 123 131 0 124 130 0 125 129 0 126 128 0 127 128 0 127 128 0 127 128 0 127 128 0 127 128 0 127 129 0 126 129 0 126 128 0 127 127 0 128 126 0 129 124 0 131 122 0 133 121 0 134 121 0 134 122 0 133 123 0 132 124 0 131 124 0 131 124 0 131 124 0 131 123 0 132 121 0 134 120 0 135 119 0 136 119 0 136 119 0 136 119 0 136 120 0 135 121 0 134 122 0 133 123 0 132 123 0 132 123 0 132 123 0 132 120 0 135 109 0 146 65 0 190 
156 0 99 139 0 116 131 0 124 127 0 128 125 0 130 125 0 130 126 0 129 128 0 127 129 0 126 130 0 125 131 0 124 131 0 124 132 0 123 132 0 123 132 0 123 132 0 123 131 0 124 129 0 126 129 0 126 128 0 127 128 0 127 129 0 126 129 0 126 129 0 126 129 0 126 128 0 127 127 0 128 126 0 129 124 0 131 124 0 131 124 0 131 126 0 129 128 0 127 130 0 125 132 0 123 134 0 121 134 0 121 134 0 121 133 0 122 133 0 122 132 0 123 132 0 123 132 0 123 132 0 123 131 0 124 130 0 125 128 0 127 127 0 128 127 0 128 127 0 128 128 0 127 130 0 125 130 0 125 131 0 124 131 0 124 130 0 125 128 0 127 126 0 129 123 0 132 120 0 135 117 0 138 112 0 143 104 0 151 93 0 162 78 0 177 56 0 199 30 0 225 1 0 254 0 0 255 0 0 255 0 0 255 0 0 255 0 0 255 0 0 255 0 0 255 0 0 255 0 0 255 0 0 255 0 0 255 0 0 255 0 0 255 0 0 255 0 0 255 0 0 255 0 0 255 0 0 255 0 0 255 0 0 255 0 0 255 0 0 255 0 0 255 0 0 255 0 0 255 0 0 255 0 0 255 0 0 255 0 0 255 0 0 255 0 0 255 0 0 255 0 0 255 0 0 255 0 0 255 0 0 255 0 0 255 0 0 255 0 0 255 0 0 255 0 0 255 0 0 255 0 0 255 0 0 255 0 0 255 0 0 255 0 0 255 0 0 255 0 0 255 0 0 255 0 0 255 0 0 255 0 0 255 0 0 255 0 0 255 0 0 255 0 0 255 0 0 255 0 0 255 0 0 255 0 0 255 0 0 255 0 0 255 0 0 255 1 0 254 31 0 224 59 0 196 81 0 174 97 0 158 109 0 146 116 0 139 121 0 134 125 0 130 128 0 127 130 0 125 132 0 123 133 0 122 133 0 122 134 0 121 134 0 121 134 0 121 135 0 120 135 0 120 135 0 120 136 0 119 136 0 119 136 0 119 136 0 119 135 0 120 134 0 121 133 0 122 132 0 123 132 0 123 131 0 124 130 0 125 130 0 125 129 0 126 129 0 126 130 0 125 130 0 125 130 0 125 130 0 125 129 0 126 128 0 127 126 0 129 124 0 131 122 0 133 121 0 134 121 0 134 121 0 134 122 0 133 123 0 132 123 0 132 123 0 132 122 0 133 121 0 134 119 0 136 118 0 137 118 0 137 118 0 137 118 0 137 119 0 136 120 0 135 121 0 134 123 0 132 124 0 131 125 0 130 126 0 129 127 0 128 128 0 127 129 0 126 136 0 119 
112 0 143 125 0 130 125 0 130 123 0 132 123 0 132 124 0 131 125 0 130 127 0 128 128 0 127 129 0 126 130 0 125 130 0 125 131 0 124 131 0 124 131 0 124 130 0 125 129 0 126 128 0 127 127 0 128 126 0 129 126 0 129 126 0 129 127 0 128 127 0 128 127 0 128 126 0 129 126 0 129 125 0 130 124 0 131 124 0 131 125 0 130 126 0 129 128 0 127 131 0 124 133 0 122 135 0 120 136 0 119 135 0 120 135 0 120 134 0 121 133 0 122 132 0 123 132 0 123 131 0 124 130 0 125 128 0 127 127 0 128 126 0 129 126 0 129 126 0 129 128 0 127 129 0 126 130 0 125 131 0 124 131 0 124 130 0 125 128 0 127 126 0 129 123 0 132 120 0 135 116 0 139 110 0 145 103 0 152 92 0 163 76 0 179 55 0 200 30 0 225 1 0 254 0 0 255 0 0 255 0 0 255 0 0 255 0 0 255 0 0 255 0 0 255 0 0 255 0 0 255 0 0 255 0 0 255 0 0 255 0 0 255 0 0 255 0 0 255 0 0 255 0 0 255 0 0 255 0 0 255 0 0 255 0 0 255 0 0 255 0 0 255 0 0 255 0 0 255 0 0 255 0 0 255 0 0 255 0 0 255 0 0 255 0 0 255 0 0 255 0 0 255 0 0 255 0 0 255 0 0 255 0 0 255 0 0 255 0 0 255 0 0 255 0 0 255 0 0 255 0 0 255 0 0 255 0 0 255 0 0 255 0 0 255 0 0 255 0 0 255 0 0 255 0 0 255 0 0 255 0 0 255 0 0 255 0 0 255 0 0 255 0 0 255 0 0 255 0 0 255 0 0 255 0 0 255 0 0 255 0 0 255 0 0 255 1 0 254 31 0 224 58 0 197 80 0 175 97 0 158 108 0 147 116 0 139 121 0 134 125 0 130 128 0 127 130 0 125 131 0 124 132 0 123 133 0 122 133 0 122 133 0 122 134 0 121 134 0 121 135 0 120 136 0 119 136 0 119 137 0 118 137 0 118 136 0 119 136 0 119 135 0 120 135 0 120 134 0 121 133 0 122 132 0 123 132 0 123 131 0 124 131 0 124 131 0 124 131 0 124 131 0 124 131 0 124 131 0 124 130 0 125 129 0 126 127 0 128 125 0 130 123 0 132 121 0 134 121 0 134 121 0 134 121 0 134 121 0 134 121 0 134 121 0 134 120 0 135 119 0 136 118 0 137 117 0 138 117 0 138 117 0 138 117 0 138 119 0 136 120 0 135 122 0 133 123 0 132 125 0 130 126 0 129 128 0 127 131 0 124 135 0 120 144 0 111 167 0 88 
153 0 102 127 0 128 122 0 133 121 0 134 121 0 134 123 0 132 124 0 131 126 0 129 127 0 128 128 0 127 129 0 126 129 0 126 130 0 125 130 0 125 130 0 125 129 0 126 127 0 128 126 0 129 125 0 130 125 0 130 124 0 131 124 0 131 124 0 131 124 0 131 124 0 131 124 0 131 124 0 131 124 0 131 124 0 131 124 0 131 125 0 130 127 0 128 129 0 126 132 0 123 135 0 120 136 0 119 137 0 118 136 0 119 135 0 120 134 0 121 133 0 122 132 0 123 132 0 123 131 0 124 129 0 126 127 0 128 126 0 129 125 0 130 125 0 130 126 0 129 127 0 128 129 0 126 130 0 125 131 0 124 130 0 125 129 0 126 128 0 127 126 0 129 123 0 132 119 0 136 115 0 140 110 0 145 102 0 153 91 0 164 75 0 180 54 0 201 29 0 226 1 0 254 0 0 255 0 0 255 0 0 255 0 0 255 0 0 255 0 0 255 0 0 255 0 0 255 0 0 255 0 0 255 0 0 255 0 0 255 0 0 255 0 0 255 0 0 255 0 0 255 0 0 255 0 0 255 0 0 255 0 0 255 0 0 255 0 0 255 0 0 255 0 0 255 0 0 255 0 0 255 0 0 255 0 0 255 0 0 255 0 0 255 0 0 255 0 0 255 0 0 255 0 0 255 0 0 255 0 0 255 0 0 255 0 0 255 0 0 255 0 0 255 0 0 255 0 0 255 0 0 255 0 0 255 0 0 255 0 0 255 0 0 255 0 0 255 0 0 255 0 0 255 0 0 255 0 0 255 0 0 255 0 0 255 0 0 255 0 0 255 0 0 255 0 0 255 0 0 255 0 0 255 0 0 255 0 0 255 0 0 255 0 0 255 1 0 254 31 0 224 58 0 197 80 0 175 96 0 159 107 0 148 115 0 140 120 0 135 124 0 131 127 0 128 129 0 126 130 0 125 131 0 124 131 0 124 132 0 123 132 0 123 133 0 122 134 0 121 135 0 120 135 0 120 136 0 119 137 0 118 137 0 118 137 0 118 136 0 119 136 0 119 135 0 120 135 0 120 134 0 121 133 0 122 133 0 122 133 0 122 133 0 122 133 0 122 133 0 122 133 0 122 133 0 122 132 0 123 131 0 124 130 0 125 128 0 127 126 0 129 124 0 131 122 0 133 121 0 134 121 0 134 121 0 134 121 0 134 121 0 134 120 0 135 119 0 136 118 0 137 117 0 138 116 0 139 116 0 139 116 0 139 117 0 138 118 0 137 120 0 135 122 0 133 124 0 131 126 0 129 128 0 127 130 0 125 133 0 122 138 0 117 146 0 109 158 0 97 
87 0 168 110 0 145 116 0 139 118 0 137 120 0 135 122 0 133 123 0 132 125 0 130 126 0 129 127 0 128 128 0 127 128 0 127 128 0 127 129 0 126 128 0 127 127 0 128 126 0 129 125 0 130 124 0 131 123 0 132 122 0 133 122 0 133 122 0 133 122 0 133 122 0 133 122 0 133 123 0 132 123 0 132 124 0 131 125 0 130 126 0 129 128 0 127 130 0 125 133 0 122 135 0 120 137 0 118 137 0 118 137 0 118 136 0 119 134 0 121 133 0 122 132 0 123 131 0 124 130 0 125 129 0 126 127 0 128 126 0 129 125 0 130 125 0 130 126 0 129 127 0 128 128 0 127 130 0 125 130 0 125 130 0 125 129 0 126 128 0 127 125 0 130 123 0 132 119 0 136 115 0 140 109 0 146 102 0 153 91 0 164 75 0 180 54 0 201 29 0 226 1 0 254 0 0 255 0 0 255 0 0 255 0 0 255 0 0 255 0 0 255 0 0 255 0 0 255 0 0 255 0 0 255 0 0 255 0 0 255 0 0 255 0 0 255 0 0 255 0 0 255 0 0 255 0 0 255 0 0 255 0 0 255 0 0 255 0 0 255 0 0 255 0 0 255 0 0 255 0 0 255 0 0 255 0 0 255 0 0 255 0 0 255 0 0 255 0 0 255 0 0 255 0 0 255 0 0 255 0 0 255 0 0 255 0 0 255 0 0 255 0 0 255 0 0 255 0 0 255 0 0 255 0 0 255 0 0 255 0 0 255 0 0 255 0 0 255 0 0 255 0 0 255 0 0 255 0 0 255 0 0 255 0 0 255 0 0 255 0 0 255 0 0 255 0 0 255 0 0 255 0 0 255 0 0 255 0 0 255 0 0 255 0 0 255 1 0 254 31 0 224 58 0 197 79 0 176 96 0 159 107 0 148 114 0 141 120 0 135 123 0 132 126 0 129 128 0 127 129 0 126 129 0 126 129 0 126 130 0 125 130 0 125 131 0 124 132 0 123 133 0 122 134 0 121 135 0 120 136 0 119 136 0 119 136 0 119 135 0 120 135 0 120 135 0 120 134 0 121 134 0 121 134 0 121 134 0 121 134 0 121 134 0 121 135 0 120 135 0 120 135 0 120 134 0 121 133 0 122 132 0 123 131 0 124 129 0 126 126 0 129 124 0 131 123 0 132 121 0 134 121 0 134 120 0 135 120 0 135 120 0 135 120 0 135 119 0 136 118 0 137 117 0 138 116 0 139 116 0 139 116 0 139 117 0 138 118 0 137 120 0 135 122 0 133 123 0 132 126 0 129 128 0 127 130 0 125 133 0 122 137 0 118 143 0 112 153 0 102 
118 0 137 111 0 144 114 0 141 117 0 138 119 0 136 121 0 134 123 0 132 124 0 131 125 0 130 126 0 129 127 0 128 127 0 128 127 0 128 127 0 128 127 0 128 126 0 129 125 0 130 124 0 131 123 0 132 122 0 133 121 0 134 120 0 135 119 0 136 119 0 136 120 0 135 120 0 135 121 0 134 122 0 133 124 0 131 125 0 130 126 0 129 129 0 126 131 0 124 134 0 121 136 0 119 137 0 118 137 0 118 136 0 119 135 0 120 133 0 122 132 0 123 131 0 124 130 0 125 129 0 126 128 0 127 127 0 128 126 0 129 125 0 130 125 0 130 126 0 129 127 0 128 129 0 126 130 0 125 130 0 125 130 0 125 129 0 126 127 0 128 125 0 130 123 0 132 119 0 136 115 0 140 110 0 145 102 0 153 91 0 164 75 0 180 54 0 201 29 0 226 1 0 254 0 0 255 0 0 255 0 0 255 0 0 255 0 0 255 0 0 255 0 0 255 0 0 255 0 0 255 0 0 255 0 0 255 0 0 255 0 0 255 0 0 255 0 0 255 0 0 255 0 0 255 0 0 255 0 0 255 0 0 255 0 0 255 0 0 255 0 0 255 0 0 255 0 0 255 0 0 255 0 0 255 0 0 255 0 0 255 0 0 255 0 0 255 0 0 255 0 0 255 0 0 255 0 0 255 0 0 255 0 0 255 0 0 255 0 0 255 0 0 255 0 0 255 0 0 255 0 0 255 0 0 255 0 0 255 0 0 255 0 0 255 0 0 255 0 0 255 0 0 255 0 0 255 0 0 255 0 0 255 0 0 255 0 0 255 0 0 255 0 0 255 0 0 255 0 0 255 0 0 255 0 0 255 0 0 255 0 0 255 0 0 255 1 0 254 31 0 224 57 0 198 79 0 176 95 0 160 106 0 149 114 0 141 119 0 136 122 0 133 125 0 130 126 0 129 127 0 128 128 0 127 128 0 127 128 0 127 128 0 127 129 0 126 131 0 124 132 0 123 133 0 122 134 0 121 134 0 121 134 0 121 134 0 121 134 0 121 134 0 121 134 0 121 133 0 122 133 0 122 133 0 122 134 0 121 134 0 121 135 0 120 135 0 120 136 0 119 136 0 119 135 0 120 134 0 121 133 0 122 131 0 124 129 0 126 127 0 128 125 0 130 123 0 132 122 0 133 121 0 134 121 0 134 120 0 135 120 0 135 120 0 135 119 0 136 118 0 137 117 0 138 116 0 139 116 0 139 117 0 138 117 0 138 118 0 137 120 0 135 121 0 134 123 0 132 125 0 130 127 0 128 130 0 125 132 0 123 135 0 120 136 0 119 130 0 125 
81 0 174 103 0 152 111 0 144 116 0 139 119 0 136 121 0 134 123 0 132 124 0 131 125 0 130 125 0 130 125 0 130 126 0 129 126 0 129 126 0 129 126 0 129 126 0 129 125 0 130 123 0 132 122 0 133 121 0 134 119 0 136 118 0 137 117 0 138 117 0 138 118 0 137 119 0 136 120 0 135 122 0 133 123 0 132 125 0 130 127 0 128 129 0 126 132 0 123 134 0 121 136 0 119 137 0 118 137 0 118 135 0 120 133 0 122 132 0 123 130 0 125 129 0 126 129 0 126 128 0 127 127 0 128 126 0 129 126 0 129 125 0 130 126 0 129 127 0 128 128 0 127 129 0 126 130 0 125 130 0 125 129 0 126 128 0 127 127 0 128 125 0 130 123 0 132 120 0 135 116 0 139 111 0 144 103 0 152 92 0 163 76 0 179 55 0 200 29 0 226 1 0 254 0 0 255 0 0 255 0 0 255 0 0 255 0 0 255 0 0 255 0 0 255 0 0 255 0 0 255 0 0 255 0 0 255 0 0 255 0 0 255 0 0 255 0 0 255 0 0 255 0 0 255 0 0 255 0 0 255 0 0 255 0 0 255 0 0 255 0 0 255 0 0 255 0 0 255 0 0 255 0 0 255 0 0 255 0 0 255 0 0 255 0 0 255 0 0 255 0 0 255 0 0 255 0 0 255 0 0 255 0 0 255 0 0 255 0 0 255 0 0 255 0 0 255 0 0 255 0 0 255 0 0 255 0 0 255 0 0 255 0 0 255 0 0 255 0 0 255 0 0 255 0 0 255 0 0 255 0 0 255 0 0 255 0 0 255 0 0 255 0 0 255 0 0 255 0 0 255 0 0 255 0 0 255 0 0 255 0 0 255 0 0 255 1 0 254 31 0 224 57 0 198 79 0 176 95 0 160 106 0 149 113 0 142 118 0 137 121 0 134 123 0 132 125 0 130 126 0 129 126 0 129 126 0 129 126 0 129 126 0 129 128 0 127 129 0 126 130 0 125 131 0 124 132 0 123 132 0 123 132 0 123 132 0 123 132 0 123 132 0 123 132 0 123 132 0 123 132 0 123 132 0 123 133 0 122 134 0 121 135 0 120 136 0 119 136 0 119 136 0 119 135 0 120 134 0 121 133 0 122 132 0 123 130 0 125 128 0 127 126 0 129 124 0 131 122 0 133 121 0 134 121 0 134 121 0 134 121 0 134 121 0 134 120 0 135 119 0 136 119 0 136 118 0 137 117 0 138 118 0 137 118 0 137 119 0 136 119 0 136 121 0 134 122 0 133 124 0 131 126 0 129 129 0 126 132 0 123 135 0 120 135 0 120 129 0 126 
121 0 134 107 0 148 111 0 144 115 0 140 119 0 136 121 0 134 122 0 133 123 0 132 124 0 131 124 0 131 124 0 131 125 0 130 125 0 130 126 0 129 126 0 129 126 0 129 125 0 130 123 0 132 122 0 133 120 0 135 118 0 137 116 0 139 115 0 140 115 0 140 116 0 139 117 0 138 119 0 136 121 0 134 123 0 132 125 0 130 127 0 128 130 0 125 132 0 123 134 0 121 136 0 119 136 0 119 135 0 120 134 0 121 131 0 124 129 0 126 128 0 127 127 0 128 127 0 128 126 0 129 126 0 129 125 0 130 125 0 130 126 0 129 126 0 129 128 0 127 129 0 126 130 0 125 130 0 125 130 0 125 129 0 126 128 0 127 127 0 128 125 0 130 123 0 132 121 0 134 117 0 138 112 0 143 105 0 150 94 0 161 77 0 178 56 0 199 30 0 225 1 0 254 0 0 255 0 0 255 0 0 255 0 0 255 0 0 255 0 0 255 0 0 255 0 0 255 0 0 255 0 0 255 0 0 255 0 0 255 0 0 255 0 0 255 0 0 255 0 0 255 0 0 255 0 0 255 0 0 255 0 0 255 0 0 255 0 0 255 0 0 255 0 0 255 0 0 255 0 0 255 0 0 255 0 0 255 0 0 255 0 0 255 0 0 255 0 0 255 0 0 255 0 0 255 0 0 255 0 0 255 0 0 255 0 0 255 0 0 255 0 0 255 0 0 255 0 0 255 0 0 255 0 0 255 0 0 255 0 0 255 0 0 255 0 0 255 0 0 255 0 0 255 0 0 255 0 0 255 0 0 255 0 0 255 0 0 255 0 0 255 0 0 255 0 0 255 0 0 255 0 0 255 0 0 255 0 0 255 0 0 255 0 0 255 1 0 254 31 0 224 57 0 198 78 0 177 94 0 161 105 0 150 112 0 143 117 0 138 120 0 135 122 0 133 124 0 131 124 0 131 124 0 131 124 0 131 125 0 130 125 0 130 126 0 129 127 0 128 128 0 127 129 0 126 130 0 125 130 0 125 130 0 125 130 0 125 130 0 125 130 0 125 130 0 125 130 0 125 131 0 124 131 0 124 132 0 123 133 0 122 134 0 121 135 0 120 136 0 119 136 0 119 135 0 120 134 0 121 133 0 122 131 0 124 130 0 125 128 0 127 126 0 129 124 0 131 123 0 132 122 0 133 121 0 134 122 0 133 122 0 133 122 0 133 122 0 133 121 0 134 120 0 135 120 0 135 119 0 136 119 0 136 119 0 136 119 0 136 119 0 136 120 0 135 121 0 134 123 0 132 125 0 130 128 0 127 132 0 123 136 0 119 142 0 113 152 0 103 
37 0 218 94 0 161 110 0 145 115 0 140 118 0 137 120 0 135 121 0 134 122 0 133 123 0 132 123 0 132 124 0 131 124 0 131 125 0 130 126 0 129 126 0 129 126 0 129 125 0 130 123 0 132 121 0 134 119 0 136 117 0 138 115 0 140 114 0 141 114 0 141 115 0 140 116 0 139 119 0 136 121 0 134 123 0 132 125 0 130 128 0 127 130 0 125 132 0 123 134 0 121 135 0 120 135 0 120 134 0 121 132 0 123 129 0 126 127 0 128 125 0 130 125 0 130 124 0 131 124 0 131 124 0 131 124 0 131 125 0 130 125 0 130 127 0 128 128 0 127 129 0 126 130 0 125 131 0 124 130 0 125 130 0 125 128 0 127 127 0 128 126 0 129 124 0 131 122 0 133 119 0 136 114 0 141 107 0 148 95 0 160 79 0 176 57 0 198 31 0 224 1 0 254 0 0 255 0 0 255 0 0 255 0 0 255 0 0 255 0 0 255 0 0 255 0 0 255 0 0 255 0 0 255 0 0 255 0 0 255 0 0 255 0 0 255 0 0 255 0 0 255 0 0 255 0 0 255 0 0 255 0 0 255 0 0 255 0 0 255 0 0 255 0 0 255 0 0 255 0 0 255 0 0 255 0 0 255 0 0 255 0 0 255 0 0 255 0 0 255 0 0 255 0 0 255 0 0 255 0 0 255 0 0 255 0 0 255 0 0 255 0 0 255 0 0 255 0 0 255 0 0 255 0 0 255 0 0 255 0 0 255 0 0 255 0 0 255 0 0 255 0 0 255 0 0 255 0 0 255 0 0 255 0 0 255 0 0 255 0 0 255 0 0 255 0 0 255 0 0 255 0 0 255 0 0 255 0 0 255 0 0 255 0 0 255 1 0 254 31 0 224 57 0 198 79 0 176 94 0 161 105 0 150 112 0 143 117 0 138 120 0 135 122 0 133 123 0 132 123 0 132 123 0 132 124 0 131 124 0 131 124 0 131 125 0 130 126 0 129 127 0 128 128 0 127 128 0 127 128 0 127 128 0 127 128 0 127 128 0 127 128 0 127 129 0 126 129 0 126 129 0 126 130 0 125 131 0 124 132 0 123 133 0 122 134 0 121 135 0 120 135 0 120 135 0 120 134 0 121 132 0 123 131 0 124 130 0 125 128 0 127 126 0 129 124 0 131 123 0 132 122 0 133 122 0 133 122 0 133 123 0 132 123 0 132 124 0 131 123 0 132 122 0 133 122 0 133 121 0 134 120 0 135 120 0 135 119 0 136 119 0 136 120 0 135 120 0 135 122 0 133 124 0 131 127 0 128 131 0 124 136 0 119 145 0 110 163 0 92 
170 0 85 124 0 131 117 0 138 117 0 138 118 0 137 119 0 136 120 0 135 121 0 134 121 0 134 122 0 133 123 0 132 124 0 131 125 0 130 126 0 129 126 0 129 126 0 129 125 0 130 124 0 131 122 0 133 119 0 136 117 0 138 115 0 140 114 0 141 114 0 141 115 0 140 116 0 139 119 0 136 121 0 134 123 0 132 126 0 129 128 0 127 130 0 125 132 0 123 134 0 121 134 0 121 134 0 121 132 0 123 129 0 126 127 0 128 125 0 130 123 0 132 122 0 133 122 0 133 122 0 133 122 0 133 123 0 132 124 0 131 125 0 130 127 0 128 128 0 127 130 0 125 131 0 124 131 0 124 130 0 125 129 0 126 128 0 127 127 0 128 126 0 129 124 0 131 123 0 132 120 0 135 116 0 139 109 0 146 97 0 158 81 0 174 59 0 196 31 0 224 1 0 254 0 0 255 0 0 255 0 0 255 0 0 255 0 0 255 0 0 255 0 0 255 0 0 255 0 0 255 0 0 255 0 0 255 0 0 255 0 0 255 0 0 255 0 0 255 0 0 255 0 0 255 0 0 255 0 0 255 0 0 255 0 0 255 0 0 255 0 0 255 0 0 255 0 0 255 0 0 255 0 0 255 0 0 255 0 0 255 0 0 255 0 0 255 0 0 255 0 0 255 0 0 255 0 0 255 0 0 255 0 0 255 0 0 255 0 0 255 0 0 255 0 0 255 0 0 255 0 0 255 0 0 255 0 0 255 0 0 255 0 0 255 0 0 255 0 0 255 0 0 255 0 0 255 0 0 255 0 0 255 0 0 255 0 0 255 0 0 255 0 0 255 0 0 255 0 0 255 0 0 255 0 0 255 0 0 255 0 0 255 0 0 255 1 0 254 31 0 224 57 0 198 79 0 176 95 0 160 106 0 149 113 0 142 117 0 138 119 0 136 121 0 134 122 0 133 123 0 132 123 0 132 123 0 132 123 0 132 124 0 131 124 0 131 125 0 130 126 0 129 126 0 129 126 0 129 126 0 129 126 0 129 126 0 129 126 0 129 127 0 128 127 0 128 128 0 127 128 0 127 129 0 126 130 0 125 131 0 124 133 0 122 134 0 121 134 0 121 134 0 121 134 0 121 133 0 122 132 0 123 131 0 124 129 0 126 128 0 127 126 0 129 124 0 131 123 0 132 122 0 133 122 0 133 123 0 132 124 0 131 124 0 131 125 0 130 125 0 130 124 0 131 123 0 132 122 0 133 122 0 133 121 0 134 120 0 135 119 0 136 119 0 136 120 0 135 121 0 134 123 0 132 125 0 130 128 0 127 132 0 123 140 0 115 156 0 99 
86 0 169 112 0 143 117 0 138 118 0 137 118 0 137 118 0 137 119 0 136 119 0 136 120 0 135 121 0 134 122 0 133 124 0 131 125 0 130 126 0 129 127 0 128 127 0 128 126 0 129 124 0 131 122 0 133 120 0 135 118 0 137 116 0 139 115 0 140 115 0 140 116 0 139 117 0 138 119 0 136 122 0 133 124 0 131 126 0 129 128 0 127 130 0 125 132 0 123 133 0 122 133 0 122 132 0 123 130 0 125 128 0 127 125 0 130 123 0 132 121 0 134 120 0 135 120 0 135 121 0 134 121 0 134 122 0 133 123 0 132 125 0 130 127 0 128 128 0 127 130 0 125 131 0 124 131 0 124 130 0 125 129 0 126 128 0 127 126 0 129 125 0 130 125 0 130 123 0 132 121 0 134 117 0 138 110 0 145 99 0 156 82 0 173 60 0 195 32 0 223 1 0 254 0 0 255 0 0 255 0 0 255 0 0 255 0 0 255 0 0 255 0 0 255 0 0 255 0 0 255 0 0 255 0 0 255 0 0 255 0 0 255 0 0 255 0 0 255 0 0 255 0 0 255 0 0 255 0 0 255 0 0 255 0 0 255 0 0 255 0 0 255 0 0 255 0 0 255 0 0 255 0 0 255 0 0 255 0 0 255 0 0 255 0 0 255 0 0 255 0 0 255 0 0 255 0 0 255 0 0 255 0 0 255 0 0 255 0 0 255 0 0 255 0 0 255 0 0 255 0 0 255 0 0 255 0 0 255 0 0 255 0 0 255 0 0 255 0 0 255 0 0 255 0 0 255 0 0 255 0 0 255 0 0 255 0 0 255 0 0 255 0 0 255 0 0 255 0 0 255 0 0 255 0 0 255 0 0 255 0 0 255 0 0 255 1 0 254 31 0 224 58 0 197 80 0 175 96 0 159 107 0 148 113 0 142 117 0 138 120 0 135 121 0 134 122 0 133 123 0 132 123 0 132 123 0 132 124 0 131 124 0 131 124 0 131 125 0 130 125 0 130 125 0 130 125 0 130 125 0 130 125 0 130 125 0 130 125 0 130 126 0 129 126 0 129 127 0 128 127 0 128 128 0 127 129 0 126 131 0 124 132 0 123 133 0 122 134 0 121 134 0 121 133 0 122 132 0 123 131 0 124 130 0 125 129 0 126 127 0 128 125 0 130 124 0 131 122 0 133 122 0 133 122 0 133 123 0 132 124 0 131 125 0 130 126 0 129 126 0 129 125 0 130 124 0 131 123 0 132 122 0 133 121 0 134 120 0 135 120 0 135 119 0 136 120 0 135 120 0 135 122 0 133 123 0 132 123 0 132 124 0 131 126 0 129 141 0 114 
108 0 147 122 0 133 122 0 133 120 0 135 119 0 136 118 0 137 118 0 137 118 0 137 119 0 136 120 0 135 122 0 133 124 0 131 125 0 130 127 0 128 127 0 128 127 0 128 126 0 129 125 0 130 123 0 132 121 0 134 119 0 136 117 0 138 116 0 139 116 0 139 117 0 138 119 0 136 121 0 134 123 0 132 125 0 130 127 0 128 129 0 126 130 0 125 131 0 124 131 0 124 131 0 124 130 0 125 128 0 127 126 0 129 123 0 132 121 0 134 120 0 135 119 0 136 119 0 136 120 0 135 120 0 135 121 0 134 123 0 132 124 0 131 126 0 129 128 0 127 130 0 125 130 0 125 130 0 125 129 0 126 128 0 127 126 0 129 125 0 130 125 0 130 124 0 131 124 0 131 122 0 133 119 0 136 112 0 143 101 0 154 84 0 171 61 0 194 33 0 222 1 0 254 0 0 255 0 0 255 0 0 255 0 0 255 0 0 255 0 0 255 0 0 255 0 0 255 0 0 255 0 0 255 0 0 255 0 0 255 0 0 255 0 0 255 0 0 255 0 0 255 0 0 255 0 0 255 0 0 255 0 0 255 0 0 255 0 0 255 0 0 255 0 0 255 0 0 255 0 0 255 0 0 255 0 0 255 0 0 255 0 0 255 0 0 255 0 0 255 0 0 255 0 0 255 0 0 255 0 0 255 0 0 255 0 0 255 0 0 255 0 0 255 0 0 255 0 0 255 0 0 255 0 0 255 0 0 255 0 0 255 0 0 255 0 0 255 0 0 255 0 0 255 0 0 255 0 0 255 0 0 255 0 0 255 0 0 255 0 0 255 0 0 255 0 0 255 0 0 255 0 0 255 0 0 255 0 0 255 0 0 255 0 0 255 1 0 254 32 0 223 59 0 196 81 0 174 97 0 158 108 0 147 114 0 141 118 0 137 121 0 134 122 0 133 123 0 132 123 0 132 124 0 131 124 0 131 124 0 131 124 0 131 124 0 131 124 0 131 124 0 131 124 0 131 124 0 131 124 0 131 124 0 131 124 0 131 125 0 130 125 0 130 126 0 129 126 0 129 127 0 128 128 0 127 129 0 126 130 0 125 132 0 123 133 0 122 133 0 122 133 0 122 133 0 122 132 0 123 131 0 124 130 0 125 128 0 127 127 0 128 125 0 130 124 0 131 122 0 133 122 0 133 122 0 133 123 0 132 124 0 131 125 0 130 126 0 129 126 0 129 126 0 129 125 0 130 124 0 131 123 0 132 122 0 133 121 0 134 120 0 135 120 0 135 120 0 135 120 0 135 121 0 134 120 0 135 118 0 137 113 0 142 99 0 156 62 0 193 
187 0 68 145 0 110 130 0 125 123 0 132 119 0 136 117 0 138 117 0 138 117 0 138 118 0 137 120 0 135 122 0 133 124 0 131 126 0 129 127 0 128 127 0 128 127 0 128 127 0 128 125 0 130 124 0 131 122 0 133 120 0 135 119 0 136 118 0 137 118 0 137 119 0 136 120 0 135 122 0 133 124 0 131 126 0 129 127 0 128 128 0 127 129 0 126 130 0 125 130 0 125 130 0 125 129 0 126 127 0 128 125 0 130 122 0 133 120 0 135 119 0 136 119 0 136 119 0 136 119 0 136 120 0 135 121 0 134 123 0 132 124 0 131 126 0 129 128 0 127 129 0 126 130 0 125 129 0 126 128 0 127 126 0 129 125 0 130 124 0 131 124 0 131 124 0 131 124 0 131 123 0 132 120 0 135 114 0 141 102 0 153 85 0 170 62 0 193 33 0 222 1 0 254 0 0 255 0 0 255 0 0 255 0 0 255 0 0 255 0 0 255 0 0 255 0 0 255 0 0 255 0 0 255 0 0 255 0 0 255 0 0 255 0 0 255 0 0 255 0 0 255 0 0 255 0 0 255 0 0 255 0 0 255 0 0 255 0 0 255 0 0 255 0 0 255 0 0 255 0 0 255 0 0 255 0 0 255 0 0 255 0 0 255 0 0 255 0 0 255 0 0 255 0 0 255 0 0 255 0 0 255 0 0 255 0 0 255 0 0 255 0 0 255 0 0 255 0 0 255 0 0 255 0 0 255 0 0 255 0 0 255 0 0 255 0 0 255 0 0 255 0 0 255 0 0 255 0 0 255 0 0 255 0 0 255 0 0 255 0 0 255 0 0 255 0 0 255 0 0 255 0 0 255 0 0 255 0 0 255 0 0 255 0 0 255 1 0 254 32 0 223 60 0 195 82 0 173 98 0 157 109 0 146 116 0 139 120 0 135 122 0 133 123 0 132 124 0 131 124 0 131 124 0 131 124 0 131 124 0 131 124 0 131 124 0 131 124 0 131 124 0 131 124 0 131 124 0 131 124 0 131 124 0 131 124 0 131 124 0 131 125 0 130 125 0 130 126 0 129 127 0 128 127 0 128 129 0 126 130 0 125 131 0 124 132 0 123 133 0 122 133 0 122 132 0 123 131 0 124 131 0 124 130 0 125 128 0 127 127 0 128 125 0 130 124 0 131 123 0 132 122 0 133 123 0 132 124 0 131 125 0 130 126 0 129 126 0 129 126 0 129 126 0 129 125 0 130 124 0 131 123 0 132 122 0 133 121 0 134 120 0 135 120 0 135 120 0 135 121 0 134 121 0 134 119 0 136 116 0 139 109 0 146 96 0 159 75 0 180 
159 0 96 141 0 114 130 0 125 124 0 131 120 0 135 117 0 138 117 0 138 117 0 138 119 0 136 121 0 134 123 0 132 125 0 130 126 0 129 127 0 128 128 0 127 127 0 128 127 0 128 126 0 129 125 0 130 123 0 132 122 0 133 121 0 134 121 0 134 121 0 134 121 0 134 122 0 133 123 0 132 125 0 130 126 0 129 127 0 128 128 0 127 129 0 126 129 0 126 129 0 126 128 0 127 127 0 128 126 0 129 124 0 131 122 0 133 120 0 135 119 0 136 118 0 137 119 0 136 119 0 136 120 0 135 121 0 134 123 0 132 125 0 130 126 0 129 128 0 127 129 0 126 129 0 126 128 0 127 126 0 129 125 0 130 123 0 132 123 0 132 123 0 132 124 0 131 124 0 131 124 0 131 121 0 134 115 0 140 103 0 152 86 0 169 62 0 193 33 0 222 1 0 254 0 0 255 0 0 255 0 0 255 0 0 255 0 0 255 0 0 255 0 0 255 0 0 255 0 0 255 0 0 255 0 0 255 0 0 255 0 0 255 0 0 255 0 0 255 0 0 255 0 0 255 0 0 255 0 0 255 0 0 255 0 0 255 0 0 255 0 0 255 0 0 255 0 0 255 0 0 255 0 0 255 0 0 255 0 0 255 0 0 255 0 0 255 0 0 255 0 0 255 0 0 255 0 0 255 0 0 255 0 0 255 0 0 255 0 0 255 0 0 255 0 0 255 0 0 255 0 0 255 0 0 255 0 0 255 0 0 255 0 0 255 0 0 255 0 0 255 0 0 255 0 0 255 0 0 255 0 0 255 0 0 255 0 0 255 0 0 255 0 0 255 0 0 255 0 0 255 0 0 255 0 0 255 0 0 255 0 0 255 0 0 255 1 0 254 33 0 222 61 0 194 83 0 172 100 0 155 111 0 144 118 0 137 121 0 134 123 0 132 124 0 131 124 0 131 125 0 130 124 0 131 124 0 131 124 0 131 124 0 131 124 0 131 124 0 131 124 0 131 124 0 131 124 0 131 124 0 131 124 0 131 124 0 131 124 0 131 125 0 130 125 0 130 126 0 129 126 0 129 127 0 128 128 0 127 130 0 125 131 0 124 132 0 123 132 0 123 132 0 123 132 0 123 131 0 124 130 0 125 130 0 125 129 0 126 128 0 127 126 0 129 125 0 130 124 0 131 123 0 132 124 0 131 124 0 131 125 0 130 126 0 129 126 0 129 126 0 129 125 0 130 125 0 130 124 0 131 123 0 132 122 0 133 121 0 134 121 0 134 121 0 134 121 0 134 122 0 133 121 0 134 119 0 136 115 0 140 109 0 146 100 0 155 89 0 166 
140 0 115 132 0 123 127 0 128 123 0 132 120 0 135 118 0 137 118 0 137 118 0 137 120 0 135 121 0 134 124 0 131 125 0 130 127 0 128 128 0 127 128 0 127 127 0 128 127 0 128 126 0 129 125 0 130 124 0 131 124 0 131 123 0 132 123 0 132 123 0 132 123 0 132 124 0 131 124 0 131 125 0 130 126 0 129 127 0 128 128 0 127 128 0 127 128 0 127 128 0 127 127 0 128 126 0 129 125 0 130 123 0 132 122 0 133 120 0 135 119 0 136 119 0 136 119 0 136 119 0 136 120 0 135 121 0 134 123 0 132 124 0 131 126 0 129 128 0 127 129 0 126 128 0 127 127 0 128 125 0 130 123 0 132 122 0 133 122 0 133 122 0 133 123 0 132 124 0 131 124 0 131 121 0 134 115 0 140 104 0 151 86 0 169 63 0 192 34 0 221 1 0 254 0 0 255 0 0 255 0 0 255 0 0 255 0 0 255 0 0 255 0 0 255 0 0 255 0 0 255 0 0 255 0 0 255 0 0 255 0 0 255 0 0 255 0 0 255 0 0 255 0 0 255 0 0 255 0 0 255 0 0 255 0 0 255 0 0 255 0 0 255 0 0 255 0 0 255 0 0 255 0 0 255 0 0 255 0 0 255 0 0 255 0 0 255 0 0 255 0 0 255 0 0 255 0 0 255 0 0 255 0 0 255 0 0 255 0 0 255 0 0 255 0 0 255 0 0 255 0 0 255 0 0 255 0 0 255 0 0 255 0 0 255 0 0 255 0 0 255 0 0 255 0 0 255 0 0 255 0 0 255 0 0 255 0 0 255 0 0 255 0 0 255 0 0 255 0 0 255 0 0 255 0 0 255 0 0 255 0 0 255 0 0 255 1 0 254 33 0 222 61 0 194 85 0 170 101 0 154 112 0 143 119 0 136 123 0 132 124 0 131 125 0 130 125 0 130 125 0 130 125 0 130 124 0 131 123 0 132 123 0 132 123 0 132 123 0 132 124 0 131 124 0 131 124 0 131 124 0 131 124 0 131 124 0 131 124 0 131 124 0 131 125 0 130 125 0 130 126 0 129 127 0 128 128 0 127 129 0 126 130 0 125 131 0 124 132 0 123 132 0 123 131 0 124 131 0 124 131 0 124 130 0 125 129 0 126 128 0 127 127 0 128 126 0 129 125 0 130 124 0 131 125 0 130 125 0 130 126 0 129 127 0 128 127 0 128 126 0 129 125 0 130 124 0 131 123 0 132 122 0 133 122 0 133 122 0 133 122 0 133 122 0 133 122 0 133 123 0 132 122 0 133 120 0 135 116 0 139 110 0 145 104 0 151 106 0 149 
102 0 153 121 0 134 124 0 131 122 0 133 121 0 134 120 0 135 119 0 136 120 0 135 121 0 134 123 0 132 124 0 131 126 0 129 127 0 128 128 0 127 128 0 127 127 0 128 127 0 128 126 0 129 126 0 129 125 0 130 125 0 130 124 0 131 124 0 131 124 0 131 124 0 131 125 0 130 125 0 130 126 0 129 126 0 129 127 0 128 127 0 128 127 0 128 127 0 128 127 0 128 127 0 128 126 0 129 125 0 130 124 0 131 122 0 133 120 0 135 119 0 136 119 0 136 119 0 136 119 0 136 120 0 135 121 0 134 122 0 133 124 0 131 126 0 129 127 0 128 128 0 127 128 0 127 126 0 129 124 0 131 122 0 133 121 0 134 121 0 134 121 0 134 123 0 132 124 0 131 123 0 132 121 0 134 115 0 140 104 0 151 86 0 169 63 0 192 34 0 221 1 0 254 0 0 255 0 0 255 0 0 255 0 0 255 0 0 255 0 0 255 0 0 255 0 0 255 0 0 255 0 0 255 0 0 255 0 0 255 0 0 255 0 0 255 0 0 255 0 0 255 0 0 255 0 0 255 0 0 255 0 0 255 0 0 255 0 0 255 0 0 255 0 0 255 0 0 255 0 0 255 0 0 255 0 0 255 0 0 255 0 0 255 0 0 255 0 0 255 0 0 255 0 0 255 0 0 255 0 0 255 0 0 255 0 0 255 0 0 255 0 0 255 0 0 255 0 0 255 0 0 255 0 0 255 0 0 255 0 0 255 0 0 255 0 0 255 0 0 255 0 0 255 0 0 255 0 0 255 0 0 255 0 0 255 0 0 255 0 0 255 0 0 255 0 0 255 0 0 255 0 0 255 0 0 255 0 0 255 0 0 255 0 0 255 1 0 254 33 0 222 62 0 193 86 0 169 103 0 152 114 0 141 120 0 135 124 0 131 125 0 130 126 0 129 126 0 129 125 0 130 124 0 131 123 0 132 123 0 132 122 0 133 122 0 133 122 0 133 123 0 132 124 0 131 124 0 131 124 0 131 124 0 131 124 0 131 124 0 131 124 0 131 124 0 131 125 0 130 125 0 130 126 0 129 127 0 128 128 0 127 129 0 126 130 0 125 131 0 124 131 0 124 131 0 124 131 0 124 131 0 124 130 0 125 130 0 125 129 0 126 128 0 127 126 0 129 126 0 129 125 0 130 125 0 130 126 0 129 127 0 128 127 0 128 127 0 128 126 0 129 124 0 131 123 0 132 122 0 133 122 0 133 122 0 133 122 0 133 122 0 133 123 0 132 124 0 131 124 0 131 123 0 132 121 0 134 117 0 138 111 0 144 100 0 155 77 0 178 
131 0 124 125 0 130 125 0 130 124 0 131 122 0 133 121 0 134 121 0 134 121 0 134 122 0 133 124 0 131 125 0 130 127 0 128 128 0 127 128 0 127 128 0 127 127 0 128 127 0 128 126 0 129 126 0 129 125 0 130 125 0 130 125 0 130 125 0 130 125 0 130 125 0 130 125 0 130 125 0 130 125 0 130 126 0 129 126 0 129 126 0 129 126 0 129 126 0 129 127 0 128 126 0 129 126 0 129 125 0 130 124 0 131 123 0 132 121 0 134 120 0 135 119 0 136 118 0 137 118 0 137 119 0 136 120 0 135 121 0 134 123 0 132 125 0 130 127 0 128 127 0 128 127 0 128 126 0 129 124 0 131 122 0 133 121 0 134 121 0 134 121 0 134 122 0 133 123 0 132 123 0 132 121 0 134 114 0 141 103 0 152 86 0 169 62 0 193 33 0 222 1 0 254 0 0 255 0 0 255 0 0 255 0 0 255 0 0 255 0 0 255 0 0 255 0 0 255 0 0 255 0 0 255 0 0 255 0 0 255 0 0 255 0 0 255 0 0 255 0 0 255 0 0 255 0 0 255 0 0 255 0 0 255 0 0 255 0 0 255 0 0 255 0 0 255 0 0 255 0 0 255 0 0 255 0 0 255 0 0 255 0 0 255 0 0 255 0 0 255 0 0 255 0 0 255 0 0 255 0 0 255 0 0 255 0 0 255 0 0 255 0 0 255 0 0 255 0 0 255 0 0 255 0 0 255 0 0 255 0 0 255 0 0 255 0 0 255 0 0 255 0 0 255 0 0 255 0 0 255 0 0 255 0 0 255 0 0 255 0 0 255 0 0 255 0 0 255 0 0 255 0 0 255 0 0 255 0 0 255 0 0 255 0 0 255 1 0 254 34 0 221 63 0 192 86 0 169 103 0 152 115 0 140 121 0 134 125 0 130 126 0 129 126 0 129 126 0 129 125 0 130 124 0 131 123 0 132 122 0 133 121 0 134 121 0 134 122 0 133 122 0 133 123 0 132 124 0 131 125 0 130 125 0 130 124 0 131 124 0 131 124 0 131 124 0 131 124 0 131 124 0 131 125 0 130 126 0 129 127 0 128 128 0 127 129 0 126 130 0 125 130 0 125 130 0 125 130 0 125 130 0 125 130 0 125 130 0 125 129 0 126 128 0 127 127 0 128 126 0 129 126 0 129 126 0 129 127 0 128 127 0 128 127 0 128 127 0 128 125 0 130 124 0 131 123 0 132 122 0 133 122 0 133 122 0 133 122 0 133 123 0 132 124 0 131 124 0 131 125 0 130 124 0 131 122 0 133 120 0 135 116 0 139 108 0 147 88 0 167 
97 0 158 124 0 131 127 0 128 125 0 130 124 0 131 123 0 132 122 0 133 123 0 132 123 0 132 125 0 130 126 0 129 127 0 128 128 0 127 128 0 127 128 0 127 127 0 128 126 0 129 126 0 129 125 0 130 125 0 130 125 0 130 125 0 130 125 0 130 125 0 130 125 0 130 125 0 130 125 0 130 125 0 130 125 0 130 125 0 130 126 0 129 126 0 129 126 0 129 127 0 128 127 0 128 127 0 128 126 0 129 125 0 130 124 0 131 122 0 133 121 0 134 119 0 136 118 0 137 118 0 137 118 0 137 119 0 136 121 0 134 122 0 133 124 0 131 126 0 129 127 0 128 126 0 129 125 0 130 124 0 131 122 0 133 121 0 134 121 0 134 122 0 133 123 0 132 124 0 131 123 0 132 120 0 135 114 0 141 103 0 152 85 0 170 62 0 193 33 0 222 1 0 254 0 0 255 0 0 255 0 0 255 0 0 255 0 0 255 0 0 255 0 0 255 0 0 255 0 0 255 0 0 255 0 0 255 0 0 255 0 0 255 0 0 255 0 0 255 0 0 255 0 0 255 0 0 255 0 0 255 0 0 255 0 0 255 0 0 255 0 0 255 0 0 255 0 0 255 0 0 255 0 0 255 0 0 255 0 0 255 0 0 255 0 0 255 0 0 255 0 0 255 0 0 255 0 0 255 0 0 255 0 0 255 0 0 255 0 0 255 0 0 255 0 0 255 0 0 255 0 0 255 0 0 255 0 0 255 0 0 255 0 0 255 0 0 255 0 0 255 0 0 255 0 0 255 0 0 255 0 0 255 0 0 255 0 0 255 0 0 255 0 0 255 0 0 255 0 0 255 0 0 255 0 0 255 0 0 255 0 0 255 0 0 255 1 0 254 34 0 221 63 0 192 87 0 168 104 0 151 115 0 140 122 0 133 125 0 130 127 0 128 127 0 128 126 0 129 125 0 130 123 0 132 122 0 133 121 0 134 120 0 135 120 0 135 121 0 134 122 0 133 123 0 132 124 0 131 125 0 130 125 0 130 124 0 131 124 0 131 124 0 131 123 0 132 123 0 132 124 0 131 124 0 131 125 0 130 126 0 129 127 0 128 128 0 127 129 0 126 129 0 126 129 0 126 129 0 126 130 0 125 130 0 125 129 0 126 129 0 126 128 0 127 127 0 128 126 0 129 126 0 129 126 0 129 127 0 128 127 0 128 127 0 128 126 0 129 125 0 130 123 0 132 122 0 133 121 0 134 122 0 133 122 0 133 123 0 132 124 0 131 125 0 130 125 0 130 125 0 130 125 0 130 124 0 131 122 0 133 123 0 132 130 0 125 163 0 92 
193 0 62 147 0 108 132 0 123 127 0 128 125 0 130 124 0 131 123 0 132 123 0 132 124 0 131 125 0 130 126 0 129 127 0 128 128 0 127 128 0 127 128 0 127 127 0 128 126 0 129 125 0 130 125 0 130 124 0 131 124 0 131 124 0 131 125 0 130 125 0 130 125 0 130 124 0 131 124 0 131 125 0 130 125 0 130 125 0 130 125 0 130 126 0 129 127 0 128 127 0 128 128 0 127 128 0 127 128 0 127 127 0 128 126 0 129 124 0 131 122 0 133 120 0 135 119 0 136 118 0 137 118 0 137 118 0 137 120 0 135 122 0 133 123 0 132 125 0 130 126 0 129 126 0 129 125 0 130 124 0 131 123 0 132 122 0 133 122 0 133 123 0 132 124 0 131 124 0 131 123 0 132 120 0 135 114 0 141 102 0 153 85 0 170 61 0 194 33 0 222 1 0 254 0 0 255 0 0 255 0 0 255 0 0 255 0 0 255 0 0 255 0 0 255 0 0 255 0 0 255 0 0 255 0 0 255 0 0 255 0 0 255 0 0 255 0 0 255 0 0 255 0 0 255 0 0 255 0 0 255 0 0 255 0 0 255 0 0 255 0 0 255 0 0 255 0 0 255 0 0 255 0 0 255 0 0 255 0 0 255 0 0 255 0 0 255 0 0 255 0 0 255 0 0 255 0 0 255 0 0 255 0 0 255 0 0 255 0 0 255 0 0 255 0 0 255 0 0 255 0 0 255 0 0 255 0 0 255 0 0 255 0 0 255 0 0 255 0 0 255 0 0 255 0 0 255 0 0 255 0 0 255 0 0 255 0 0 255 0 0 255 0 0 255 0 0 255 0 0 255 0 0 255 0 0 255 0 0 255 0 0 255 0 0 255 1 0 254 34 0 221 63 0 192 87 0 168 104 0 151 116 0 139 122 0 133 126 0 129 127 0 128 127 0 128 126 0 129 124 0 131 123 0 132 121 0 134 120 0 135 119 0 136 119 0 136 120 0 135 121 0 134 123 0 132 124 0 131 125 0 130 125 0 130 125 0 130 124 0 131 123 0 132 123 0 132 123 0 132 123 0 132 123 0 132 124 0 131 125 0 130 126 0 129 127 0 128 127 0 128 128 0 127 128 0 127 128 0 127 129 0 126 129 0 126 129 0 126 128 0 127 127 0 128 126 0 129 126 0 129 126 0 129 126 0 129 127 0 128 127 0 128 127 0 128 126 0 129 124 0 131 123 0 132 122 0 133 122 0 133 122 0 133 123 0 132 124 0 131 125 0 130 126 0 129 126 0 129 126 0 129 125 0 130 124 0 131 123 0 132 122 0 133 124 0 131 130 0 125 
170 0 85 138 0 117 129 0 126 126 0 129 124 0 131 123 0 132 123 0 132 123 0 132 124 0 131 125 0 130 126 0 129 127 0 128 127 0 128 127 0 128 127 0 128 126 0 129 125 0 130 124 0 131 124 0 131 123 0 132 123 0 132 123 0 132 123 0 132 123 0 132 123 0 132 123 0 132 124 0 131 124 0 131 124 0 131 125 0 130 125 0 130 126 0 129 127 0 128 128 0 127 129 0 126 130 0 125 130 0 125 129 0 126 127 0 128 125 0 130 123 0 132 121 0 134 119 0 136 118 0 137 118 0 137 118 0 137 119 0 136 121 0 134 123 0 132 124 0 131 125 0 130 125 0 130 125 0 130 124 0 131 123 0 132 123 0 132 123 0 132 124 0 131 125 0 130 125 0 130 124 0 131 120 0 135 114 0 141 102 0 153 85 0 170 61 0 194 33 0 222 1 0 254 0 0 255 0 0 255 0 0 255 0 0 255 0 0 255 0 0 255 0 0 255 0 0 255 0 0 255 0 0 255 0 0 255 0 0 255 0 0 255 0 0 255 0 0 255 0 0 255 0 0 255 0 0 255 0 0 255 0 0 255 0 0 255 0 0 255 0 0 255 0 0 255 0 0 255 0 0 255 0 0 255 0 0 255 0 0 255 0 0 255 0 0 255 0 0 255 0 0 255 0 0 255 0 0 255 0 0 255 0 0 255 0 0 255 0 0 255 0 0 255 0 0 255 0 0 255 0 0 255 0 0 255 0 0 255 0 0 255 0 0 255 0 0 255 0 0 255 0 0 255 0 0 255 0 0 255 0 0 255 0 0 255 0 0 255 0 0 255 0 0 255 0 0 255 0 0 255 0 0 255 0 0 255 0 0 255 0 0 255 0 0 255 1 0 254 34 0 221 63 0 192 87 0 168 104 0 151 116 0 139 122 0 133 126 0 129 127 0 128 126 0 129 126 0 129 124 0 131 123 0 132 121 0 134 120 0 135 119 0 136 119 0 136 120 0 135 121 0 134 123 0 132 124 0 131 125 0 130 125 0 130 125 0 130 124 0 131 123 0 132 123 0 132 123 0 132 123 0 132 123 0 132 123 0 132 124 0 131 125 0 130 126 0 129 126 0 129 126 0 129 127 0 128 127 0 128 127 0 128 127 0 128 127 0 128 127 0 128 126 0 129 126 0 129 126 0 129 126 0 129 126 0 129 127 0 128 127 0 128 127 0 128 126 0 129 124 0 131 123 0 132 122 0 133 122 0 133 123 0 132 124 0 131 125 0 130 126 0 129 127 0 128 127 0 128 127 0 128 126 0 129 124 0 131 122 0 133 119 0 136 115 0 140 108 0 147 
44 0 211 106 0 149 119 0 136 122 0 133 122 0 133 122 0 133 122 0 133 122 0 133 123 0 132 124 0 131 125 0 130 125 0 130 126 0 129 127 0 128 126 0 129 126 0 129 125 0 130 124 0 131 123 0 132 122 0 133 122 0 133 122 0 133 122 0 133 122 0 133 122 0 133 122 0 133 122 0 133 123 0 132 123 0 132 124 0 131 125 0 130 126 0 129 127 0 128 129 0 126 130 0 125 131 0 124 131 0 124 130 0 125 129 0 126 127 0 128 124 0 131 122 0 133 120 0 135 119 0 136 118 0 137 118 0 137 119 0 136 120 0 135 122 0 133 123 0 132 124 0 131 124 0 131 124 0 131 124 0 131 124 0 131 124 0 131 125 0 130 125 0 130 125 0 130 125 0 130 124 0 131 120 0 135 114 0 141 102 0 153 85 0 170 61 0 194 33 0 222 1 0 254 0 0 255 0 0 255 0 0 255 0 0 255 0 0 255 0 0 255 0 0 255 0 0 255 0 0 255 0 0 255 0 0 255 0 0 255 0 0 255 0 0 255 0 0 255 0 0 255 0 0 255 0 0 255 0 0 255 0 0 255 0 0 255 0 0 255 0 0 255 0 0 255 0 0 255 0 0 255 0 0 255 0 0 255 0 0 255 0 0 255 0 0 255 0 0 255 0 0 255 0 0 255 0 0 255 0 0 255 0 0 255 0 0 255 0 0 255 0 0 255 0 0 255 0 0 255 0 0 255 0 0 255 0 0 255 0 0 255 0 0 255 0 0 255 0 0 255 0 0 255 0 0 255 0 0 255 0 0 255 0 0 255 0 0 255 0 0 255 0 0 255 0 0 255 0 0 255 0 0 255 0 0 255 0 0 255 0 0 255 0 0 255 1 0 254 34 0 221 63 0 192 87 0 168 104 0 151 116 0 139 122 0 133 125 0 130 126 0 129 126 0 129 125 0 130 124 0 131 123 0 132 121 0 134 120 0 135 119 0 136 119 0 136 120 0 135 121 0 134 123 0 132 124 0 131 125 0 130 125 0 130 125 0 130 125 0 130 124 0 131 123 0 132 123 0 132 123 0 132 123 0 132 123 0 132 124 0 131 124 0 131 125 0 130 125 0 130 125 0 130 125 0 130 126 0 129 126 0 129 126 0 129 126 0 129 126 0 129 125 0 130 125 0 130 125 0 130 125 0 130 126 0 129 126 0 129 127 0 128 126 0 129 126 0 129 125 0 130 124 0 131 123 0 132 124 0 131 125 0 130 126 0 129 127 0 128 128 0 127 128 0 127 128 0 127 127 0 128 126 0 129 124 0 131 121 0 134 117 0 138 110 0 145 97 0 158 
140 0 115 122 0 133 121 0 134 121 0 134 121 0 134 121 0 134 121 0 134 121 0 134 122 0 133 122 0 133 123 0 132 124 0 131 125 0 130 125 0 130 125 0 130 125 0 130 124 0 131 123 0 132 122 0 133 121 0 134 121 0 134 121 0 134 121 0 134 121 0 134 121 0 134 121 0 134 121 0 134 122 0 133 122 0 133 123 0 132 124 0 131 126 0 129 127 0 128 129 0 126 131 0 124 132 0 123 132 0 123 131 0 124 130 0 125 128 0 127 125 0 130 123 0 132 121 0 134 120 0 135 119 0 136 119 0 136 120 0 135 121 0 134 122 0 133 122 0 133 123 0 132 123 0 132 124 0 131 124 0 131 124 0 131 125 0 130 125 0 130 126 0 129 126 0 129 126 0 129 124 0 131 120 0 135 114 0 141 102 0 153 85 0 170 62 0 193 33 0 222 1 0 254 0 0 255 0 0 255 0 0 255 0 0 255 0 0 255 0 0 255 0 0 255 0 0 255 0 0 255 0 0 255 0 0 255 0 0 255 0 0 255 0 0 255 0 0 255 0 0 255 0 0 255 0 0 255 0 0 255 0 0 255 0 0 255 0 0 255 0 0 255 0 0 255 0 0 255 0 0 255 0 0 255 0 0 255 0 0 255 0 0 255 0 0 255 0 0 255 0 0 255 0 0 255 0 0 255 0 0 255 0 0 255 0 0 255 0 0 255 0 0 255 0 0 255 0 0 255 0 0 255 0 0 255 0 0 255 0 0 255 0 0 255 0 0 255 0 0 255 0 0 255 0 0 255 0 0 255 0 0 255 0 0 255 0 0 255 0 0 255 0 0 255 0 0 255 0 0 255 0 0 255 0 0 255 0 0 255 0 0 255 0 0 255 1 0 254 34 0 221 63 0 192 87 0 168 104 0 151 116 0 139 122 0 133 125 0 130 126 0 129 126 0 129 125 0 130 124 0 131 123 0 132 122 0 133 121 0 134 120 0 135 120 0 135 121 0 134 122 0 133 123 0 132 125 0 130 126 0 129 126 0 129 126 0 129 125 0 130 125 0 130 124 0 131 124 0 131 123 0 132 123 0 132 124 0 131 124 0 131 124 0 131 124 0 131 124 0 131 124 0 131 125 0 130 125 0 130 125 0 130 125 0 130 125 0 130 125 0 130 125 0 130 125 0 130 125 0 130 125 0 130 126 0 129 126 0 129 126 0 129 126 0 129 126 0 129 125 0 130 125 0 130 125 0 130 125 0 130 127 0 128 128 0 127 129 0 126 130 0 125 129 0 126 129 0 126 128 0 127 126 0 129 125 0 130 122 0 133 118 0 137 110 0 145 90 0 165 
114 0 141 121 0 134 121 0 134 121 0 134 120 0 135 120 0 135 120 0 135 120 0 135 120 0 135 121 0 134 122 0 133 123 0 132 123 0 132 124 0 131 124 0 131 124 0 131 123 0 132 122 0 133 122 0 133 121 0 134 121 0 134 121 0 134 121 0 134 120 0 135 120 0 135 120 0 135 120 0 135 120 0 135 121 0 134 122 0 133 123 0 132 125 0 130 127 0 128 129 0 126 131 0 124 132 0 123 132 0 123 132 0 123 130 0 125 128 0 127 126 0 129 124 0 131 122 0 133 121 0 134 120 0 135 120 0 135 120 0 135 121 0 134 121 0 134 122 0 133 122 0 133 123 0 132 123 0 132 124 0 131 124 0 131 125 0 130 125 0 130 126 0 129 126 0 129 125 0 130 124 0 131 120 0 135 113 0 142 102 0 153 85 0 170 62 0 193 33 0 222 1 0 254 0 0 255 0 0 255 0 0 255 0 0 255 0 0 255 0 0 255 0 0 255 0 0 255 0 0 255 0 0 255 0 0 255 0 0 255 0 0 255 0 0 255 0 0 255 0 0 255 0 0 255 0 0 255 0 0 255 0 0 255 0 0 255 0 0 255 0 0 255 0 0 255 0 0 255 0 0 255 0 0 255 0 0 255 0 0 255 0 0 255 0 0 255 0 0 255 0 0 255 0 0 255 0 0 255 0 0 255 0 0 255 0 0 255 0 0 255 0 0 255 0 0 255 0 0 255 0 0 255 0 0 255 0 0 255 0 0 255 0 0 255 0 0 255 0 0 255 0 0 255 0 0 255 0 0 255 0 0 255 0 0 255 0 0 255 0 0 255 0 0 255 0 0 255 0 0 255 0 0 255 0 0 255 0 0 255 0 0 255 0 0 255 1 0 254 34 0 221 64 0 191 87 0 168 105 0 150 116 0 139 122 0 133 125 0 130 126 0 129 125 0 130 125 0 130 124 0 131 123 0 132 122 0 133 121 0 134 121 0 134 121 0 134 122 0 133 122 0 133 124 0 131 125 0 130 126 0 129 126 0 129 126 0 129 126 0 129 125 0 130 125 0 130 124 0 131 124 0 131 124 0 131 124 0 131 124 0 131 124 0 131 124 0 131 124 0 131 124 0 131 124 0 131 125 0 130 125 0 130 125 0 130 125 0 130 125 0 130 125 0 130 125 0 130 125 0 130 125 0 130 126 0 129 126 0 129 126 0 129 126 0 129 126 0 129 126 0 129 126 0 129 126 0 129 127 0 128 129 0 126 130 0 125 131 0 124 131 0 124 131 0 124 130 0 125 128 0 127 127 0 128 126 0 129 124 0 131 123 0 132 123 0 132 130 0 125 
147 0 108 128 0 127 124 0 131 122 0 133 120 0 135 119 0 136 119 0 136 119 0 136 119 0 136 119 0 136 120 0 135 121 0 134 122 0 133 123 0 132 124 0 131 124 0 131 123 0 132 123 0 132 122 0 133 122 0 133 121 0 134 121 0 134 121 0 134 120 0 135 120 0 135 120 0 135 119 0 136 119 0 136 120 0 135 121 0 134 122 0 133 124 0 131 126 0 129 128 0 127 130 0 125 132 0 123 132 0 123 132 0 123 131 0 124 129 0 126 127 0 128 125 0 130 124 0 131 123 0 132 122 0 133 122 0 133 122 0 133 122 0 133 122 0 133 122 0 133 122 0 133 122 0 133 123 0 132 123 0 132 124 0 131 124 0 131 125 0 130 125 0 130 125 0 130 124 0 131 123 0 132 119 0 136 113 0 142 102 0 153 85 0 170 62 0 193 33 0 222 1 0 254 0 0 255 0 0 255 0 0 255 0 0 255 0 0 255 0 0 255 0 0 255 0 0 255 0 0 255 0 0 255 0 0 255 0 0 255 0 0 255 0 0 255 0 0 255 0 0 255 0 0 255 0 0 255 0 0 255 0 0 255 0 0 255 0 0 255 0 0 255 0 0 255 0 0 255 0 0 255 0 0 255 0 0 255 0 0 255 0 0 255 0 0 255 0 0 255 0 0 255 0 0 255 0 0 255 0 0 255 0 0 255 0 0 255 0 0 255 0 0 255 0 0 255 0 0 255 0 0 255 0 0 255 0 0 255 0 0 255 0 0 255 0 0 255 0 0 255 0 0 255 0 0 255 0 0 255 0 0 255 0 0 255 0 0 255 0 0 255 0 0 255 0 0 255 0 0 255 0 0 255 0 0 255 0 0 255 0 0 255 0 0 255 1 0 254 34 0 221 64 0 191 88 0 167 105 0 150 116 0 139 121 0 134 124 0 131 125 0 130 124 0 131 124 0 131 123 0 132 123 0 132 122 0 133 122 0 133 122 0 133 122 0 133 122 0 133 123 0 132 124 0 131 125 0 130 126 0 129 126 0 129 127 0 128 126 0 129 126 0 129 125 0 130 125 0 130 124 0 131 124 0 131 124 0 131 124 0 131 124 0 131 124 0 131 124 0 131 124 0 131 124 0 131 125 0 130 125 0 130 125 0 130 125 0 130 125 0 130 125 0 130 125 0 130 125 0 130 125 0 130 126 0 129 126 0 129 126 0 129 127 0 128 127 0 128 127 0 128 128 0 127 128 0 127 130 0 125 131 0 124 132 0 123 132 0 123 132 0 123 131 0 124 130 0 125 129 0 126 127 0 128 126 0 129 126 0 129 126 0 129 127 0 128 130 0 125 
80 0 175 119 0 136 124 0 131 123 0 132 121 0 134 119 0 136 118 0 137 118 0 137 118 0 137 118 0 137 119 0 136 120 0 135 121 0 134 122 0 133 123 0 132 124 0 131 124 0 131 123 0 132 123 0 132 123 0 132 122 0 133 122 0 133 122 0 133 121 0 134 121 0 134 120 0 135 119 0 136 119 0 136 119 0 136 120 0 135 122 0 133 123 0 132 126 0 129 128 0 127 130 0 125 131 0 124 132 0 123 131 0 124 131 0 124 129 0 126 128 0 127 126 0 129 125 0 130 124 0 131 124 0 131 123 0 132 123 0 132 123 0 132 122 0 133 122 0 133 122 0 133 122 0 133 123 0 132 123 0 132 123 0 132 124 0 131 124 0 131 124 0 131 124 0 131 123 0 132 122 0 133 119 0 136 112 0 143 102 0 153 85 0 170 62 0 193 33 0 222 1 0 254 0 0 255 0 0 255 0 0 255 0 0 255 0 0 255 0 0 255 0 0 255 0 0 255 0 0 255 0 0 255 0 0 255 0 0 255 0 0 255 0 0 255 0 0 255 0 0 255 0 0 255 0 0 255 0 0 255 0 0 255 0 0 255 0 0 255 0 0 255 0 0 255 0 0 255 0 0 255 0 0 255 0 0 255 0 0 255 0 0 255 0 0 255 0 0 255 0 0 255 0 0 255 0 0 255 0 0 255 0 0 255 0 0 255 0 0 255 0 0 255 0 0 255 0 0 255 0 0 255 0 0 255 0 0 255 0 0 255 0 0 255 0 0 255 0 0 255 0 0 255 0 0 255 0 0 255 0 0 255 0 0 255 0 0 255 0 0 255 0 0 255 0 0 255 0 0 255 0 0 255 0 0 255 0 0 255 0 0 255 0 0 255 1 0 254 35 0 220 64 0 191 88 0 167 105 0 150 115 0 140 121 0 134 123 0 132 123 0 132 123 0 132 123 0 132 122 0 133 122 0 133 122 0 133 122 0 133 122 0 133 123 0 132 123 0 132 123 0 132 124 0 131 125 0 130 126 0 129 126 0 129 126 0 129 126 0 129 126 0 129 125 0 130 125 0 130 125 0 130 124 0 131 124 0 131 124 0 131 124 0 131 124 0 131 124 0 131 124 0 131 125 0 130 125 0 130 125 0 130 125 0 130 126 0 129 126 0 129 126 0 129 126 0 129 126 0 129 126 0 129 126 0 129 126 0 129 127 0 128 127 0 128 128 0 127 128 0 127 129 0 126 130 0 125 131 0 124 132 0 123 133 0 122 133 0 122 133 0 122 131 0 124 130 0 125 128 0 127 127 0 128 127 0 128 127 0 128 128 0 127 131 0 124 137 0 118 
182 0 73 145 0 110 133 0 122 126 0 129 122 0 133 120 0 135 119 0 136 118 0 137 118 0 137 118 0 137 119 0 136 120 0 135 121 0 134 122 0 133 123 0 132 124 0 131 124 0 131 124 0 131 124 0 131 124 0 131 124 0 131 124 0 131 123 0 132 123 0 132 122 0 133 121 0 134 120 0 135 119 0 136 119 0 136 120 0 135 121 0 134 123 0 132 126 0 129 128 0 127 130 0 125 131 0 124 131 0 124 131 0 124 130 0 125 129 0 126 128 0 127 128 0 127 127 0 128 126 0 129 125 0 130 125 0 130 124 0 131 124 0 131 123 0 132 123 0 132 123 0 132 123 0 132 123 0 132 123 0 132 123 0 132 123 0 132 123 0 132 123 0 132 123 0 132 122 0 133 121 0 134 118 0 137 112 0 143 101 0 154 85 0 170 62 0 193 33 0 222 1 0 254 0 0 255 0 0 255 0 0 255 0 0 255 0 0 255 0 0 255 0 0 255 0 0 255 0 0 255 0 0 255 0 0 255 0 0 255 0 0 255 0 0 255 0 0 255 0 0 255 0 0 255 0 0 255 0 0 255 0 0 255 0 0 255 0 0 255 0 0 255 0 0 255 0 0 255 0 0 255 0 0 255 0 0 255 0 0 255 0 0 255 0 0 255 0 0 255 0 0 255 0 0 255 0 0 255 0 0 255 0 0 255 0 0 255 0 0 255 0 0 255 0 0 255 0 0 255 0 0 255 0 0 255 0 0 255 0 0 255 0 0 255 0 0 255 0 0 255 0 0 255 0 0 255 0 0 255 0 0 255 0 0 255 0 0 255 0 0 255 0 0 255 0 0 255 0 0 255 0 0 255 0 0 255 0 0 255 0 0 255 0 0 255 1 0 254 35 0 220 65 0 190 88 0 167 105 0 150 115 0 140 120 0 135 122 0 133 122 0 133 122 0 133 121 0 134 121 0 134 122 0 133 122 0 133 122 0 133 123 0 132 123 0 132 123 0 132 123 0 132 124 0 131 124 0 131 125 0 130 126 0 129 126 0 129 126 0 129 126 0 129 125 0 130 125 0 130 124 0 131 124 0 131 124 0 131 124 0 131 124 0 131 124 0 131 124 0 131 124 0 131 125 0 130 125 0 130 126 0 129 126 0 129 126 0 129 126 0 129 127 0 128 127 0 128 127 0 128 127 0 128 127 0 128 127 0 128 127 0 128 128 0 127 129 0 126 130 0 125 131 0 124 132 0 123 133 0 122 134 0 121 134 0 121 133 0 122 132 0 123 131 0 124 129 0 126 128 0 127 127 0 128 126 0 129 126 0 129 127 0 128 131 0 124 158 0 97 
138 0 117 145 0 110 137 0 118 129 0 126 124 0 131 121 0 134 119 0 136 119 0 136 118 0 137 119 0 136 119 0 136 120 0 135 121 0 134 123 0 132 124 0 131 124 0 131 125 0 130 125 0 130 125 0 130 125 0 130 125 0 130 125 0 130 125 0 130 124 0 131 123 0 132 122 0 133 121 0 134 120 0 135 120 0 135 120 0 135 122 0 133 124 0 131 126 0 129 128 0 127 129 0 126 130 0 125 131 0 124 131 0 124 130 0 125 130 0 125 129 0 126 128 0 127 128 0 127 127 0 128 127 0 128 126 0 129 125 0 130 125 0 130 124 0 131 124 0 131 124 0 131 123 0 132 123 0 132 123 0 132 122 0 133 122 0 133 122 0 133 122 0 133 122 0 133 122 0 133 121 0 134 118 0 137 112 0 143 102 0 153 85 0 170 62 0 193 33 0 222 1 0 254 0 0 255 0 0 255 0 0 255 0 0 255 0 0 255 0 0 255 0 0 255 0 0 255 0 0 255 0 0 255 0 0 255 0 0 255 0 0 255 0 0 255 0 0 255 0 0 255 0 0 255 0 0 255 0 0 255 0 0 255 0 0 255 0 0 255 0 0 255 0 0 255 0 0 255 0 0 255 0 0 255 0 0 255 0 0 255 0 0 255 0 0 255 0 0 255 0 0 255 0 0 255 0 0 255 0 0 255 0 0 255 0 0 255 0 0 255 0 0 255 0 0 255 0 0 255 0 0 255 0 0 255 0 0 255 0 0 255 0 0 255 0 0 255 0 0 255 0 0 255 0 0 255 0 0 255 0 0 255 0 0 255 0 0 255 0 0 255 0 0 255 0 0 255 0 0 255 0 0 255 0 0 255 0 0 255 0 0 255 0 0 255 1 0 254 35 0 220 65 0 190 88 0 167 105 0 150 114 0 141 119 0 136 121 0 134 121 0 134 120 0 135 120 0 135 120 0 135 121 0 134 122 0 133 122 0 133 123 0 132 123 0 132 123 0 132 123 0 132 123 0 132 124 0 131 124 0 131 125 0 130 125 0 130 125 0 130 125 0 130 125 0 130 124 0 131 124 0 131 123 0 132 123 0 132 123 0 132 123 0 132 123 0 132 123 0 132 124 0 131 124 0 131 125 0 130 125 0 130 126 0 129 127 0 128 127 0 128 127 0 128 128 0 127 127 0 128 127 0 128 127 0 128 127 0 128 128 0 127 129 0 126 130 0 125 131 0 124 132 0 123 133 0 122 134 0 121 134 0 121 134 0 121 133 0 122 132 0 123 130 0 125 128 0 127 127 0 128 126 0 129 126 0 129 126 0 129 123 0 132 110 0 145 51 0 204 
227 0 28 162 0 93 140 0 115 131 0 124 125 0 130 122 0 133 121 0 134 120 0 135 120 0 135 120 0 135 120 0 135 121 0 134 122 0 133 123 0 132 124 0 131 125 0 130 125 0 130 126 0 129 126 0 129 126 0 129 127 0 128 127 0 128 127 0 128 126 0 129 125 0 130 123 0 132 122 0 133 121 0 134 121 0 134 121 0 134 122 0 133 124 0 131 126 0 129 128 0 127 129 0 126 130 0 125 130 0 125 130 0 125 130 0 125 130 0 125 129 0 126 129 0 126 128 0 127 128 0 127 127 0 128 127 0 128 126 0 129 126 0 129 125 0 130 125 0 130 125 0 130 124 0 131 124 0 131 123 0 132 123 0 132 122 0 133 122 0 133 122 0 133 122 0 133 122 0 133 121 0 134 119 0 136 113 0 142 102 0 153 85 0 170 62 0 193 33 0 222 1 0 254 0 0 255 0 0 255 0 0 255 0 0 255 0 0 255 0 0 255 0 0 255 0 0 255 0 0 255 0 0 255 0 0 255 0 0 255 0 0 255 0 0 255 0 0 255 0 0 255 0 0 255 0 0 255 0 0 255 0 0 255 0 0 255 0 0 255 0 0 255 0 0 255 0 0 255 0 0 255 0 0 255 0 0 255 0 0 255 0 0 255 0 0 255 0 0 255 0 0 255 0 0 255 0 0 255 0 0 255 0 0 255 0 0 255 0 0 255 0 0 255 0 0 255 0 0 255 0 0 255 0 0 255 0 0 255 0 0 255 0 0 255 0 0 255 0 0 255 0 0 255 0 0 255 0 0 255 0 0 255 0 0 255 0 0 255 0 0 255 0 0 255 0 0 255 0 0 255 0 0 255 0 0 255 0 0 255 0 0 255 0 0 255 1 0 254 35 0 220 64 0 191 88 0 167 104 0 151 114 0 141 119 0 136 120 0 135 120 0 135 119 0 136 119 0 136 120 0 135 121 0 134 122 0 133 123 0 132 123 0 132 124 0 131 124 0 131 123 0 132 123 0 132 123 0 132 124 0 131 124 0 131 125 0 130 125 0 130 125 0 130 124 0 131 124 0 131 123 0 132 123 0 132 122 0 133 122 0 133 122 0 133 122 0 133 123 0 132 123 0 132 124 0 131 124 0 131 125 0 130 126 0 129 127 0 128 128 0 127 128 0 127 128 0 127 128 0 127 128 0 127 127 0 128 128 0 127 128 0 127 129 0 126 131 0 124 132 0 123 133 0 122 134 0 121 135 0 120 134 0 121 134 0 121 132 0 123 131 0 124 129 0 126 128 0 127 126 0 129 126 0 129 127 0 128 128 0 127 130 0 125 135 0 120 157 0 98 
118 0 137 136 0 119 133 0 122 129 0 126 125 0 130 123 0 132 122 0 133 121 0 134 121 0 134 121 0 134 122 0 133 123 0 132 124 0 131 125 0 130 125 0 130 126 0 129 126 0 129 126 0 129 126 0 129 127 0 128 128 0 127 128 0 127 128 0 127 128 0 127 127 0 128 125 0 130 124 0 131 123 0 132 122 0 133 122 0 133 123 0 132 125 0 130 126 0 129 128 0 127 129 0 126 129 0 126 129 0 126 129 0 126 129 0 126 129 0 126 129 0 126 129 0 126 129 0 126 128 0 127 128 0 127 128 0 127 127 0 128 127 0 128 127 0 128 126 0 129 126 0 129 125 0 130 125 0 130 124 0 131 123 0 132 123 0 132 123 0 132 123 0 132 124 0 131 124 0 131 123 0 132 120 0 135 114 0 141 103 0 152 86 0 169 63 0 192 34 0 221 1 0 254 0 0 255 0 0 255 0 0 255 0 0 255 0 0 255 0 0 255 0 0 255 0 0 255 0 0 255 0 0 255 0 0 255 0 0 255 0 0 255 0 0 255 0 0 255 0 0 255 0 0 255 0 0 255 0 0 255 0 0 255 0 0 255 0 0 255 0 0 255 0 0 255 0 0 255 0 0 255 0 0 255 0 0 255 0 0 255 0 0 255 0 0 255 0 0 255 0 0 255 0 0 255 0 0 255 0 0 255 0 0 255 0 0 255 0 0 255 0 0 255 0 0 255 0 0 255 0 0 255 0 0 255 0 0 255 0 0 255 0 0 255 0 0 255 0 0 255 0 0 255 0 0 255 0 0 255 0 0 255 0 0 255 0 0 255 0 0 255 0 0 255 0 0 255 0 0 255 0 0 255 0 0 255 0 0 255 0 0 255 0 0 255 1 0 254 34 0 221 64 0 191 87 0 168 104 0 151 113 0 142 118 0 137 120 0 135 120 0 135 119 0 136 119 0 136 120 0 135 121 0 134 122 0 133 123 0 132 124 0 131 124 0 131 124 0 131 124 0 131 123 0 132 123 0 132 123 0 132 124 0 131 124 0 131 125 0 130 124 0 131 124 0 131 123 0 132 123 0 132 122 0 133 122 0 133 122 0 133 122 0 133 122 0 133 122 0 133 122 0 133 123 0 132 123 0 132 124 0 131 125 0 130 127 0 128 128 0 127 128 0 127 128 0 127 128 0 127 128 0 127 128 0 127 128 0 127 128 0 127 129 0 126 131 0 124 133 0 122 134 0 121 135 0 120 135 0 120 134 0 121 133 0 122 132 0 123 130 0 125 128 0 127 127 0 128 126 0 129 126 0 129 127 0 128 130 0 125 134 0 121 143 0 112 162 0 93 
149 0 106 132 0 123 129 0 126 127 0 128 125 0 130 124 0 131 123 0 132 123 0 132 123 0 132 123 0 132 124 0 131 124 0 131 125 0 130 126 0 129 126 0 129 126 0 129 126 0 129 127 0 128 127 0 128 128 0 127 128 0 127 129 0 126 129 0 126 129 0 126 128 0 127 127 0 128 126 0 129 124 0 131 124 0 131 123 0 132 124 0 131 125 0 130 127 0 128 128 0 127 128 0 127 128 0 127 128 0 127 128 0 127 128 0 127 128 0 127 128 0 127 128 0 127 128 0 127 128 0 127 128 0 127 128 0 127 128 0 127 128 0 127 128 0 127 128 0 127 127 0 128 127 0 128 126 0 129 125 0 130 125 0 130 124 0 131 124 0 131 125 0 130 125 0 130 125 0 130 124 0 131 121 0 134 115 0 140 104 0 151 87 0 168 63 0 192 34 0 221 1 0 254 0 0 255 0 0 255 0 0 255 0 0 255 0 0 255 0 0 255 0 0 255 0 0 255 0 0 255 0 0 255 0 0 255 0 0 255 0 0 255 0 0 255 0 0 255 0 0 255 0 0 255 0 0 255 0 0 255 0 0 255 0 0 255 0 0 255 0 0 255 0 0 255 0 0 255 0 0 255 0 0 255 0 0 255 0 0 255 0 0 255 0 0 255 0 0 255 0 0 255 0 0 255 0 0 255 0 0 255 0 0 255 0 0 255 0 0 255 0 0 255 0 0 255 0 0 255 0 0 255 0 0 255 0 0 255 0 0 255 0 0 255 0 0 255 0 0 255 0 0 255 0 0 255 0 0 255 0 0 255 0 0 255 0 0 255 0 0 255 0 0 255 0 0 255 0 0 255 0 0 255 0 0 255 0 0 255 0 0 255 0 0 255 1 0 254 34 0 221 63 0 192 86 0 169 103 0 152 113 0 142 118 0 137 120 0 135 120 0 135 120 0 135 120 0 135 120 0 135 121 0 134 123 0 132 124 0 131 124 0 131 125 0 130 125 0 130 124 0 131 124 0 131 123 0 132 123 0 132 124 0 131 124 0 131 124 0 131 124 0 131 124 0 131 123 0 132 123 0 132 122 0 133 122 0 133 121 0 134 121 0 134 121 0 134 121 0 134 121 0 134 122 0 133 123 0 132 124 0 131 125 0 130 126 0 129 127 0 128 128 0 127 128 0 127 128 0 127 128 0 127 127 0 128 128 0 127 128 0 127 130 0 125 131 0 124 133 0 122 135 0 120 135 0 120 135 0 120 134 0 121 133 0 122 131 0 124 129 0 126 127 0 128 126 0 129 125 0 130 126 0 129 127 0 128 129 0 126 134 0 121 141 0 114 152 0 103 
87 0 168 116 0 139 124 0 131 125 0 130 125 0 130 124 0 131 124 0 131 124 0 131 124 0 131 125 0 130 125 0 130 126 0 129 127 0 128 127 0 128 127 0 128 127 0 128 127 0 128 127 0 128 128 0 127 128 0 127 129 0 126 130 0 125 131 0 124 131 0 124 130 0 125 129 0 126 127 0 128 126 0 129 125 0 130 125 0 130 125 0 130 126 0 129 127 0 128 128 0 127 128 0 127 127 0 128 127 0 128 127 0 128 127 0 128 127 0 128 127 0 128 128 0 127 128 0 127 128 0 127 128 0 127 129 0 126 129 0 126 129 0 126 129 0 126 129 0 126 129 0 126 128 0 127 128 0 127 127 0 128 126 0 129 126 0 129 126 0 129 127 0 128 127 0 128 127 0 128 126 0 129 123 0 132 116 0 139 105 0 150 87 0 168 63 0 192 34 0 221 1 0 254 0 0 255 0 0 255 0 0 255 0 0 255 0 0 255 0 0 255 0 0 255 0 0 255 0 0 255 0 0 255 0 0 255 0 0 255 0 0 255 0 0 255 0 0 255 0 0 255 0 0 255 0 0 255 0 0 255 0 0 255 0 0 255 0 0 255 0 0 255 0 0 255 0 0 255 0 0 255 0 0 255 0 0 255 0 0 255 0 0 255 0 0 255 0 0 255 0 0 255 0 0 255 0 0 255 0 0 255 0 0 255 0 0 255 0 0 255 0 0 255 0 0 255 0 0 255 0 0 255 0 0 255 0 0 255 0 0 255 0 0 255 0 0 255 0 0 255 0 0 255 0 0 255 0 0 255 0 0 255 0 0 255 0 0 255 0 0 255 0 0 255 0 0 255 0 0 255 0 0 255 0 0 255 0 0 255 0 0 255 0 0 255 1 0 254 33 0 222 62 0 193 85 0 170 102 0 153 112 0 143 118 0 137 120 0 135 120 0 135 120 0 135 120 0 135 121 0 134 122 0 133 124 0 131 125 0 130 125 0 130 126 0 129 126 0 129 125 0 130 124 0 131 124 0 131 124 0 131 124 0 131 124 0 131 124 0 131 124 0 131 124 0 131 123 0 132 123 0 132 122 0 133 122 0 133 121 0 134 121 0 134 121 0 134 121 0 134 121 0 134 121 0 134 122 0 133 123 0 132 124 0 131 125 0 130 126 0 129 127 0 128 127 0 128 127 0 128 127 0 128 127 0 128 127 0 128 128 0 127 129 0 126 131 0 124 133 0 122 135 0 120 136 0 119 135 0 120 134 0 121 133 0 122 131 0 124 128 0 127 127 0 128 125 0 130 125 0 130 125 0 130 126 0 129 127 0 128 129 0 126 136 0 119 158 0 97 
83 0 172 120 0 135 126 0 129 126 0 129 125 0 130 125 0 130 125 0 130 125 0 130 125 0 130 126 0 129 126 0 129 127 0 128 128 0 127 128 0 127 128 0 127 128 0 127 128 0 127 128 0 127 128 0 127 129 0 126 130 0 125 131 0 124 132 0 123 132 0 123 132 0 123 131 0 124 129 0 126 128 0 127 126 0 129 126 0 129 126 0 129 127 0 128 127 0 128 128 0 127 127 0 128 127 0 128 126 0 129 126 0 129 126 0 129 126 0 129 126 0 129 127 0 128 127 0 128 128 0 127 129 0 126 129 0 126 130 0 125 130 0 125 131 0 124 131 0 124 130 0 125 130 0 125 129 0 126 129 0 126 128 0 127 128 0 127 129 0 126 129 0 126 129 0 126 129 0 126 128 0 127 124 0 131 117 0 138 106 0 149 88 0 167 64 0 191 34 0 221 1 0 254 0 0 255 0 0 255 0 0 255 0 0 255 0 0 255 0 0 255 0 0 255 0 0 255 0 0 255 0 0 255 0 0 255 0 0 255 0 0 255 0 0 255 0 0 255 0 0 255 0 0 255 0 0 255 0 0 255 0 0 255 0 0 255 0 0 255 0 0 255 0 0 255 0 0 255 0 0 255 0 0 255 0 0 255 0 0 255 0 0 255 0 0 255 0 0 255 0 0 255 0 0 255 0 0 255 0 0 255 0 0 255 0 0 255 0 0 255 0 0 255 0 0 255 0 0 255 0 0 255 0 0 255 0 0 255 0 0 255 0 0 255 0 0 255 0 0 255 0 0 255 0 0 255 0 0 255 0 0 255 0 0 255 0 0 255 0 0 255 0 0 255 0 0 255 0 0 255 0 0 255 0 0 255 0 0 255 0 0 255 0 0 255 1 0 254 33 0 222 61 0 194 84 0 171 101 0 154 111 0 144 117 0 138 120 0 135 120 0 135 121 0 134 121 0 134 122 0 133 123 0 132 125 0 130 126 0 129 127 0 128 127 0 128 127 0 128 126 0 129 125 0 130 125 0 130 124 0 131 124 0 131 124 0 131 124 0 131 124 0 131 124 0 131 123 0 132 123 0 132 122 0 133 122 0 133 122 0 133 121 0 134 121 0 134 121 0 134 121 0 134 121 0 134 121 0 134 122 0 133 123 0 132 124 0 131 125 0 130 126 0 129 126 0 129 126 0 129 126 0 129 126 0 129 126 0 129 127 0 128 129 0 126 131 0 124 133 0 122 135 0 120 136 0 119 136 0 119 135 0 120 133 0 122 130 0 125 128 0 127 126 0 129 125 0 130 124 0 131 124 0 131 123 0 132 122 0 133 120 0 135 114 0 141 96 0 159 
225 0 30 154 0 101 134 0 121 128 0 127 126 0 129 125 0 130 125 0 130 125 0 130 126 0 129 126 0 129 127 0 128 127 0 128 128 0 127 128 0 127 129 0 126 128 0 127 128 0 127 128 0 127 128 0 127 129 0 126 130 0 125 132 0 123 133 0 122 133 0 122 133 0 122 132 0 123 131 0 124 129 0 126 128 0 127 127 0 128 127 0 128 127 0 128 128 0 127 128 0 127 128 0 127 127 0 128 126 0 129 126 0 129 125 0 130 125 0 130 126 0 129 126 0 129 127 0 128 128 0 127 129 0 126 130 0 125 130 0 125 131 0 124 132 0 123 132 0 123 132 0 123 132 0 123 131 0 124 131 0 124 131 0 124 131 0 124 131 0 124 131 0 124 131 0 124 131 0 124 129 0 126 125 0 130 118 0 137 106 0 149 88 0 167 64 0 191 34 0 221 1 0 254 0 0 255 0 0 255 0 0 255 0 0 255 0 0 255 0 0 255 0 0 255 0 0 255 0 0 255 0 0 255 0 0 255 0 0 255 0 0 255 0 0 255 0 0 255 0 0 255 0 0 255 0 0 255 0 0 255 0 0 255 0 0 255 0 0 255 0 0 255 0 0 255 0 0 255 0 0 255 0 0 255 0 0 255 0 0 255 0 0 255 0 0 255 0 0 255 0 0 255 0 0 255 0 0 255 0 0 255 0 0 255 0 0 255 0 0 255 0 0 255 0 0 255 0 0 255 0 0 255 0 0 255 0 0 255 0 0 255 0 0 255 0 0 255 0 0 255 0 0 255 0 0 255 0 0 255 0 0 255 0 0 255 0 0 255 0 0 255 0 0 255 0 0 255 0 0 255 0 0 255 0 0 255 0 0 255 0 0 255 0 0 255 1 0 254 32 0 223 60 0 195 83 0 172 99 0 156 110 0 145 116 0 139 119 0 136 120 0 135 121 0 134 122 0 133 123 0 132 124 0 131 126 0 129 127 0 128 128 0 127 128 0 127 128 0 127 127 0 128 127 0 128 126 0 129 125 0 130 125 0 130 125 0 130 125 0 130 124 0 131 124 0 131 124 0 131 123 0 132 122 0 133 122 0 133 122 0 133 121 0 134 121 0 134 121 0 134 121 0 134 121 0 134 121 0 134 121 0 134 122 0 133 123 0 132 123 0 132 124 0 131 124 0 131 125 0 130 125 0 130 125 0 130 126 0 129 127 0 128 129 0 126 131 0 124 133 0 122 135 0 120 136 0 119 136 0 119 135 0 120 133 0 122 130 0 125 128 0 127 126 0 129 124 0 131 123 0 132 122 0 133 121 0 134 118 0 137 113 0 142 105 0 150 93 0 162 
162 0 93 139 0 116 129 0 126 126 0 129 125 0 130 125 0 130 125 0 130 125 0 130 126 0 129 126 0 129 126 0 129 127 0 128 128 0 127 128 0 127 128 0 127 128 0 127 128 0 127 128 0 127 128 0 127 129 0 126 130 0 125 132 0 123 133 0 122 134 0 121 134 0 121 133 0 122 132 0 123 130 0 125 129 0 126 128 0 127 128 0 127 128 0 127 129 0 126 129 0 126 128 0 127 127 0 128 127 0 128 126 0 129 126 0 129 126 0 129 126 0 129 126 0 129 127 0 128 128 0 127 129 0 126 130 0 125 131 0 124 132 0 123 133 0 122 133 0 122 133 0 122 133 0 122 133 0 122 133 0 122 133 0 122 133 0 122 133 0 122 133 0 122 133 0 122 132 0 123 130 0 125 126 0 129 118 0 137 106 0 149 88 0 167 64 0 191 34 0 221 1 0 254 0 0 255 0 0 255 0 0 255 0 0 255 0 0 255 0 0 255 0 0 255 0 0 255 0 0 255 0 0 255 0 0 255 0 0 255 0 0 255 0 0 255 0 0 255 0 0 255 0 0 255 0 0 255 0 0 255 0 0 255 0 0 255 0 0 255 0 0 255 0 0 255 0 0 255 0 0 255 0 0 255 0 0 255 0 0 255 0 0 255 0 0 255 0 0 255 0 0 255 0 0 255 0 0 255 0 0 255 0 0 255 0 0 255 0 0 255 0 0 255 0 0 255 0 0 255 0 0 255 0 0 255 0 0 255 0 0 255 0 0 255 0 0 255 0 0 255 0 0 255 0 0 255 0 0 255 0 0 255 0 0 255 0 0 255 0 0 255 0 0 255 0 0 255 0 0 255 0 0 255 0 0 255 0 0 255 0 0 255 0 0 255 1 0 254 32 0 223 59 0 196 82 0 173 98 0 157 109 0 146 115 0 140 118 0 137 120 0 135 121 0 134 122 0 133 123 0 132 125 0 130 126 0 129 128 0 127 129 0 126 129 0 126 129 0 126 129 0 126 128 0 127 127 0 128 126 0 129 126 0 129 125 0 130 125 0 130 125 0 130 124 0 131 124 0 131 123 0 132 122 0 133 122 0 133 121 0 134 121 0 134 121 0 134 121 0 134 121 0 134 121 0 134 121 0 134 121 0 134 121 0 134 122 0 133 122 0 133 123 0 132 123 0 132 123 0 132 123 0 132 124 0 131 125 0 130 127 0 128 129 0 126 131 0 124 134 0 121 135 0 120 136 0 119 136 0 119 135 0 120 133 0 122 130 0 125 128 0 127 125 0 130 124 0 131 122 0 133 121 0 134 119 0 136 116 0 139 110 0 145 98 0 157 70 0 185 
70 0 185 109 0 146 119 0 136 122 0 133 124 0 131 125 0 130 125 0 130 125 0 130 125 0 130 125 0 130 126 0 129 126 0 129 127 0 128 127 0 128 128 0 127 128 0 127 128 0 127 127 0 128 128 0 127 129 0 126 130 0 125 131 0 124 133 0 122 134 0 121 134 0 121 134 0 121 133 0 122 132 0 123 131 0 124 130 0 125 130 0 125 130 0 125 130 0 125 130 0 125 129 0 126 129 0 126 128 0 127 127 0 128 127 0 128 126 0 129 126 0 129 126 0 129 127 0 128 127 0 128 128 0 127 130 0 125 131 0 124 132 0 123 134 0 121 134 0 121 135 0 120 135 0 120 135 0 120 135 0 120 134 0 121 134 0 121 134 0 121 134 0 121 133 0 122 132 0 123 130 0 125 126 0 129 118 0 137 105 0 150 87 0 168 63 0 192 34 0 221 1 0 254 0 0 255 0 0 255 0 0 255 0 0 255 0 0 255 0 0 255 0 0 255 0 0 255 0 0 255 0 0 255 0 0 255 0 0 255 0 0 255 0 0 255 0 0 255 0 0 255 0 0 255 0 0 255 0 0 255 0 0 255 0 0 255 0 0 255 0 0 255 0 0 255 0 0 255 0 0 255 0 0 255 0 0 255 0 0 255 0 0 255 0 0 255 0 0 255 0 0 255 0 0 255 0 0 255 0 0 255 0 0 255 0 0 255 0 0 255 0 0 255 0 0 255 0 0 255 0 0 255 0 0 255 0 0 255 0 0 255 0 0 255 0 0 255 0 0 255 0 0 255 0 0 255 0 0 255 0 0 255 0 0 255 0 0 255 0 0 255 0 0 255 0 0 255 0 0 255 0 0 255 0 0 255 0 0 255 0 0 255 0 0 255 1 0 254 31 0 224 58 0 197 81 0 174 97 0 158 108 0 147 114 0 141 118 0 137 120 0 135 121 0 134 122 0 133 124 0 131 125 0 130 127 0 128 128 0 127 129 0 126 130 0 125 130 0 125 129 0 126 129 0 126 128 0 127 127 0 128 126 0 129 126 0 129 126 0 129 125 0 130 125 0 130 124 0 131 123 0 132 122 0 133 121 0 134 121 0 134 121 0 134 121 0 134 122 0 133 122 0 133 122 0 133 122 0 133 121 0 134 121 0 134 121 0 134 122 0 133 122 0 133 122 0 133 122 0 133 122 0 133 123 0 132 125 0 130 126 0 129 129 0 126 131 0 124 134 0 121 136 0 119 136 0 119 136 0 119 135 0 120 133 0 122 130 0 125 128 0 127 125 0 130 123 0 132 121 0 134 120 0 135 119 0 136 117 0 138 113 0 142 106 0 149 91 0 164 
111 0 144 107 0 148 114 0 141 119 0 136 123 0 132 124 0 131 125 0 130 125 0 130 124 0 131 124 0 131 124 0 131 124 0 131 125 0 130 126 0 129 126 0 129 127 0 128 127 0 128 126 0 129 127 0 128 127 0 128 129 0 126 130 0 125 132 0 123 133 0 122 134 0 121 134 0 121 133 0 122 133 0 122 132 0 123 131 0 124 131 0 124 131 0 124 131 0 124 131 0 124 131 0 124 130 0 125 129 0 126 128 0 127 128 0 127 127 0 128 127 0 128 126 0 129 126 0 129 127 0 128 128 0 127 129 0 126 131 0 124 133 0 122 134 0 121 135 0 120 136 0 119 136 0 119 136 0 119 136 0 119 136 0 119 135 0 120 135 0 120 135 0 120 134 0 121 132 0 123 130 0 125 125 0 130 117 0 138 105 0 150 87 0 168 63 0 192 34 0 221 1 0 254 0 0 255 0 0 255 0 0 255 0 0 255 0 0 255 0 0 255 0 0 255 0 0 255 0 0 255 0 0 255 0 0 255 0 0 255 0 0 255 0 0 255 0 0 255 0 0 255 0 0 255 0 0 255 0 0 255 0 0 255 0 0 255 0 0 255 0 0 255 0 0 255 0 0 255 0 0 255 0 0 255 0 0 255 0 0 255 0 0 255 0 0 255 0 0 255 0 0 255 0 0 255 0 0 255 0 0 255 0 0 255 0 0 255 0 0 255 0 0 255 0 0 255 0 0 255 0 0 255 0 0 255 0 0 255 0 0 255 0 0 255 0 0 255 0 0 255 0 0 255 0 0 255 0 0 255 0 0 255 0 0 255 0 0 255 0 0 255 0 0 255 0 0 255 0 0 255 0 0 255 0 0 255 0 0 255 0 0 255 0 0 255 1 0 254 31 0 224 58 0 197 80 0 175 96 0 159 107 0 148 113 0 142 117 0 138 119 0 136 121 0 134 122 0 133 124 0 131 126 0 129 127 0 128 128 0 127 129 0 126 130 0 125 130 0 125 130 0 125 129 0 126 128 0 127 128 0 127 127 0 128 127 0 128 126 0 129 126 0 129 125 0 130 124 0 131 123 0 132 122 0 133 121 0 134 121 0 134 121 0 134 121 0 134 122 0 133 122 0 133 122 0 133 122 0 133 122 0 133 122 0 133 122 0 133 121 0 134 121 0 134 121 0 134 122 0 133 122 0 133 123 0 132 125 0 130 127 0 128 129 0 126 132 0 123 134 0 121 135 0 120 136 0 119 136 0 119 135 0 120 133 0 122 130 0 125 127 0 128 125 0 130 123 0 132 121 0 134 120 0 135 120 0 135 120 0 135 121 0 134 123 0 132 133 0 122 
54 0 201 94 0 161 110 0 145 118 0 137 122 0 133 124 0 131 124 0 131 124 0 131 123 0 132 123 0 132 122 0 133 123 0 132 123 0 132 124 0 131 125 0 130 125 0 130 125 0 130 125 0 130 125 0 130 126 0 129 127 0 128 128 0 127 130 0 125 132 0 123 133 0 122 133 0 122 133 0 122 133 0 122 133 0 122 132 0 123 132 0 123 132 0 123 132 0 123 132 0 123 132 0 123 131 0 124 130 0 125 130 0 125 129 0 126 128 0 127 127 0 128 126 0 129 126 0 129 127 0 128 127 0 128 129 0 126 131 0 124 133 0 122 134 0 121 136 0 119 136 0 119 137 0 118 137 0 118 137 0 118 137 0 118 136 0 119 135 0 120 135 0 120 134 0 121 132 0 123 129 0 126 125 0 130 117 0 138 104 0 151 86 0 169 62 0 193 33 0 222 1 0 254 0 0 255 0 0 255 0 0 255 0 0 255 0 0 255 0 0 255 0 0 255 0 0 255 0 0 255 0 0 255 0 0 255 0 0 255 0 0 255 0 0 255 0 0 255 0 0 255 0 0 255 0 0 255 0 0 255 0 0 255 0 0 255 0 0 255 0 0 255 0 0 255 0 0 255 0 0 255 0 0 255 0 0 255 0 0 255 0 0 255 0 0 255 0 0 255 0 0 255 0 0 255 0 0 255 0 0 255 0 0 255 0 0 255 0 0 255 0 0 255 0 0 255 0 0 255 0 0 255 0 0 255 0 0 255 0 0 255 0 0 255 0 0 255 0 0 255 0 0 255 0 0 255 0 0 255 0 0 255 0 0 255 0 0 255 0 0 255 0 0 255 0 0 255 0 0 255 0 0 255 0 0 255 0 0 255 0 0 255 0 0 255 1 0 254 31 0 224 58 0 197 80 0 175 96 0 159 107 0 148 113 0 142 117 0 138 119 0 136 121 0 134 123 0 132 124 0 131 126 0 129 127 0 128 128 0 127 129 0 126 129 0 126 130 0 125 129 0 126 129 0 126 129 0 126 128 0 127 128 0 127 127 0 128 127 0 128 126 0 129 126 0 129 124 0 131 123 0 132 122 0 133 121 0 134 121 0 134 121 0 134 121 0 134 122 0 133 122 0 133 123 0 132 123 0 132 123 0 132 122 0 133 122 0 133 122 0 133 122 0 133 122 0 133 122 0 133 122 0 133 123 0 132 125 0 130 127 0 128 129 0 126 131 0 124 134 0 121 135 0 120 135 0 120 135 0 120 134 0 121 132 0 123 130 0 125 127 0 128 125 0 130 123 0 132 122 0 133 121 0 134 121 0 134 123 0 132 127 0 128 133 0 122 140 0 115 
96 0 159 106 0 149 113 0 142 118 0 137 122 0 133 124 0 131 124 0 131 123 0 132 122 0 133 121 0 134 121 0 134 121 0 134 122 0 133 123 0 132 124 0 131 124 0 131 124 0 131 124 0 131 123 0 132 124 0 131 124 0 131 126 0 129 128 0 127 130 0 125 131 0 124 132 0 123 133 0 122 133 0 122 133 0 122 133 0 122 133 0 122 133 0 122 133 0 122 133 0 122 133 0 122 132 0 123 131 0 124 131 0 124 129 0 126 128 0 127 127 0 128 126 0 129 126 0 129 126 0 129 127 0 128 128 0 127 130 0 125 132 0 123 134 0 121 135 0 120 136 0 119 137 0 118 137 0 118 137 0 118 137 0 118 136 0 119 135 0 120 135 0 120 133 0 122 132 0 123 129 0 126 124 0 131 117 0 138 104 0 151 86 0 169 62 0 193 33 0 222 1 0 254 0 0 255 0 0 255 0 0 255 0 0 255 0 0 255 0 0 255 0 0 255 0 0 255 0 0 255 0 0 255 0 0 255 0 0 255 0 0 255 0 0 255 0 0 255 0 0 255 0 0 255 0 0 255 0 0 255 0 0 255 0 0 255 0 0 255 0 0 255 0 0 255 0 0 255 0 0 255 0 0 255 0 0 255 0 0 255 0 0 255 0 0 255 0 0 255 0 0 255 0 0 255 0 0 255 0 0 255 0 0 255 0 0 255 0 0 255 0 0 255 0 0 255 0 0 255 0 0 255 0 0 255 0 0 255 0 0 255 0 0 255 0 0 255 0 0 255 0 0 255 0 0 255 0 0 255 0 0 255 0 0 255 0 0 255 0 0 255 0 0 255 0 0 255 0 0 255 0 0 255 0 0 255 0 0 255 0 0 255 0 0 255 1 0 254 31 0 224 58 0 197 80 0 175 96 0 159 107 0 148 114 0 141 118 0 137 120 0 135 122 0 133 123 0 132 125 0 130 126 0 129 127 0 128 128 0 127 129 0 126 129 0 126 129 0 126 129 0 126 129 0 126 129 0 126 128 0 127 128 0 127 128 0 127 128 0 127 127 0 128 126 0 129 125 0 130 123 0 132 122 0 133 121 0 134 121 0 134 121 0 134 121 0 134 122 0 133 122 0 133 123 0 132 123 0 132 123 0 132 123 0 132 123 0 132 123 0 132 122 0 133 122 0 133 122 0 133 123 0 132 124 0 131 125 0 130 127 0 128 129 0 126 131 0 124 133 0 122 134 0 121 134 0 121 134 0 121 133 0 122 131 0 124 129 0 126 127 0 128 125 0 130 124 0 131 122 0 133 122 0 133 123 0 132 125 0 130 131 0 124 144 0 111 170 0 85 
157 0 98 119 0 136 116 0 139 119 0 136 122 0 133 123 0 132 123 0 132 123 0 132 121 0 134 120 0 135 120 0 135 120 0 135 121 0 134 122 0 133 123 0 132 123 0 132 123 0 132 122 0 133 122 0 133 122 0 133 122 0 133 124 0 131 126 0 129 128 0 127 130 0 125 131 0 124 133 0 122 133 0 122 133 0 122 133 0 122 133 0 122 133 0 122 133 0 122 133 0 122 133 0 122 133 0 122 132 0 123 131 0 124 130 0 125 128 0 127 127 0 128 126 0 129 125 0 130 125 0 130 125 0 130 127 0 128 128 0 127 131 0 124 133 0 122 134 0 121 136 0 119 137 0 118 137 0 118 137 0 118 137 0 118 136 0 119 135 0 120 134 0 121 133 0 122 131 0 124 129 0 126 124 0 131 117 0 138 104 0 151 86 0 169 63 0 192 33 0 222 1 0 254 0 0 255 0 0 255 0 0 255 0 0 255 0 0 255 0 0 255 0 0 255 0 0 255 0 0 255 0 0 255 0 0 255 0 0 255 0 0 255 0 0 255 0 0 255 0 0 255 0 0 255 0 0 255 0 0 255 0 0 255 0 0 255 0 0 255 0 0 255 0 0 255 0 0 255 0 0 255 0 0 255 0 0 255 0 0 255 0 0 255 0 0 255 0 0 255 0 0 255 0 0 255 0 0 255 0 0 255 0 0 255 0 0 255 0 0 255 0 0 255 0 0 255 0 0 255 0 0 255 0 0 255 0 0 255 0 0 255 0 0 255 0 0 255 0 0 255 0 0 255 0 0 255 0 0 255 0 0 255 0 0 255 0 0 255 0 0 255 0 0 255 0 0 255 0 0 255 0 0 255 0 0 255 0 0 255 0 0 255 0 0 255 1 0 254 32 0 223 59 0 196 81 0 174 97 0 158 108 0 147 115 0 140 119 0 136 121 0 134 123 0 132 124 0 131 126 0 129 127 0 128 128 0 127 128 0 127 129 0 126 129 0 126 128 0 127 128 0 127 128 0 127 128 0 127 128 0 127 128 0 127 128 0 127 128 0 127 127 0 128 126 0 129 125 0 130 123 0 132 122 0 133 121 0 134 121 0 134 121 0 134 121 0 134 122 0 133 123 0 132 123 0 132 124 0 131 124 0 131 124 0 131 124 0 131 123 0 132 123 0 132 123 0 132 123 0 132 123 0 132 124 0 131 125 0 130 127 0 128 129 0 126 130 0 125 131 0 124 132 0 123 132 0 123 132 0 123 131 0 124 130 0 125 129 0 126 127 0 128 126 0 129 124 0 131 124 0 131 123 0 132 124 0 131 126 0 129 130 0 125 141 0 114 180 0 75 
47 0 208 96 0 159 111 0 144 117 0 138 121 0 134 123 0 132 123 0 132 122 0 133 121 0 134 120 0 135 120 0 135 120 0 135 121 0 134 122 0 133 123 0 132 123 0 132 122 0 133 121 0 134 121 0 134 120 0 135 121 0 134 122 0 133 124 0 131 126 0 129 129 0 126 131 0 124 132 0 123 133 0 122 133 0 122 133 0 122 133 0 122 133 0 122 133 0 122 133 0 122 133 0 122 133 0 122 132 0 123 131 0 124 130 0 125 128 0 127 126 0 129 125 0 130 124 0 131 123 0 132 124 0 131 125 0 130 127 0 128 129 0 126 131 0 124 133 0 122 134 0 121 135 0 120 136 0 119 136 0 119 136 0 119 135 0 120 135 0 120 134 0 121 133 0 122 131 0 124 129 0 126 124 0 131 117 0 138 105 0 150 87 0 168 63 0 192 34 0 221 1 0 254 0 0 255 0 0 255 0 0 255 0 0 255 0 0 255 0 0 255 0 0 255 0 0 255 0 0 255 0 0 255 0 0 255 0 0 255 0 0 255 0 0 255 0 0 255 0 0 255 0 0 255 0 0 255 0 0 255 0 0 255 0 0 255 0 0 255 0 0 255 0 0 255 0 0 255 0 0 255 0 0 255 0 0 255 0 0 255 0 0 255 0 0 255 0 0 255 0 0 255 0 0 255 0 0 255 0 0 255 0 0 255 0 0 255 0 0 255 0 0 255 0 0 255 0 0 255 0 0 255 0 0 255 0 0 255 0 0 255 0 0 255 0 0 255 0 0 255 0 0 255 0 0 255 0 0 255 0 0 255 0 0 255 0 0 255 0 0 255 0 0 255 0 0 255 0 0 255 0 0 255 0 0 255 0 0 255 0 0 255 0 0 255 1 0 254 32 0 223 60 0 195 82 0 173 99 0 156 109 0 146 116 0 139 120 0 135 122 0 133 124 0 131 125 0 130 126 0 129 127 0 128 128 0 127 128 0 127 128 0 127 128 0 127 128 0 127 128 0 127 128 0 127 128 0 127 128 0 127 128 0 127 128 0 127 127 0 128 127 0 128 126 0 129 124 0 131 123 0 132 122 0 133 121 0 134 121 0 134 121 0 134 121 0 134 122 0 133 122 0 133 123 0 132 124 0 131 124 0 131 124 0 131 124 0 131 124 0 131 123 0 132 123 0 132 123 0 132 124 0 131 124 0 131 125 0 130 127 0 128 128 0 127 129 0 126 129 0 126 130 0 125 130 0 125 130 0 125 130 0 125 129 0 126 128 0 127 127 0 128 127 0 128 126 0 129 125 0 130 125 0 130 125 0 130 125 0 130 122 0 133 112 0 143 76 0 179 
118 0 137 107 0 148 111 0 144 117 0 138 120 0 135 122 0 133 122 0 133 121 0 134 120 0 135 120 0 135 120 0 135 120 0 135 121 0 134 122 0 133 123 0 132 123 0 132 122 0 133 121 0 134 120 0 135 120 0 135 120 0 135 121 0 134 123 0 132 125 0 130 128 0 127 130 0 125 131 0 124 132 0 123 133 0 122 133 0 122 133 0 122 133 0 122 132 0 123 132 0 123 132 0 123 132 0 123 132 0 123 131 0 124 129 0 126 128 0 127 126 0 129 124 0 131 123 0 132 122 0 133 122 0 133 123 0 132 124 0 131 126 0 129 128 0 127 130 0 125 132 0 123 133 0 122 134 0 121 134 0 121 134 0 121 134 0 121 134 0 121 133 0 122 132 0 123 131 0 124 129 0 126 125 0 130 117 0 138 105 0 150 87 0 168 63 0 192 34 0 221 1 0 254 0 0 255 0 0 255 0 0 255 0 0 255 0 0 255 0 0 255 0 0 255 0 0 255 0 0 255 0 0 255 0 0 255 0 0 255 0 0 255 0 0 255 0 0 255 0 0 255 0 0 255 0 0 255 0 0 255 0 0 255 0 0 255 0 0 255 0 0 255 0 0 255 0 0 255 0 0 255 0 0 255 0 0 255 0 0 255 0 0 255 0 0 255 0 0 255 0 0 255 0 0 255 0 0 255 0 0 255 0 0 255 0 0 255 0 0 255 0 0 255 0 0 255 0 0 255 0 0 255 0 0 255 0 0 255 0 0 255 0 0 255 0 0 255 0 0 255 0 0 255 0 0 255 0 0 255 0 0 255 0 0 255 0 0 255 0 0 255 0 0 255 0 0 255 0 0 255 0 0 255 0 0 255 0 0 255 0 0 255 0 0 255 1 0 254 33 0 222 61 0 194 84 0 171 100 0 155 111 0 144 118 0 137 122 0 133 124 0 131 125 0 130 126 0 129 127 0 128 128 0 127 128 0 127 128 0 127 128 0 127 128 0 127 128 0 127 127 0 128 127 0 128 127 0 128 127 0 128 127 0 128 127 0 128 127 0 128 126 0 129 125 0 130 124 0 131 123 0 132 122 0 133 121 0 134 121 0 134 121 0 134 121 0 134 122 0 133 122 0 133 123 0 132 123 0 132 124 0 131 124 0 131 124 0 131 124 0 131 124 0 131 124 0 131 124 0 131 124 0 131 124 0 131 125 0 130 126 0 129 127 0 128 127 0 128 128 0 127 128 0 127 128 0 127 128 0 127 128 0 127 128 0 127 128 0 127 128 0 127 128 0 127 127 0 128 127 0 128 127 0 128 127 0 128 126 0 129 122 0 133 109 0 146 66 0 189 
87 0 168 100 0 155 110 0 145 116 0 139 119 0 136 121 0 134 121 0 134 121 0 134 120 0 135 120 0 135 120 0 135 121 0 134 122 0 133 123 0 132 123 0 132 123 0 132 122 0 133 121 0 134 120 0 135 120 0 135 120 0 135 121 0 134 123 0 132 125 0 130 128 0 127 130 0 125 131 0 124 132 0 123 132 0 123 132 0 123 132 0 123 132 0 123 132 0 123 132 0 123 132 0 123 132 0 123 131 0 124 130 0 125 129 0 126 127 0 128 125 0 130 123 0 132 121 0 134 120 0 135 120 0 135 120 0 135 121 0 134 123 0 132 125 0 130 127 0 128 129 0 126 130 0 125 132 0 123 132 0 123 133 0 122 133 0 122 132 0 123 132 0 123 131 0 124 130 0 125 128 0 127 125 0 130 117 0 138 105 0 150 87 0 168 63 0 192 34 0 221 1 0 254 0 0 255 0 0 255 0 0 255 0 0 255 0 0 255 0 0 255 0 0 255 0 0 255 0 0 255 0 0 255 0 0 255 0 0 255 0 0 255 0 0 255 0 0 255 0 0 255 0 0 255 0 0 255 0 0 255 0 0 255 0 0 255 0 0 255 0 0 255 0 0 255 0 0 255 0 0 255 0 0 255 0 0 255 0 0 255 0 0 255 0 0 255 0 0 255 0 0 255 0 0 255 0 0 255 0 0 255 0 0 255 0 0 255 0 0 255 0 0 255 0 0 255 0 0 255 0 0 255 0 0 255 0 0 255 0 0 255 0 0 255 0 0 255 0 0 255 0 0 255 0 0 255 0 0 255 0 0 255 0 0 255 0 0 255 0 0 255 0 0 255 0 0 255 0 0 255 0 0 255 0 0 255 0 0 255 0 0 255 0 0 255 1 0 254 33 0 222 62 0 193 85 0 170 102 0 153 113 0 142 120 0 135 123 0 132 125 0 130 126 0 129 127 0 128 127 0 128 128 0 127 128 0 127 128 0 127 128 0 127 128 0 127 127 0 128 127 0 128 127 0 128 127 0 128 127 0 128 127 0 128 126 0 129 126 0 129 125 0 130 124 0 131 123 0 132 122 0 133 122 0 133 122 0 133 122 0 133 122 0 133 122 0 133 122 0 133 122 0 133 123 0 132 123 0 132 123 0 132 124 0 131 124 0 131 124 0 131 124 0 131 124 0 131 124 0 131 124 0 131 125 0 130 125 0 130 126 0 129 126 0 129 126 0 129 126 0 129 126 0 129 126 0 129 126 0 129 127 0 128 128 0 127 128 0 127 128 0 127 129 0 126 129 0 126 129 0 126 129 0 126 130 0 125 130 0 125 132 0 123 136 0 119 149 0 106 
51 0 204 96 0 159 111 0 144 117 0 138 119 0 136 120 0 135 121 0 134 121 0 134 120 0 135 120 0 135 121 0 134 121 0 134 122 0 133 123 0 132 123 0 132 122 0 133 121 0 134 121 0 134 120 0 135 120 0 135 121 0 134 122 0 133 124 0 131 126 0 129 128 0 127 130 0 125 131 0 124 132 0 123 132 0 123 132 0 123 132 0 123 131 0 124 131 0 124 131 0 124 131 0 124 131 0 124 130 0 125 129 0 126 128 0 127 127 0 128 125 0 130 122 0 133 120 0 135 119 0 136 118 0 137 118 0 137 119 0 136 121 0 134 122 0 133 124 0 131 126 0 129 128 0 127 129 0 126 130 0 125 131 0 124 131 0 124 131 0 124 131 0 124 130 0 125 130 0 125 128 0 127 124 0 131 117 0 138 105 0 150 87 0 168 63 0 192 34 0 221 1 0 254 0 0 255 0 0 255 0 0 255 0 0 255 0 0 255 0 0 255 0 0 255 0 0 255 0 0 255 0 0 255 0 0 255 0 0 255 0 0 255 0 0 255 0 0 255 0 0 255 0 0 255 0 0 255 0 0 255 0 0 255 0 0 255 0 0 255 0 0 255 0 0 255 0 0 255 0 0 255 0 0 255 0 0 255 0 0 255 0 0 255 0 0 255 0 0 255 0 0 255 0 0 255 0 0 255 0 0 255 0 0 255 0 0 255 0 0 255 0 0 255 0 0 255 0 0 255 0 0 255 0 0 255 0 0 255 0 0 255 0 0 255 0 0 255 0 0 255 0 0 255 0 0 255 0 0 255 0 0 255 0 0 255 0 0 255 0 0 255 0 0 255 0 0 255 0 0 255 0 0 255 0 0 255 0 0 255 0 0 255 0 0 255 1 0 254 34 0 221 63 0 192 86 0 169 103 0 152 115 0 140 121 0 134 125 0 130 127 0 128 127 0 128 128 0 127 128 0 127 128 0 127 128 0 127 128 0 127 128 0 127 128 0 127 127 0 128 127 0 128 127 0 128 126 0 129 126 0 129 126 0 129 125 0 130 125 0 130 124 0 131 123 0 132 123 0 132 122 0 133 122 0 133 122 0 133 123 0 132 123 0 132 123 0 132 123 0 132 123 0 132 123 0 132 123 0 132 123 0 132 123 0 132 124 0 131 124 0 131 124 0 131 124 0 131 124 0 131 124 0 131 125 0 130 125 0 130 126 0 129 126 0 129 126 0 129 125 0 130 125 0 130 125 0 130 126 0 129 126 0 129 127 0 128 128 0 127 129 0 126 129 0 126 130 0 125 131 0 124 131 0 124 132 0 123 133 0 122 138 0 117 153 0 102 204 0 51 
140 0 115 122 0 133 120 0 135 120 0 135 120 0 135 121 0 134 121 0 134 120 0 135 121 0 134 121 0 134 121 0 134 122 0 133 122 0 133 122 0 133 122 0 133 122 0 133 121 0 134 121 0 134 121 0 134 121 0 134 122 0 133 123 0 132 125 0 130 126 0 129 128 0 127 129 0 126 130 0 125 131 0 124 131 0 124 131 0 124 131 0 124 131 0 124 131 0 124 131 0 124 131 0 124 130 0 125 130 0 125 129 0 126 128 0 127 126 0 129 124 0 131 122 0 133 120 0 135 118 0 137 117 0 138 117 0 138 117 0 138 118 0 137 120 0 135 122 0 133 123 0 132 125 0 130 127 0 128 128 0 127 129 0 126 129 0 126 130 0 125 130 0 125 129 0 126 129 0 126 127 0 128 124 0 131 117 0 138 105 0 150 87 0 168 63 0 192 34 0 221 1 0 254 0 0 255 0 0 255 0 0 255 0 0 255 0 0 255 0 0 255 0 0 255 0 0 255 0 0 255 0 0 255 0 0 255 0 0 255 0 0 255 0 0 255 0 0 255 0 0 255 0 0 255 0 0 255 0 0 255 0 0 255 0 0 255 0 0 255 0 0 255 0 0 255 0 0 255 0 0 255 0 0 255 0 0 255 0 0 255 0 0 255 0 0 255 0 0 255 0 0 255 0 0 255 0 0 255 0 0 255 0 0 255 0 0 255 0 0 255 0 0 255 0 0 255 0 0 255 0 0 255 0 0 255 0 0 255 0 0 255 0 0 255 0 0 255 0 0 255 0 0 255 0 0 255 0 0 255 0 0 255 0 0 255 0 0 255 0 0 255 0 0 255 0 0 255 0 0 255 0 0 255 0 0 255 0 0 255 0 0 255 0 0 255 1 0 254 34 0 221 63 0 192 87 0 168 105 0 150 116 0 139 123 0 132 126 0 129 128 0 127 128 0 127 128 0 127 128 0 127 128 0 127 128 0 127 128 0 127 128 0 127 128 0 127 128 0 127 127 0 128 127 0 128 126 0 129 126 0 129 125 0 130 125 0 130 124 0 131 123 0 132 123 0 132 123 0 132 123 0 132 123 0 132 124 0 131 124 0 131 124 0 131 124 0 131 123 0 132 123 0 132 123 0 132 122 0 133 123 0 132 123 0 132 123 0 132 124 0 131 124 0 131 124 0 131 124 0 131 125 0 130 125 0 130 125 0 130 126 0 129 126 0 129 126 0 129 125 0 130 125 0 130 125 0 130 126 0 129 126 0 129 127 0 128 128 0 127 129 0 126 130 0 125 131 0 124 132 0 123 132 0 123 132 0 123 132 0 123 133 0 122 136 0 119 140 0 115 
144 0 111 132 0 123 126 0 129 123 0 132 121 0 134 121 0 134 121 0 134 121 0 134 121 0 134 121 0 134 121 0 134 122 0 133 122 0 133 122 0 133 122 0 133 121 0 134 121 0 134 121 0 134 121 0 134 122 0 133 123 0 132 124 0 131 125 0 130 127 0 128 128 0 127 129 0 126 130 0 125 130 0 125 130 0 125 130 0 125 130 0 125 130 0 125 130 0 125 130 0 125 130 0 125 130 0 125 129 0 126 129 0 126 128 0 127 126 0 129 124 0 131 122 0 133 119 0 136 117 0 138 116 0 139 116 0 139 116 0 139 117 0 138 118 0 137 120 0 135 122 0 133 123 0 132 125 0 130 126 0 129 128 0 127 128 0 127 128 0 127 128 0 127 128 0 127 128 0 127 126 0 129 123 0 132 116 0 139 104 0 151 87 0 168 63 0 192 34 0 221 1 0 254 0 0 255 0 0 255 0 0 255 0 0 255 0 0 255 0 0 255 0 0 255 0 0 255 0 0 255 0 0 255 0 0 255 0 0 255 0 0 255 0 0 255 0 0 255 0 0 255 0 0 255 0 0 255 0 0 255 0 0 255 0 0 255 0 0 255 0 0 255 0 0 255 0 0 255 0 0 255 0 0 255 0 0 255 0 0 255 0 0 255 0 0 255 0 0 255 0 0 255 0 0 255 0 0 255 0 0 255 0 0 255 0 0 255 0 0 255 0 0 255 0 0 255 0 0 255 0 0 255 0 0 255 0 0 255 0 0 255 0 0 255 0 0 255 0 0 255 0 0 255 0 0 255 0 0 255 0 0 255 0 0 255 0 0 255 0 0 255 0 0 255 0 0 255 0 0 255 0 0 255 0 0 255 0 0 255 0 0 255 0 0 255 1 0 254 34 0 221 64 0 191 88 0 167 105 0 150 117 0 138 123 0 132 127 0 128 128 0 127 129 0 126 129 0 126 128 0 127 128 0 127 128 0 127 128 0 127 128 0 127 128 0 127 128 0 127 127 0 128 127 0 128 126 0 129 126 0 129 125 0 130 124 0 131 123 0 132 123 0 132 123 0 132 123 0 132 124 0 131 125 0 130 125 0 130 125 0 130 125 0 130 125 0 130 124 0 131 123 0 132 122 0 133 122 0 133 122 0 133 123 0 132 123 0 132 124 0 131 124 0 131 124 0 131 125 0 130 125 0 130 125 0 130 125 0 130 126 0 129 126 0 129 126 0 129 126 0 129 125 0 130 125 0 130 126 0 129 127 0 128 127 0 128 128 0 127 129 0 126 130 0 125 131 0 124 132 0 123 132 0 123 131 0 124 130 0 125 127 0 128 117 0 138 74 0 181 
160 0 95 137 0 118 128 0 127 124 0 131 122 0 133 121 0 134 121 0 134 121 0 134 121 0 134 121 0 134 122 0 133 122 0 133 122 0 133 122 0 133 121 0 134 121 0 134 121 0 134 121 0 134 122 0 133 123 0 132 124 0 131 125 0 130 126 0 129 127 0 128 128 0 127 129 0 126 129 0 126 129 0 126 128 0 127 128 0 127 128 0 127 129 0 126 129 0 126 130 0 125 130 0 125 130 0 125 129 0 126 128 0 127 127 0 128 126 0 129 124 0 131 122 0 133 119 0 136 118 0 137 116 0 139 116 0 139 116 0 139 117 0 138 118 0 137 119 0 136 121 0 134 122 0 133 124 0 131 126 0 129 127 0 128 127 0 128 127 0 128 127 0 128 127 0 128 127 0 128 125 0 130 122 0 133 115 0 140 104 0 151 86 0 169 62 0 193 33 0 222 1 0 254 0 0 255 0 0 255 0 0 255 0 0 255 0 0 255 0 0 255 0 0 255 0 0 255 0 0 255 0 0 255 0 0 255 0 0 255 0 0 255 0 0 255 0 0 255 0 0 255 0 0 255 0 0 255 0 0 255 0 0 255 0 0 255 0 0 255 0 0 255 0 0 255 0 0 255 0 0 255 0 0 255 0 0 255 0 0 255 0 0 255 0 0 255 0 0 255 0 0 255 0 0 255 0 0 255 0 0 255 0 0 255 0 0 255 0 0 255 0 0 255 0 0 255 0 0 255 0 0 255 0 0 255 0 0 255 0 0 255 0 0 255 0 0 255 0 0 255 0 0 255 0 0 255 0 0 255 0 0 255 0 0 255 0 0 255 0 0 255 0 0 255 0 0 255 0 0 255 0 0 255 0 0 255 0 0 255 0 0 255 0 0 255 1 0 254 34 0 221 64 0 191 88 0 167 105 0 150 117 0 138 124 0 131 127 0 128 129 0 126 129 0 126 129 0 126 128 0 127 128 0 127 128 0 127 128 0 127 128 0 127 128 0 127 128 0 127 127 0 128 127 0 128 126 0 129 125 0 130 124 0 131 124 0 131 123 0 132 123 0 132 123 0 132 124 0 131 125 0 130 126 0 129 126 0 129 126 0 129 126 0 129 125 0 130 124 0 131 123 0 132 122 0 133 122 0 133 122 0 133 122 0 133 123 0 132 124 0 131 124 0 131 125 0 130 125 0 130 125 0 130 125 0 130 125 0 130 125 0 130 126 0 129 126 0 129 126 0 129 126 0 129 126 0 129 126 0 129 127 0 128 128 0 127 128 0 127 129 0 126 130 0 125 131 0 124 131 0 124 131 0 124 131 0 124 129 0 126 128 0 127 129 0 126 154 0 101 
119 0 136 128 0 127 126 0 129 123 0 132 122 0 133 121 0 134 121 0 134 121 0 134 121 0 134 121 0 134 122 0 133 122 0 133 121 0 134 121 0 134 121 0 134 121 0 134 121 0 134 122 0 133 122 0 133 123 0 132 124 0 131 125 0 130 126 0 129 127 0 128 127 0 128 128 0 127 127 0 128 127 0 128 127 0 128 127 0 128 127 0 128 128 0 127 128 0 127 129 0 126 129 0 126 129 0 126 129 0 126 128 0 127 127 0 128 126 0 129 124 0 131 122 0 133 120 0 135 118 0 137 117 0 138 117 0 138 117 0 138 118 0 137 119 0 136 120 0 135 121 0 134 123 0 132 124 0 131 125 0 130 126 0 129 127 0 128 127 0 128 126 0 129 126 0 129 125 0 130 124 0 131 121 0 134 114 0 141 102 0 153 85 0 170 62 0 193 33 0 222 1 0 254 0 0 255 0 0 255 0 0 255 0 0 255 0 0 255 0 0 255 0 0 255 0 0 255 0 0 255 0 0 255 0 0 255 0 0 255 0 0 255 0 0 255 0 0 255 0 0 255 0 0 255 0 0 255 0 0 255 0 0 255 0 0 255 0 0 255 0 0 255 0 0 255 0 0 255 0 0 255 0 0 255 0 0 255 0 0 255 0 0 255 0 0 255 0 0 255 0 0 255 0 0 255 0 0 255 0 0 255 0 0 255 0 0 255 0 0 255 0 0 255 0 0 255 0 0 255 0 0 255 0 0 255 0 0 255 0 0 255 0 0 255 0 0 255 0 0 255 0 0 255 0 0 255 0 0 255 0 0 255 0 0 255 0 0 255 0 0 255 0 0 255 0 0 255 0 0 255 0 0 255 0 0 255 0 0 255 0 0 255 0 0 255 1 0 254 34 0 221 64 0 191 88 0 167 105 0 150 117 0 138 124 0 131 127 0 128 129 0 126 129 0 126 129 0 126 128 0 127 128 0 127 128 0 127 128 0 127 128 0 127 127 0 128 127 0 128 127 0 128 126 0 129 126 0 129 125 0 130 124 0 131 124 0 131 123 0 132 123 0 132 124 0 131 124 0 131 126 0 129 127 0 128 127 0 128 127 0 128 126 0 129 125 0 130 123 0 132 122 0 133 121 0 134 121 0 134 121 0 134 122 0 133 123 0 132 124 0 131 124 0 131 124 0 131 124 0 131 124 0 131 124 0 131 125 0 130 125 0 130 125 0 130 125 0 130 126 0 129 126 0 129 126 0 129 126 0 129 127 0 128 128 0 127 128 0 127 129 0 126 130 0 125 130 0 125 131 0 124 130 0 125 130 0 125 128 0 127 126 0 129 118 0 137 82 0 173 
131 0 124 130 0 125 126 0 129 123 0 132 121 0 134 121 0 134 121 0 134 121 0 134 121 0 134 121 0 134 121 0 134 121 0 134 121 0 134 121 0 134 121 0 134 121 0 134 121 0 134 122 0 133 123 0 132 124 0 131 125 0 130 126 0 129 126 0 129 127 0 128 127 0 128 126 0 129 126 0 129 125 0 130 125 0 130 125 0 130 125 0 130 126 0 129 127 0 128 128 0 127 128 0 127 128 0 127 128 0 127 128 0 127 127 0 128 126 0 129 124 0 131 122 0 133 121 0 134 119 0 136 119 0 136 118 0 137 119 0 136 119 0 136 120 0 135 121 0 134 122 0 133 124 0 131 125 0 130 126 0 129 126 0 129 126 0 129 126 0 129 125 0 130 125 0 130 124 0 131 123 0 132 119 0 136 112 0 143 101 0 154 84 0 171 61 0 194 33 0 222 1 0 254 0 0 255 0 0 255 0 0 255 0 0 255 0 0 255 0 0 255 0 0 255 0 0 255 0 0 255 0 0 255 0 0 255 0 0 255 0 0 255 0 0 255 0 0 255 0 0 255 0 0 255 0 0 255 0 0 255 0 0 255 0 0 255 0 0 255 0 0 255 0 0 255 0 0 255 0 0 255 0 0 255 0 0 255 0 0 255 0 0 255 0 0 255 0 0 255 0 0 255 0 0 255 0 0 255 0 0 255 0 0 255 0 0 255 0 0 255 0 0 255 0 0 255 0 0 255 0 0 255 0 0 255 0 0 255 0 0 255 0 0 255 0 0 255 0 0 255 0 0 255 0 0 255 0 0 255 0 0 255 0 0 255 0 0 255 0 0 255 0 0 255 0 0 255 0 0 255 0 0 255 0 0 255 0 0 255 0 0 255 0 0 255 1 0 254 34 0 221 64 0 191 87 0 168 105 0 150 116 0 139 123 0 132 127 0 128 128 0 127 129 0 126 129 0 126 128 0 127 128 0 127 128 0 127 127 0 128 127 0 128 127 0 128 126 0 129 126 0 129 126 0 129 125 0 130 125 0 130 124 0 131 124 0 131 123 0 132 123 0 132 124 0 131 125 0 130 126 0 129 127 0 128 127 0 128 127 0 128 126 0 129 124 0 131 122 0 133 121 0 134 120 0 135 120 0 135 121 0 134 122 0 133 123 0 132 123 0 132 124 0 131 124 0 131 123 0 132 123 0 132 123 0 132 124 0 131 124 0 131 125 0 130 125 0 130 125 0 130 126 0 129 126 0 129 127 0 128 127 0 128 128 0 127 128 0 127 129 0 126 129 0 126 130 0 125 130 0 125 129 0 126 129 0 126 129 0 126 130 0 125 135 0 120 160 0 95 
180 0 75 136 0 119 125 0 130 122 0 133 121 0 134 120 0 135 120 0 135 121 0 134 121 0 134 121 0 134 121 0 134 121 0 134 121 0 134 121 0 134 121 0 134 121 0 134 122 0 133 122 0 133 123 0 132 124 0 131 125 0 130 126 0 129 126 0 129 126 0 129 126 0 129 126 0 129 125 0 130 124 0 131 123 0 132 123 0 132 123 0 132 124 0 131 125 0 130 126 0 129 127 0 128 127 0 128 128 0 127 127 0 128 127 0 128 126 0 129 125 0 130 123 0 132 122 0 133 121 0 134 120 0 135 120 0 135 121 0 134 122 0 133 122 0 133 123 0 132 124 0 131 125 0 130 126 0 129 126 0 129 126 0 129 126 0 129 125 0 130 125 0 130 124 0 131 123 0 132 121 0 134 117 0 138 111 0 144 100 0 155 83 0 172 60 0 195 32 0 223 1 0 254 0 0 255 0 0 255 0 0 255 0 0 255 0 0 255 0 0 255 0 0 255 0 0 255 0 0 255 0 0 255 0 0 255 0 0 255 0 0 255 0 0 255 0 0 255 0 0 255 0 0 255 0 0 255 0 0 255 0 0 255 0 0 255 0 0 255 0 0 255 0 0 255 0 0 255 0 0 255 0 0 255 0 0 255 0 0 255 0 0 255 0 0 255 0 0 255 0 0 255 0 0 255 0 0 255 0 0 255 0 0 255 0 0 255 0 0 255 0 0 255 0 0 255 0 0 255 0 0 255 0 0 255 0 0 255 0 0 255 0 0 255 0 0 255 0 0 255 0 0 255 0 0 255 0 0 255 0 0 255 0 0 255 0 0 255 0 0 255 0 0 255 0 0 255 0 0 255 0 0 255 0 0 255 0 0 255 0 0 255 0 0 255 1 0 254 34 0 221 63 0 192 87 0 168 104 0 151 116 0 139 122 0 133 126 0 129 128 0 127 128 0 127 129 0 126 128 0 127 128 0 127 128 0 127 127 0 128 127 0 128 126 0 129 126 0 129 125 0 130 125 0 130 125 0 130 125 0 130 124 0 131 124 0 131 123 0 132 123 0 132 124 0 131 124 0 131 125 0 130 126 0 129 126 0 129 126 0 129 125 0 130 123 0 132 122 0 133 120 0 135 120 0 135 120 0 135 121 0 134 122 0 133 122 0 133 123 0 132 123 0 132 123 0 132 123 0 132 123 0 132 123 0 132 123 0 132 123 0 132 124 0 131 124 0 131 125 0 130 125 0 130 126 0 129 127 0 128 127 0 128 128 0 127 128 0 127 129 0 126 129 0 126 129 0 126 129 0 126 128 0 127 128 0 127 129 0 126 130 0 125 134 0 121 142 0 113 
67 0 188 109 0 146 118 0 137 119 0 136 120 0 135 120 0 135 120 0 135 121 0 134 121 0 134 121 0 134 121 0 134 121 0 134 121 0 134 121 0 134 121 0 134 121 0 134 122 0 133 122 0 133 123 0 132 124 0 131 125 0 130 126 0 129 126 0 129 126 0 129 126 0 129 125 0 130 124 0 131 123 0 132 122 0 133 121 0 134 122 0 133 122 0 133 123 0 132 124 0 131 125 0 130 126 0 129 126 0 129 127 0 128 126 0 129 126 0 129 125 0 130 124 0 131 123 0 132 122 0 133 122 0 133 122 0 133 123 0 132 124 0 131 124 0 131 125 0 130 126 0 129 127 0 128 127 0 128 127 0 128 127 0 128 126 0 129 125 0 130 124 0 131 123 0 132 122 0 133 120 0 135 116 0 139 109 0 146 98 0 157 82 0 173 59 0 196 32 0 223 1 0 254 0 0 255 0 0 255 0 0 255 0 0 255 0 0 255 0 0 255 0 0 255 0 0 255 0 0 255 0 0 255 0 0 255 0 0 255 0 0 255 0 0 255 0 0 255 0 0 255 0 0 255 0 0 255 0 0 255 0 0 255 0 0 255 0 0 255 0 0 255 0 0 255 0 0 255 0 0 255 0 0 255 0 0 255 0 0 255 0 0 255 0 0 255 0 0 255 0 0 255 0 0 255 0 0 255 0 0 255 0 0 255 0 0 255 0 0 255 0 0 255 0 0 255 0 0 255 0 0 255 0 0 255 0 0 255 0 0 255 0 0 255 0 0 255 0 0 255 0 0 255 0 0 255 0 0 255 0 0 255 0 0 255 0 0 255 0 0 255 0 0 255 0 0 255 0 0 255 0 0 255 0 0 255 0 0 255 0 0 255 0 0 255 1 0 254 33 0 222 62 0 193 86 0 169 103 0 152 114 0 141 121 0 134 125 0 130 127 0 128 128 0 127 128 0 127 128 0 127 128 0 127 128 0 127 127 0 128 126 0 129 125 0 130 125 0 130 125 0 130 125 0 130 125 0 130 125 0 130 125 0 130 124 0 131 124 0 131 123 0 132 123 0 132 124 0 131 125 0 130 125 0 130 126 0 129 125 0 130 124 0 131 122 0 133 121 0 134 120 0 135 120 0 135 120 0 135 121 0 134 122 0 133 123 0 132 123 0 132 123 0 132 123 0 132 122 0 133 122 0 133 122 0 133 122 0 133 123 0 132 123 0 132 124 0 131 124 0 131 125 0 130 126 0 129 127 0 128 127 0 128 128 0 127 128 0 127 128 0 127 128 0 127 128 0 127 128 0 127 128 0 127 128 0 127 128 0 127 129 0 126 128 0 127 111 0 144 
117 0 138 115 0 140 118 0 137 119 0 136 120 0 135 120 0 135 120 0 135 121 0 134 121 0 134 121 0 134 121 0 134 121 0 134 121 0 134 121 0 134 121 0 134 121 0 134 122 0 133 123 0 132 124 0 131 125 0 130 126 0 129 127 0 128 127 0 128 127 0 128 126 0 129 125 0 130 124 0 131 122 0 133 121 0 134 120 0 135 120 0 135 121 0 134 122 0 133 123 0 132 124 0 131 125 0 130 125 0 130 126 0 129 126 0 129 126 0 129 125 0 130 125 0 130 124 0 131 124 0 131 124 0 131 124 0 131 125 0 130 125 0 130 126 0 129 127 0 128 128 0 127 128 0 127 128 0 127 128 0 127 127 0 128 126 0 129 125 0 130 123 0 132 122 0 133 121 0 134 118 0 137 114 0 141 108 0 147 97 0 158 81 0 174 59 0 196 31 0 224 1 0 254 0 0 255 0 0 255 0 0 255 0 0 255 0 0 255 0 0 255 0 0 255 0 0 255 0 0 255 0 0 255 0 0 255 0 0 255 0 0 255 0 0 255 0 0 255 0 0 255 0 0 255 0 0 255 0 0 255 0 0 255 0 0 255 0 0 255 0 0 255 0 0 255 0 0 255 0 0 255 0 0 255 0 0 255 0 0 255 0 0 255 0 0 255 0 0 255 0 0 255 0 0 255 0 0 255 0 0 255 0 0 255 0 0 255 0 0 255 0 0 255 0 0 255 0 0 255 0 0 255 0 0 255 0 0 255 0 0 255 0 0 255 0 0 255 0 0 255 0 0 255 0 0 255 0 0 255 0 0 255 0 0 255 0 0 255 0 0 255 0 0 255 0 0 255 0 0 255 0 0 255 0 0 255 0 0 255 0 0 255 0 0 255 1 0 254 33 0 222 61 0 194 84 0 171 101 0 154 113 0 142 120 0 135 124 0 131 126 0 129 127 0 128 128 0 127 128 0 127 128 0 127 128 0 127 127 0 128 126 0 129 125 0 130 124 0 131 125 0 130 125 0 130 125 0 130 126 0 129 126 0 129 125 0 130 124 0 131 124 0 131 124 0 131 124 0 131 124 0 131 125 0 130 125 0 130 124 0 131 123 0 132 122 0 133 121 0 134 121 0 134 121 0 134 121 0 134 122 0 133 123 0 132 124 0 131 124 0 131 124 0 131 123 0 132 123 0 132 122 0 133 122 0 133 122 0 133 123 0 132 123 0 132 124 0 131 124 0 131 125 0 130 126 0 129 126 0 129 127 0 128 127 0 128 127 0 128 128 0 127 127 0 128 127 0 128 127 0 128 127 0 128 127 0 128 129 0 126 131 0 124 137 0 118 149 0 106 
86 0 169 117 0 138 122 0 133 122 0 133 121 0 134 120 0 135 120 0 135 121 0 134 121 0 134 121 0 134 121 0 134 121 0 134 121 0 134 121 0 134 121 0 134 122 0 133 122 0 133 123 0 132 124 0 131 126 0 129 127 0 128 128 0 127 128 0 127 128 0 127 128 0 127 126 0 129 125 0 130 123 0 132 121 0 134 120 0 135 120 0 135 120 0 135 120 0 135 121 0 134 122 0 133 123 0 132 124 0 131 125 0 130 126 0 129 126 0 129 126 0 129 126 0 129 125 0 130 125 0 130 125 0 130 125 0 130 126 0 129 126 0 129 127 0 128 128 0 127 128 0 127 129 0 126 129 0 126 128 0 127 127 0 128 126 0 129 124 0 131 123 0 132 122 0 133 120 0 135 117 0 138 113 0 142 106 0 149 95 0 160 80 0 175 58 0 197 31 0 224 1 0 254 0 0 255 0 0 255 0 0 255 0 0 255 0 0 255 0 0 255 0 0 255 0 0 255 0 0 255 0 0 255 0 0 255 0 0 255 0 0 255 0 0 255 0 0 255 0 0 255 0 0 255 0 0 255 0 0 255 0 0 255 0 0 255 0 0 255 0 0 255 0 0 255 0 0 255 0 0 255 0 0 255 0 0 255 0 0 255 0 0 255 0 0 255 0 0 255 0 0 255 0 0 255 0 0 255 0 0 255 0 0 255 0 0 255 0 0 255 0 0 255 0 0 255 0 0 255 0 0 255 0 0 255 0 0 255 0 0 255 0 0 255 0 0 255 0 0 255 0 0 255 0 0 255 0 0 255 0 0 255 0 0 255 0 0 255 0 0 255 0 0 255 0 0 255 0 0 255 0 0 255 0 0 255 0 0 255 0 0 255 0 0 255 1 0 254 32 0 223 60 0 195 83 0 172 100 0 155 111 0 144 118 0 137 122 0 133 124 0 131 126 0 129 127 0 128 127 0 128 128 0 127 127 0 128 126 0 129 125 0 130 124 0 131 124 0 131 124 0 131 125 0 130 126 0 129 127 0 128 127 0 128 126 0 129 125 0 130 124 0 131 124 0 131 124 0 131 124 0 131 124 0 131 124 0 131 124 0 131 123 0 132 123 0 132 122 0 133 122 0 133 122 0 133 123 0 132 124 0 131 125 0 130 125 0 130 125 0 130 125 0 130 124 0 131 124 0 131 123 0 132 123 0 132 123 0 132 123 0 132 124 0 131 124 0 131 125 0 130 125 0 130 126 0 129 126 0 129 127 0 128 127 0 128 127 0 128 127 0 128 127 0 128 127 0 128 127 0 128 127 0 128 127 0 128 128 0 127 132 0 123 141 0 114 168 0 87 
184 0 71 145 0 110 132 0 123 125 0 130 122 0 133 121 0 134 121 0 134 121 0 134 121 0 134 121 0 134 121 0 134 121 0 134 121 0 134 122 0 133 122 0 133 123 0 132 123 0 132 124 0 131 126 0 129 127 0 128 128 0 127 130 0 125 130 0 125 130 0 125 130 0 125 128 0 127 126 0 129 124 0 131 122 0 133 121 0 134 120 0 135 119 0 136 120 0 135 120 0 135 121 0 134 122 0 133 123 0 132 124 0 131 125 0 130 126 0 129 126 0 129 126 0 129 126 0 129 125 0 130 125 0 130 125 0 130 126 0 129 127 0 128 127 0 128 128 0 127 129 0 126 129 0 126 129 0 126 128 0 127 127 0 128 126 0 129 124 0 131 123 0 132 121 0 134 119 0 136 117 0 138 112 0 143 105 0 150 95 0 160 79 0 176 58 0 197 31 0 224 1 0 254 0 0 255 0 0 255 0 0 255 0 0 255 0 0 255 0 0 255 0 0 255 0 0 255 0 0 255 0 0 255 0 0 255 0 0 255 0 0 255 0 0 255 0 0 255 0 0 255 0 0 255 0 0 255 0 0 255 0 0 255 0 0 255 0 0 255 0 0 255 0 0 255 0 0 255 0 0 255 0 0 255 0 0 255 0 0 255 0 0 255 0 0 255 0 0 255 0 0 255 0 0 255 0 0 255 0 0 255 0 0 255 0 0 255 0 0 255 0 0 255 0 0 255 0 0 255 0 0 255 0 0 255 0 0 255 0 0 255 0 0 255 0 0 255 0 0 255 0 0 255 0 0 255 0 0 255 0 0 255 0 0 255 0 0 255 0 0 255 0 0 255 0 0 255 0 0 255 0 0 255 0 0 255 0 0 255 0 0 255 0 0 255 1 0 254 32 0 223 60 0 195 82 0 173 98 0 157 109 0 146 116 0 139 120 0 135 122 0 133 124 0 131 125 0 130 126 0 129 127 0 128 126 0 129 126 0 129 125 0 130 124 0 131 124 0 131 124 0 131 126 0 129 127 0 128 128 0 127 128 0 127 128 0 127 127 0 128 126 0 129 125 0 130 124 0 131 124 0 131 124 0 131 124 0 131 124 0 131 124 0 131 124 0 131 124 0 131 124 0 131 125 0 130 125 0 130 127 0 128 127 0 128 128 0 127 128 0 127 127 0 128 126 0 129 125 0 130 125 0 130 124 0 131 124 0 131 124 0 131 124 0 131 125 0 130 125 0 130 126 0 129 126 0 129 126 0 129 126 0 129 126 0 129 125 0 130 125 0 130 125 0 130 126 0 129 126 0 129 126 0 129 126 0 129 126 0 129 127 0 128 129 0 126 134 0 121 
166 0 89 148 0 107 135 0 120 128 0 127 124 0 131 122 0 133 121 0 134 121 0 134 122 0 133 122 0 133 122 0 133 122 0 133 122 0 133 123 0 132 123 0 132 124 0 131 125 0 130 126 0 129 127 0 128 129 0 126 130 0 125 132 0 123 132 0 123 132 0 123 132 0 123 130 0 125 128 0 127 126 0 129 124 0 131 122 0 133 120 0 135 119 0 136 119 0 136 120 0 135 120 0 135 121 0 134 123 0 132 124 0 131 125 0 130 126 0 129 126 0 129 126 0 129 126 0 129 125 0 130 125 0 130 125 0 130 126 0 129 126 0 129 127 0 128 128 0 127 128 0 127 128 0 127 128 0 127 128 0 127 127 0 128 126 0 129 124 0 131 123 0 132 121 0 134 119 0 136 116 0 139 112 0 143 105 0 150 95 0 160 79 0 176 58 0 197 31 0 224 1 0 254 0 0 255 0 0 255 0 0 255 0 0 255 0 0 255 0 0 255 0 0 255 0 0 255 0 0 255 0 0 255 0 0 255 0 0 255 0 0 255 0 0 255 0 0 255 0 0 255 0 0 255 0 0 255 0 0 255 0 0 255 0 0 255 0 0 255 0 0 255 0 0 255 0 0 255 0 0 255 0 0 255 0 0 255 0 0 255 0 0 255 0 0 255 0 0 255 0 0 255 0 0 255 0 0 255 0 0 255 0 0 255 0 0 255 0 0 255 0 0 255 0 0 255 0 0 255 0 0 255 0 0 255 0 0 255 0 0 255 0 0 255 0 0 255 0 0 255 0 0 255 0 0 255 0 0 255 0 0 255 0 0 255 0 0 255 0 0 255 0 0 255 0 0 255 0 0 255 0 0 255 0 0 255 0 0 255 0 0 255 0 0 255 1 0 254 32 0 223 59 0 196 81 0 174 97 0 158 107 0 148 114 0 141 118 0 137 120 0 135 122 0 133 123 0 132 125 0 130 125 0 130 125 0 130 125 0 130 124 0 131 123 0 132 123 0 132 124 0 131 126 0 129 128 0 127 129 0 126 129 0 126 129 0 126 128 0 127 127 0 128 126 0 129 125 0 130 124 0 131 124 0 131 125 0 130 125 0 130 125 0 130 125 0 130 126 0 129 126 0 129 127 0 128 128 0 127 129 0 126 130 0 125 130 0 125 130 0 125 129 0 126 128 0 127 127 0 128 126 0 129 126 0 129 125 0 130 125 0 130 125 0 130 125 0 130 126 0 129 126 0 129 126 0 129 126 0 129 125 0 130 124 0 131 124 0 131 124 0 131 124 0 131 124 0 131 125 0 130 125 0 130 125 0 130 124 0 131 121 0 134 113 0 142 78 0 177 
169 0 86 148 0 107 135 0 120 128 0 127 124 0 131 122 0 133 121 0 134 122 0 133 122 0 133 123 0 132 124 0 131 124 0 131 124 0 131 124 0 131 125 0 130 126 0 129 127 0 128 128 0 127 129 0 126 131 0 124 132 0 123 133 0 122 134 0 121 134 0 121 134 0 121 132 0 123 130 0 125 128 0 127 125 0 130 123 0 132 121 0 134 120 0 135 119 0 136 119 0 136 120 0 135 121 0 134 123 0 132 124 0 131 125 0 130 126 0 129 126 0 129 126 0 129 125 0 130 125 0 130 125 0 130 125 0 130 125 0 130 126 0 129 126 0 129 127 0 128 127 0 128 128 0 127 127 0 128 127 0 128 126 0 129 125 0 130 124 0 131 122 0 133 121 0 134 119 0 136 116 0 139 112 0 143 106 0 149 96 0 159 81 0 174 60 0 195 32 0 223 1 0 254 0 0 255 0 0 255 0 0 255 0 0 255 0 0 255 0 0 255 0 0 255 0 0 255 0 0 255 0 0 255 0 0 255 0 0 255 0 0 255 0 0 255 0 0 255 0 0 255 0 0 255 0 0 255 0 0 255 0 0 255 0 0 255 0 0 255 0 0 255 0 0 255 0 0 255 0 0 255 0 0 255 0 0 255 0 0 255 0 0 255 0 0 255 0 0 255 0 0 255 0 0 255 0 0 255 0 0 255 0 0 255 0 0 255 0 0 255 0 0 255 0 0 255 0 0 255 0 0 255 0 0 255 0 0 255 0 0 255 0 0 255 0 0 255 0 0 255 0 0 255 0 0 255 0 0 255 0 0 255 0 0 255 0 0 255 0 0 255 0 0 255 0 0 255 0 0 255 0 0 255 0 0 255 0 0 255 0 0 255 0 0 255 1 0 254 32 0 223 60 0 195 81 0 174 97 0 158 106 0 149 112 0 143 116 0 139 118 0 137 120 0 135 122 0 133 123 0 132 123 0 132 124 0 131 123 0 132 123 0 132 122 0 133 123 0 132 124 0 131 126 0 129 128 0 127 130 0 125 131 0 124 130 0 125 130 0 125 128 0 127 127 0 128 126 0 129 125 0 130 125 0 130 125 0 130 126 0 129 126 0 129 127 0 128 127 0 128 128 0 127 129 0 126 130 0 125 131 0 124 132 0 123 132 0 123 132 0 123 131 0 124 129 0 126 128 0 127 127 0 128 127 0 128 126 0 129 126 0 129 126 0 129 126 0 129 126 0 129 126 0 129 126 0 129 125 0 130 124 0 131 123 0 132 122 0 133 122 0 133 122 0 133 123 0 132 123 0 132 124 0 131 124 0 131 123 0 132 121 0 134 122 0 133 144 0 111 
166 0 89 141 0 114 132 0 123 126 0 129 123 0 132 122 0 133 122 0 133 122 0 133 123 0 132 124 0 131 125 0 130 126 0 129 126 0 129 126 0 129 127 0 128 127 0 128 128 0 127 130 0 125 131 0 124 132 0 123 133 0 122 135 0 120 135 0 120 135 0 120 135 0 120 134 0 121 132 0 123 129 0 126 127 0 128 124 0 131 122 0 133 120 0 135 119 0 136 119 0 136 120 0 135 121 0 134 122 0 133 124 0 131 125 0 130 125 0 130 125 0 130 125 0 130 125 0 130 124 0 131 124 0 131 124 0 131 124 0 131 125 0 130 125 0 130 126 0 129 126 0 129 127 0 128 126 0 129 126 0 129 125 0 130 124 0 131 123 0 132 122 0 133 120 0 135 119 0 136 117 0 138 113 0 142 108 0 147 98 0 157 84 0 171 63 0 192 34 0 221 1 0 254 0 0 255 0 0 255 0 0 255 0 0 255 0 0 255 0 0 255 0 0 255 0 0 255 0 0 255 0 0 255 0 0 255 0 0 255 0 0 255 0 0 255 0 0 255 0 0 255 0 0 255 0 0 255 0 0 255 0 0 255 0 0 255 0 0 255 0 0 255 0 0 255 0 0 255 0 0 255 0 0 255 0 0 255 0 0 255 0 0 255 0 0 255 0 0 255 0 0 255 0 0 255 0 0 255 0 0 255 0 0 255 0 0 255 0 0 255 0 0 255 0 0 255 0 0 255 0 0 255 0 0 255 0 0 255 0 0 255 0 0 255 0 0 255 0 0 255 0 0 255 0 0 255 0 0 255 0 0 255 0 0 255 0 0 255 0 0 255 0 0 255 0 0 255 0 0 255 0 0 255 0 0 255 0 0 255 0 0 255 0 0 255 1 0 254 34 0 221 62 0 193 83 0 172 97 0 158 107 0 148 112 0 143 115 0 140 117 0 138 119 0 136 120 0 135 121 0 134 122 0 133 122 0 133 122 0 133 122 0 133 122 0 133 122 0 133 124 0 131 126 0 129 128 0 127 130 0 125 132 0 123 132 0 123 131 0 124 130 0 125 128 0 127 127 0 128 126 0 129 126 0 129 126 0 129 127 0 128 128 0 127 128 0 127 129 0 126 130 0 125 131 0 124 132 0 123 133 0 122 133 0 122 133 0 122 133 0 122 132 0 123 130 0 125 129 0 126 128 0 127 127 0 128 126 0 129 126 0 129 126 0 129 126 0 129 126 0 129 126 0 129 125 0 130 124 0 131 123 0 132 121 0 134 120 0 135 120 0 135 120 0 135 121 0 134 122 0 133 123 0 132 123 0 132 121 0 134 118 0 137 110 0 145 81 0 174 
68 0 187 118 0 137 125 0 130 124 0 131 123 0 132 122 0 133 122 0 133 123 0 132 124 0 131 126 0 129 127 0 128 127 0 128 127 0 128 128 0 127 128 0 127 129 0 126 130 0 125 131 0 124 132 0 123 133 0 122 134 0 121 135 0 120 136 0 119 136 0 119 135 0 120 134 0 121 132 0 123 130 0 125 127 0 128 124 0 131 122 0 133 120 0 135 119 0 136 119 0 136 120 0 135 121 0 134 122 0 133 124 0 131 124 0 131 125 0 130 125 0 130 124 0 131 124 0 131 124 0 131 123 0 132 123 0 132 124 0 131 124 0 131 125 0 130 125 0 130 125 0 130 125 0 130 125 0 130 125 0 130 124 0 131 123 0 132 122 0 133 121 0 134 120 0 135 119 0 136 117 0 138 115 0 140 110 0 145 102 0 153 88 0 167 68 0 187 39 0 216 2 0 253 0 0 255 0 0 255 0 0 255 0 0 255 0 0 255 0 0 255 0 0 255 0 0 255 0 0 255 0 0 255 0 0 255 0 0 255 0 0 255 0 0 255 0 0 255 0 0 255 0 0 255 0 0 255 0 0 255 0 0 255 0 0 255 0 0 255 0 0 255 0 0 255 0 0 255 0 0 255 0 0 255 0 0 255 0 0 255 0 0 255 0 0 255 0 0 255 0 0 255 0 0 255 0 0 255 0 0 255 0 0 255 0 0 255 0 0 255 0 0 255 0 0 255 0 0 255 0 0 255 0 0 255 0 0 255 0 0 255 0 0 255 0 0 255 0 0 255 0 0 255 0 0 255 0 0 255 0 0 255 0 0 255 0 0 255 0 0 255 0 0 255 0 0 255 0 0 255 0 0 255 0 0 255 0 0 255 0 0 255 0 0 255 2 0 253 38 0 217 66 0 189 86 0 169 100 0 155 108 0 147 113 0 142 115 0 140 117 0 138 119 0 136 120 0 135 121 0 134 122 0 133 122 0 133 121 0 134 121 0 134 121 0 134 122 0 133 124 0 131 126 0 129 129 0 126 131 0 124 132 0 123 133 0 122 132 0 123 131 0 124 130 0 125 128 0 127 128 0 127 127 0 128 127 0 128 128 0 127 128 0 127 129 0 126 130 0 125 131 0 124 132 0 123 133 0 122 134 0 121 134 0 121 134 0 121 133 0 122 132 0 123 130 0 125 129 0 126 128 0 127 127 0 128 126 0 129 126 0 129 126 0 129 126 0 129 126 0 129 125 0 130 125 0 130 123 0 132 121 0 134 120 0 135 118 0 137 118 0 137 118 0 137 119 0 136 121 0 134 122 0 133 122 0 133 121 0 134 119 0 136 120 0 135 141 0 114 
179 0 76 137 0 118 128 0 127 125 0 130 123 0 132 122 0 133 122 0 133 123 0 132 125 0 130 127 0 128 128 0 127 128 0 127 129 0 126 129 0 126 130 0 125 131 0 124 132 0 123 132 0 123 133 0 122 134 0 121 135 0 120 135 0 120 136 0 119 136 0 119 135 0 120 134 0 121 132 0 123 130 0 125 127 0 128 125 0 130 122 0 133 121 0 134 120 0 135 119 0 136 120 0 135 121 0 134 122 0 133 124 0 131 124 0 131 125 0 130 125 0 130 124 0 131 124 0 131 123 0 132 123 0 132 123 0 132 124 0 131 124 0 131 124 0 131 125 0 130 125 0 130 124 0 131 124 0 131 124 0 131 123 0 132 122 0 133 121 0 134 120 0 135 119 0 136 119 0 136 118 0 137 116 0 139 113 0 142 106 0 149 95 0 160 76 0 179 49 0 206 4 0 251 2 0 253 1 0 254 1 0 254 1 0 254 1 0 254 1 0 254 1 0 254 1 0 254 1 0 254 1 0 254 1 0 254 1 0 254 1 0 254 1 0 254 1 0 254 1 0 254 1 0 254 1 0 254 1 0 254 1 0 254 1 0 254 1 0 254 1 0 254 1 0 254 1 0 254 1 0 254 1 0 254 1 0 254 1 0 254 1 0 254 1 0 254 1 0 254 1 0 254 1 0 254 1 0 254 1 0 254 1 0 254 1 0 254 1 0 254 1 0 254 1 0 254 1 0 254 1 0 254 1 0 254 1 0 254 1 0 254 1 0 254 1 0 254 1 0 254 1 0 254 1 0 254 1 0 254 1 0 254 1 0 254 1 0 254 1 0 254 1 0 254 1 0 254 1 0 254 1 0 254 1 0 254 1 0 254 1 0 254 2 0 253 4 0 251 47 0 208 74 0 181 92 0 163 103 0 152 110 0 145 114 0 141 116 0 139 118 0 137 119 0 136 120 0 135 121 0 134 122 0 133 122 0 133 121 0 134 121 0 134 121 0 134 122 0 133 123 0 132 126 0 129 129 0 126 131 0 124 133 0 122 134 0 121 133 0 122 132 0 123 131 0 124 130 0 125 129 0 126 128 0 127 128 0 127 128 0 127 129 0 126 129 0 126 130 0 125 131 0 124 132 0 123 133 0 122 133 0 122 134 0 121 133 0 122 132 0 123 131 0 124 130 0 125 128 0 127 127 0 128 126 0 129 125 0 130 125 0 130 125 0 130 125 0 130 125 0 130 125 0 130 124 0 131 122 0 133 120 0 135 118 0 137 117 0 138 117 0 138 117 0 138 118 0 137 120 0 135 121 0 134 121 0 134 119 0 136 115 0 140 107 0 148 88 0 167 
89 0 166 125 0 130 128 0 127 125 0 130 123 0 132 122 0 133 122 0 133 124 0 131 126 0 129 127 0 128 129 0 126 130 0 125 130 0 125 131 0 124 131 0 124 132 0 123 133 0 122 133 0 122 134 0 121 134 0 121 134 0 121 135 0 120 135 0 120 135 0 120 134 0 121 133 0 122 131 0 124 129 0 126 127 0 128 125 0 130 122 0 133 121 0 134 120 0 135 120 0 135 120 0 135 121 0 134 123 0 132 124 0 131 125 0 130 125 0 130 125 0 130 125 0 130 124 0 131 124 0 131 124 0 131 124 0 131 124 0 131 124 0 131 125 0 130 124 0 131 124 0 131 124 0 131 123 0 132 122 0 133 121 0 134 121 0 134 120 0 135 119 0 136 119 0 136 119 0 136 118 0 137 118 0 137 116 0 139 111 0 144 103 0 152 89 0 166 71 0 184 50 0 205 40 0 215 36 0 219 34 0 221 34 0 221 33 0 222 33 0 222 33 0 222 33 0 222 33 0 222 33 0 222 33 0 222 33 0 222 33 0 222 33 0 222 34 0 221 34 0 221 35 0 220 35 0 220 35 0 220 35 0 220 34 0 221 34 0 221 33 0 222 33 0 222 32 0 223 32 0 223 32 0 223 32 0 223 32 0 223 32 0 223 32 0 223 32 0 223 33 0 222 33 0 222 32 0 223 32 0 223 32 0 223 32 0 223 32 0 223 32 0 223 32 0 223 33 0 222 33 0 222 33 0 222 33 0 222 33 0 222 33 0 222 33 0 222 33 0 222 33 0 222 33 0 222 33 0 222 33 0 222 33 0 222 33 0 222 32 0 223 32 0 223 32 0 223 32 0 223 32 0 223 33 0 222 34 0 221 36 0 219 39 0 216 48 0 207 68 0 187 86 0 169 99 0 156 108 0 147 113 0 142 116 0 139 118 0 137 119 0 136 120 0 135 121 0 134 122 0 133 123 0 132 122 0 133 122 0 133 121 0 134 121 0 134 122 0 133 123 0 132 126 0 129 129 0 126 131 0 124 133 0 122 134 0 121 134 0 121 133 0 122 132 0 123 130 0 125 129 0 126 128 0 127 128 0 127 128 0 127 129 0 126 129 0 126 130 0 125 131 0 124 132 0 123 132 0 123 133 0 122 133 0 122 132 0 123 131 0 124 130 0 125 129 0 126 127 0 128 126 0 129 125 0 130 125 0 130 124 0 131 124 0 131 125 0 130 125 0 130 124 0 131 123 0 132 122 0 133 120 0 135 118 0 137 116 0 139 116 0 139 117 0 138 118 0 137 119 0 136 120 0 135 121 0 134 119 0 136 116 0 139 106 0 149 78 0 177 
188 0 67 147 0 108 133 0 122 127 0 128 123 0 132 122 0 133 123 0 132 124 0 131 126 0 129 128 0 127 129 0 126 131 0 124 131 0 124 132 0 123 132 0 123 133 0 122 133 0 122 134 0 121 134 0 121 134 0 121 134 0 121 134 0 121 134 0 121 133 0 122 132 0 123 131 0 124 130 0 125 128 0 127 126 0 129 124 0 131 123 0 132 121 0 134 121 0 134 120 0 135 121 0 134 122 0 133 123 0 132 124 0 131 125 0 130 126 0 129 126 0 129 126 0 129 126 0 129 125 0 130 125 0 130 126 0 129 126 0 129 126 0 129 125 0 130 125 0 130 124 0 131 123 0 132 122 0 133 121 0 134 120 0 135 120 0 135 119 0 136 118 0 137 118 0 137 118 0 137 119 0 136 119 0 136 118 0 137 116 0 139 111 0 144 102 0 153 91 0 164 79 0 176 71 0 184 66 0 189 64 0 191 62 0 193 62 0 193 61 0 194 61 0 194 61 0 194 61 0 194 61 0 194 61 0 194 61 0 194 61 0 194 62 0 193 62 0 193 63 0 192 64 0 191 65 0 190 65 0 190 65 0 190 64 0 191 63 0 192 62 0 193 61 0 194 60 0 195 60 0 195 60 0 195 60 0 195 60 0 195 60 0 195 61 0 194 61 0 194 61 0 194 61 0 194 61 0 194 60 0 195 60 0 195 60 0 195 60 0 195 60 0 195 61 0 194 61 0 194 61 0 194 62 0 193 62 0 193 62 0 193 62 0 193 62 0 193 62 0 193 62 0 193 62 0 193 62 0 193 62 0 193 61 0 194 61 0 194 60 0 195 60 0 195 59 0 196 59 0 196 60 0 195 61 0 194 62 0 193 65 0 190 69 0 186 76 0 179 88 0 167 99 0 156 107 0 148 113 0 142 117 0 138 119 0 136 120 0 135 121 0 134 122 0 133 123 0 132 123 0 132 124 0 131 123 0 132 122 0 133 122 0 133 121 0 134 122 0 133 123 0 132 126 0 129 128 0 127 131 0 124 133 0 122 134 0 121 134 0 121 134 0 121 132 0 123 131 0 124 130 0 125 128 0 127 128 0 127 128 0 127 128 0 127 129 0 126 129 0 126 130 0 125 131 0 124 132 0 123 132 0 123 132 0 123 131 0 124 130 0 125 129 0 126 128 0 127 126 0 129 125 0 130 125 0 130 124 0 131 124 0 131 124 0 131 124 0 131 124 0 131 124 0 131 123 0 132 121 0 134 119 0 136 118 0 137 116 0 139 116 0 139 117 0 138 118 0 137 120 0 135 121 0 134 121 0 134 121 0 134 121 0 134 124 0 131 136 0 119 
163 0 92 144 0 111 133 0 122 126 0 129 123 0 132 122 0 133 123 0 132 124 0 131 127 0 128 129 0 126 130 0 125 131 0 124 132 0 123 133 0 122 133 0 122 134 0 121 134 0 121 134 0 121 134 0 121 133 0 122 133 0 122 132 0 123 132 0 123 131 0 124 130 0 125 129 0 126 128 0 127 127 0 128 125 0 130 124 0 131 123 0 132 122 0 133 121 0 134 121 0 134 121 0 134 122 0 133 124 0 131 125 0 130 126 0 129 127 0 128 127 0 128 127 0 128 127 0 128 127 0 128 128 0 127 127 0 128 127 0 128 127 0 128 127 0 128 126 0 129 125 0 130 123 0 132 122 0 133 121 0 134 120 0 135 119 0 136 118 0 137 118 0 137 118 0 137 118 0 137 119 0 136 120 0 135 120 0 135 119 0 136 117 0 138 112 0 143 105 0 150 98 0 157 93 0 162 89 0 166 86 0 169 85 0 170 84 0 171 84 0 171 84 0 171 84 0 171 84 0 171 84 0 171 84 0 171 84 0 171 84 0 171 85 0 170 85 0 170 87 0 168 88 0 167 89 0 166 89 0 166 89 0 166 88 0 167 86 0 169 85 0 170 84 0 171 83 0 172 82 0 173 82 0 173 83 0 172 83 0 172 84 0 171 84 0 171 84 0 171 84 0 171 84 0 171 84 0 171 83 0 172 83 0 172 83 0 172 83 0 172 83 0 172 84 0 171 84 0 171 85 0 170 85 0 170 85 0 170 85 0 170 85 0 170 85 0 170 85 0 170 85 0 170 85 0 170 85 0 170 85 0 170 84 0 171 83 0 172 83 0 172 82 0 173 82 0 173 82 0 173 82 0 173 83 0 172 85 0 170 87 0 168 91 0 164 96 0 159 103 0 152 109 0 146 114 0 141 117 0 138 120 0 135 121 0 134 122 0 133 122 0 133 123 0 132 124 0 131 124 0 131 124 0 131 124 0 131 123 0 132 122 0 133 122 0 133 122 0 133 123 0 132 125 0 130 128 0 127 130 0 125 132 0 123 134 0 121 134 0 121 133 0 122 132 0 123 131 0 124 129 0 126 128 0 127 127 0 128 127 0 128 127 0 128 128 0 127 129 0 126 129 0 126 130 0 125 131 0 124 131 0 124 130 0 125 130 0 125 129 0 126 127 0 128 126 0 129 126 0 129 125 0 130 124 0 131 124 0 131 124 0 131 124 0 131 124 0 131 124 0 131 123 0 132 122 0 133 121 0 134 119 0 136 118 0 137 117 0 138 117 0 138 118 0 137 119 0 136 120 0 135 121 0 134 122 0 133 122 0 133 124 0 131 131 0 124 168 0 87 
128 0 127 133 0 122 128 0 127 124 0 131 122 0 133 122 0 133 123 0 132 125 0 130 127 0 128 129 0 126 131 0 124 132 0 123 133 0 122 134 0 121 134 0 121 134 0 121 134 0 121 134 0 121 133 0 122 132 0 123 132 0 123 131 0 124 130 0 125 129 0 126 128 0 127 127 0 128 126 0 129 125 0 130 125 0 130 124 0 131 123 0 132 123 0 132 122 0 133 122 0 133 122 0 133 123 0 132 125 0 130 126 0 129 127 0 128 128 0 127 129 0 126 129 0 126 129 0 126 129 0 126 129 0 126 129 0 126 129 0 126 128 0 127 128 0 127 127 0 128 125 0 130 124 0 131 123 0 132 121 0 134 120 0 135 119 0 136 119 0 136 118 0 137 118 0 137 118 0 137 119 0 136 120 0 135 121 0 134 121 0 134 120 0 135 118 0 137 115 0 140 111 0 144 107 0 148 104 0 151 102 0 153 101 0 154 101 0 154 101 0 154 101 0 154 101 0 154 101 0 154 101 0 154 101 0 154 100 0 155 100 0 155 101 0 154 102 0 153 103 0 152 104 0 151 105 0 150 106 0 149 105 0 150 105 0 150 103 0 152 102 0 153 100 0 155 100 0 155 99 0 156 99 0 156 100 0 155 100 0 155 101 0 154 101 0 154 101 0 154 101 0 154 101 0 154 101 0 154 100 0 155 100 0 155 100 0 155 100 0 155 101 0 154 101 0 154 102 0 153 103 0 152 103 0 152 103 0 152 103 0 152 102 0 153 102 0 153 102 0 153 102 0 153 102 0 153 102 0 153 101 0 154 101 0 154 100 0 155 99 0 156 98 0 157 98 0 157 98 0 157 99 0 156 100 0 155 101 0 154 104 0 151 106 0 149 109 0 146 113 0 142 116 0 139 119 0 136 121 0 134 122 0 133 122 0 133 123 0 132 123 0 132 124 0 131 124 0 131 125 0 130 125 0 130 124 0 131 123 0 132 122 0 133 122 0 133 122 0 133 123 0 132 124 0 131 127 0 128 129 0 126 131 0 124 132 0 123 133 0 122 132 0 123 131 0 124 130 0 125 129 0 126 127 0 128 127 0 128 126 0 129 126 0 129 127 0 128 128 0 127 129 0 126 129 0 126 130 0 125 130 0 125 129 0 126 128 0 127 127 0 128 126 0 129 126 0 129 125 0 130 125 0 130 124 0 131 124 0 131 124 0 131 124 0 131 124 0 131 124 0 131 123 0 132 122 0 133 121 0 134 120 0 135 119 0 136 118 0 137 119 0 136 119 0 136 120 0 135 121 0 134 122 0 133 122 0 133 122 0 133 120 0 135 110 0 145 60 0 195 
181 0 74 133 0 122 123 0 132 121 0 134 121 0 134 122 0 133 124 0 131 126 0 129 128 0 127 130 0 125 132 0 123 133 0 122 134 0 121 134 0 121 134 0 121 134 0 121 133 0 122 133 0 122 132 0 123 131 0 124 130 0 125 129 0 126 128 0 127 127 0 128 126 0 129 125 0 130 125 0 130 124 0 131 124 0 131 124 0 131 123 0 132 123 0 132 123 0 132 123 0 132 123 0 132 124 0 131 125 0 130 127 0 128 128 0 127 129 0 126 130 0 125 131 0 124 131 0 124 131 0 124 131 0 124 131 0 124 130 0 125 130 0 125 129 0 126 128 0 127 126 0 129 125 0 130 124 0 131 122 0 133 121 0 134 120 0 135 119 0 136 119 0 136 118 0 137 118 0 137 119 0 136 119 0 136 121 0 134 122 0 133 122 0 133 121 0 134 120 0 135 118 0 137 116 0 139 114 0 141 112 0 143 112 0 143 112 0 143 112 0 143 112 0 143 112 0 143 112 0 143 112 0 143 112 0 143 111 0 144 111 0 144 111 0 144 112 0 143 113 0 142 114 0 141 115 0 140 116 0 139 116 0 139 115 0 140 114 0 141 113 0 142 111 0 144 111 0 144 111 0 144 111 0 144 112 0 143 112 0 143 113 0 142 113 0 142 113 0 142 113 0 142 113 0 142 112 0 143 112 0 143 111 0 144 111 0 144 112 0 143 113 0 142 113 0 142 114 0 141 115 0 140 115 0 140 115 0 140 114 0 141 113 0 142 113 0 142 113 0 142 112 0 143 113 0 142 112 0 143 112 0 143 111 0 144 110 0 145 109 0 146 108 0 147 108 0 147 108 0 147 109 0 146 110 0 145 112 0 143 114 0 141 115 0 140 117 0 138 119 0 136 120 0 135 122 0 133 122 0 133 123 0 132 123 0 132 123 0 132 123 0 132 124 0 131 124 0 131 124 0 131 124 0 131 124 0 131 123 0 132 122 0 133 122 0 133 121 0 134 122 0 133 124 0 131 126 0 129 128 0 127 130 0 125 131 0 124 131 0 124 131 0 124 130 0 125 129 0 126 128 0 127 127 0 128 126 0 129 126 0 129 126 0 129 127 0 128 128 0 127 128 0 127 129 0 126 129 0 126 129 0 126 128 0 127 127 0 128 126 0 129 125 0 130 125 0 130 125 0 130 125 0 130 125 0 130 125 0 130 125 0 130 125 0 130 125 0 130 124 0 131 124 0 131 123 0 132 122 0 133 121 0 134 120 0 135 120 0 135 120 0 135 121 0 134 122 0 133 122 0 133 122 0 133 122 0 133 123 0 132 124 0 131 130 0 125 151 0 104 
43 0 212 95 0 160 111 0 144 117 0 138 120 0 135 122 0 133 124 0 131 126 0 129 129 0 126 131 0 124 132 0 123 133 0 122 134 0 121 134 0 121 134 0 121 133 0 122 132 0 123 131 0 124 130 0 125 129 0 126 127 0 128 126 0 129 125 0 130 125 0 130 124 0 131 123 0 132 123 0 132 123 0 132 123 0 132 123 0 132 123 0 132 123 0 132 123 0 132 123 0 132 124 0 131 124 0 131 126 0 129 127 0 128 129 0 126 130 0 125 131 0 124 132 0 123 132 0 123 132 0 123 132 0 123 131 0 124 131 0 124 130 0 125 129 0 126 128 0 127 127 0 128 126 0 129 125 0 130 124 0 131 123 0 132 122 0 133 121 0 134 120 0 135 119 0 136 119 0 136 119 0 136 119 0 136 120 0 135 121 0 134 122 0 133 122 0 133 122 0 133 121 0 134 120 0 135 119 0 136 118 0 137 118 0 137 118 0 137 118 0 137 119 0 136 119 0 136 119 0 136 118 0 137 118 0 137 117 0 138 117 0 138 117 0 138 117 0 138 118 0 137 119 0 136 120 0 135 121 0 134 121 0 134 121 0 134 120 0 135 119 0 136 118 0 137 118 0 137 118 0 137 118 0 137 119 0 136 120 0 135 121 0 134 121 0 134 121 0 134 120 0 135 119 0 136 118 0 137 118 0 137 118 0 137 118 0 137 119 0 136 120 0 135 121 0 134 122 0 133 123 0 132 123 0 132 122 0 133 121 0 134 120 0 135 119 0 136 119 0 136 119 0 136 119 0 136 119 0 136 118 0 137 118 0 137 116 0 139 115 0 140 114 0 141 114 0 141 114 0 141 115 0 140 116 0 139 118 0 137 119 0 136 121 0 134 122 0 133 122 0 133 123 0 132 123 0 132 123 0 132 123 0 132 122 0 133 122 0 133 123 0 132 123 0 132 123 0 132 123 0 132 123 0 132 123 0 132 122 0 133 122 0 133 121 0 134 121 0 134 122 0 133 123 0 132 125 0 130 127 0 128 128 0 127 129 0 126 129 0 126 129 0 126 129 0 126 128 0 127 127 0 128 126 0 129 126 0 129 126 0 129 126 0 129 127 0 128 128 0 127 129 0 126 129 0 126 129 0 126 128 0 127 127 0 128 126 0 129 125 0 130 125 0 130 125 0 130 125 0 130 125 0 130 125 0 130 126 0 129 126 0 129 126 0 129 126 0 129 126 0 129 125 0 130 124 0 131 123 0 132 123 0 132 122 0 133 122 0 133 122 0 133 123 0 132 123 0 132 123 0 132 123 0 132 122 0 133 123 0 132 125 0 130 134 0 121 157 0 98 
60 0 195 94 0 161 110 0 145 117 0 138 120 0 135 123 0 132 125 0 130 127 0 128 129 0 126 131 0 124 132 0 123 133 0 122 134 0 121 134 0 121 133 0 122 132 0 123 130 0 125 129 0 126 127 0 128 126 0 129 125 0 130 124 0 131 123 0 132 123 0 132 122 0 133 122 0 133 122 0 133 122 0 133 122 0 133 123 0 132 123 0 132 123 0 132 123 0 132 123 0 132 124 0 131 125 0 130 126 0 129 128 0 127 129 0 126 131 0 124 132 0 123 132 0 123 132 0 123 132 0 123 132 0 123 132 0 123 131 0 124 130 0 125 130 0 125 129 0 126 128 0 127 127 0 128 126 0 129 125 0 130 124 0 131 123 0 132 122 0 133 121 0 134 120 0 135 119 0 136 119 0 136 119 0 136 119 0 136 120 0 135 121 0 134 121 0 134 122 0 133 121 0 134 121 0 134 121 0 134 121 0 134 121 0 134 121 0 134 122 0 133 123 0 132 123 0 132 122 0 133 122 0 133 121 0 134 120 0 135 119 0 136 119 0 136 120 0 135 120 0 135 121 0 134 122 0 133 123 0 132 123 0 132 123 0 132 122 0 133 122 0 133 122 0 133 122 0 133 122 0 133 123 0 132 124 0 131 125 0 130 125 0 130 125 0 130 124 0 131 123 0 132 122 0 133 121 0 134 121 0 134 121 0 134 121 0 134 122 0 133 124 0 131 126 0 129 127 0 128 128 0 127 127 0 128 127 0 128 125 0 130 124 0 131 123 0 132 122 0 133 122 0 133 122 0 133 122 0 133 121 0 134 121 0 134 119 0 136 118 0 137 117 0 138 117 0 138 117 0 138 118 0 137 119 0 136 121 0 134 122 0 133 123 0 132 123 0 132 123 0 132 123 0 132 123 0 132 122 0 133 122 0 133 122 0 133 121 0 134 121 0 134 122 0 133 122 0 133 122 0 133 122 0 133 122 0 133 121 0 134 121 0 134 120 0 135 120 0 135 121 0 134 122 0 133 124 0 131 126 0 129 127 0 128 128 0 127 128 0 127 127 0 128 127 0 128 126 0 129 126 0 129 126 0 129 126 0 129 126 0 129 127 0 128 128 0 127 128 0 127 129 0 126 129 0 126 128 0 127 127 0 128 126 0 129 125 0 130 125 0 130 124 0 131 124 0 131 125 0 130 126 0 129 126 0 129 127 0 128 127 0 128 127 0 128 127 0 128 127 0 128 127 0 128 126 0 129 125 0 130 125 0 130 124 0 131 124 0 131 124 0 131 125 0 130 125 0 130 124 0 131 123 0 132 122 0 133 121 0 134 120 0 135 126 0 129 157 0 98 
102 0 153 113 0 142 117 0 138 120 0 135 122 0 133 124 0 131 126 0 129 128 0 127 130 0 125 131 0 124 132 0 123 133 0 122 133 0 122 133 0 122 132 0 123 130 0 125 128 0 127 126 0 129 125 0 130 123 0 132 123 0 132 122 0 133 121 0 134 121 0 134 121 0 134 121 0 134 121 0 134 121 0 134 121 0 134 122 0 133 122 0 133 122 0 133 122 0 133 123 0 132 123 0 132 124 0 131 126 0 129 127 0 128 129 0 126 131 0 124 132 0 123 132 0 123 133 0 122 132 0 123 132 0 123 131 0 124 131 0 124 130 0 125 130 0 125 129 0 126 129 0 126 128 0 127 127 0 128 126 0 129 125 0 130 124 0 131 123 0 132 122 0 133 121 0 134 120 0 135 119 0 136 119 0 136 119 0 136 119 0 136 120 0 135 120 0 135 120 0 135 121 0 134 121 0 134 121 0 134 122 0 133 122 0 133 123 0 132 124 0 131 124 0 131 125 0 130 124 0 131 123 0 132 122 0 133 122 0 133 121 0 134 120 0 135 120 0 135 121 0 134 122 0 133 122 0 133 123 0 132 123 0 132 123 0 132 123 0 132 123 0 132 123 0 132 124 0 131 125 0 130 126 0 129 127 0 128 127 0 128 127 0 128 127 0 128 126 0 129 124 0 131 123 0 132 122 0 133 121 0 134 122 0 133 122 0 133 124 0 131 126 0 129 128 0 127 130 0 125 130 0 125 130 0 125 129 0 126 127 0 128 126 0 129 124 0 131 124 0 131 123 0 132 123 0 132 123 0 132 123 0 132 122 0 133 121 0 134 119 0 136 118 0 137 117 0 138 117 0 138 118 0 137 120 0 135 121 0 134 122 0 133 123 0 132 123 0 132 123 0 132 123 0 132 122 0 133 122 0 133 121 0 134 121 0 134 120 0 135 120 0 135 120 0 135 120 0 135 121 0 134 121 0 134 121 0 134 120 0 135 120 0 135 120 0 135 120 0 135 121 0 134 122 0 133 124 0 131 125 0 130 126 0 129 126 0 129 126 0 129 126 0 129 126 0 129 125 0 130 125 0 130 125 0 130 126 0 129 126 0 129 127 0 128 128 0 127 129 0 126 129 0 126 129 0 126 128 0 127 127 0 128 126 0 129 125 0 130 124 0 131 124 0 131 125 0 130 126 0 129 127 0 128 127 0 128 128 0 127 129 0 126 129 0 126 129 0 126 129 0 126 128 0 127 128 0 127 127 0 128 127 0 128 127 0 128 126 0 129 126 0 129 126 0 129 126 0 129 125 0 130 124 0 131 121 0 134 118 0 137 110 0 145 92 0 163 27 0 228 
178 0 77 138 0 117 127 0 128 125 0 130 125 0 130 126 0 129 127 0 128 129 0 126 130 0 125 131 0 124 132 0 123 132 0 123 132 0 123 132 0 123 130 0 125 128 0 127 126 0 129 124 0 131 122 0 133 121 0 134 121 0 134 120 0 135 120 0 135 120 0 135 120 0 135 120 0 135 120 0 135 120 0 135 121 0 134 121 0 134 121 0 134 121 0 134 122 0 133 122 0 133 123 0 132 124 0 131 125 0 130 127 0 128 129 0 126 131 0 124 132 0 123 132 0 123 133 0 122 132 0 123 132 0 123 131 0 124 131 0 124 130 0 125 130 0 125 129 0 126 129 0 126 128 0 127 128 0 127 127 0 128 126 0 129 125 0 130 125 0 130 124 0 131 123 0 132 121 0 134 120 0 135 119 0 136 119 0 136 118 0 137 119 0 136 119 0 136 119 0 136 120 0 135 120 0 135 121 0 134 122 0 133 123 0 132 124 0 131 125 0 130 125 0 130 126 0 129 125 0 130 124 0 131 124 0 131 123 0 132 122 0 133 121 0 134 121 0 134 121 0 134 121 0 134 122 0 133 123 0 132 123 0 132 123 0 132 124 0 131 124 0 131 124 0 131 125 0 130 126 0 129 127 0 128 128 0 127 129 0 126 128 0 127 128 0 127 126 0 129 124 0 131 123 0 132 121 0 134 121 0 134 121 0 134 122 0 133 124 0 131 127 0 128 129 0 126 131 0 124 132 0 123 132 0 123 130 0 125 128 0 127 126 0 129 125 0 130 124 0 131 123 0 132 123 0 132 123 0 132 123 0 132 122 0 133 121 0 134 119 0 136 118 0 137 117 0 138 117 0 138 118 0 137 119 0 136 121 0 134 122 0 133 123 0 132 123 0 132 123 0 132 122 0 133 122 0 133 121 0 134 120 0 135 120 0 135 120 0 135 119 0 136 119 0 136 120 0 135 120 0 135 120 0 135 120 0 135 120 0 135 120 0 135 120 0 135 120 0 135 121 0 134 122 0 133 124 0 131 125 0 130 125 0 130 125 0 130 125 0 130 124 0 131 124 0 131 124 0 131 124 0 131 125 0 130 126 0 129 127 0 128 128 0 127 129 0 126 129 0 126 129 0 126 129 0 126 128 0 127 127 0 128 126 0 129 125 0 130 124 0 131 124 0 131 125 0 130 126 0 129 127 0 128 128 0 127 129 0 126 130 0 125 130 0 125 130 0 125 130 0 125 130 0 125 129 0 126 129 0 126 129 0 126 129 0 126 128 0 127 128 0 127 128 0 127 128 0 127 127 0 128 125 0 130 122 0 133 118 0 137 112 0 143 105 0 150 107 0 148 
147 0 108 133 0 122 128 0 127 127 0 128 127 0 128 127 0 128 128 0 127 129 0 126 130 0 125 131 0 124 131 0 124 132 0 123 132 0 123 131 0 124 129 0 126 127 0 128 124 0 131 122 0 133 120 0 135 119 0 136 119 0 136 119 0 136 119 0 136 120 0 135 120 0 135 120 0 135 120 0 135 120 0 135 120 0 135 120 0 135 120 0 135 120 0 135 120 0 135 121 0 134 122 0 133 123 0 132 125 0 130 127 0 128 129 0 126 131 0 124 132 0 123 132 0 123 133 0 122 132 0 123 132 0 123 131 0 124 130 0 125 130 0 125 130 0 125 129 0 126 129 0 126 129 0 126 128 0 127 127 0 128 127 0 128 126 0 129 125 0 130 124 0 131 123 0 132 122 0 133 121 0 134 120 0 135 119 0 136 118 0 137 118 0 137 118 0 137 118 0 137 119 0 136 120 0 135 120 0 135 122 0 133 123 0 132 124 0 131 125 0 130 126 0 129 126 0 129 126 0 129 125 0 130 125 0 130 124 0 131 123 0 132 123 0 132 122 0 133 122 0 133 122 0 133 122 0 133 122 0 133 123 0 132 123 0 132 124 0 131 124 0 131 125 0 130 125 0 130 127 0 128 128 0 127 129 0 126 129 0 126 129 0 126 128 0 127 126 0 129 124 0 131 122 0 133 121 0 134 120 0 135 121 0 134 122 0 133 124 0 131 127 0 128 130 0 125 132 0 123 133 0 122 132 0 123 131 0 124 129 0 126 127 0 128 125 0 130 124 0 131 123 0 132 123 0 132 123 0 132 122 0 133 121 0 134 120 0 135 119 0 136 117 0 138 117 0 138 116 0 139 117 0 138 118 0 137 119 0 136 121 0 134 121 0 134 122 0 133 122 0 133 121 0 134 121 0 134 120 0 135 120 0 135 120 0 135 119 0 136 119 0 136 119 0 136 119 0 136 120 0 135 120 0 135 120 0 135 120 0 135 120 0 135 120 0 135 121 0 134 122 0 133 123 0 132 124 0 131 125 0 130 125 0 130 124 0 131 124 0 131 123 0 132 123 0 132 123 0 132 124 0 131 124 0 131 125 0 130 127 0 128 128 0 127 129 0 126 129 0 126 130 0 125 129 0 126 128 0 127 127 0 128 125 0 130 124 0 131 124 0 131 124 0 131 125 0 130 126 0 129 127 0 128 128 0 127 130 0 125 130 0 125 131 0 124 131 0 124 130 0 125 130 0 125 130 0 125 130 0 125 130 0 125 130 0 125 130 0 125 130 0 125 130 0 125 129 0 126 129 0 126 127 0 128 124 0 131 121 0 134 116 0 139 107 0 148 83 0 172 
106 0 149 120 0 135 125 0 130 127 0 128 128 0 127 129 0 126 129 0 126 129 0 126 130 0 125 130 0 125 131 0 124 131 0 124 131 0 124 130 0 125 128 0 127 125 0 130 123 0 132 120 0 135 119 0 136 118 0 137 118 0 137 119 0 136 119 0 136 120 0 135 120 0 135 120 0 135 120 0 135 120 0 135 120 0 135 119 0 136 119 0 136 119 0 136 119 0 136 120 0 135 121 0 134 122 0 133 124 0 131 127 0 128 129 0 126 131 0 124 132 0 123 132 0 123 132 0 123 132 0 123 131 0 124 130 0 125 130 0 125 130 0 125 129 0 126 129 0 126 129 0 126 129 0 126 128 0 127 128 0 127 127 0 128 126 0 129 126 0 129 125 0 130 124 0 131 123 0 132 121 0 134 120 0 135 119 0 136 118 0 137 117 0 138 117 0 138 118 0 137 118 0 137 119 0 136 120 0 135 121 0 134 123 0 132 124 0 131 125 0 130 126 0 129 127 0 128 127 0 128 126 0 129 126 0 129 125 0 130 125 0 130 124 0 131 123 0 132 123 0 132 122 0 133 122 0 133 123 0 132 123 0 132 123 0 132 124 0 131 124 0 131 125 0 130 125 0 130 127 0 128 128 0 127 129 0 126 129 0 126 129 0 126 127 0 128 125 0 130 123 0 132 121 0 134 120 0 135 119 0 136 120 0 135 122 0 133 124 0 131 127 0 128 130 0 125 132 0 123 132 0 123 132 0 123 131 0 124 129 0 126 126 0 129 125 0 130 123 0 132 123 0 132 122 0 133 122 0 133 122 0 133 121 0 134 120 0 135 119 0 136 117 0 138 116 0 139 116 0 139 116 0 139 117 0 138 118 0 137 120 0 135 120 0 135 121 0 134 121 0 134 120 0 135 120 0 135 120 0 135 120 0 135 120 0 135 120 0 135 120 0 135 120 0 135 120 0 135 120 0 135 121 0 134 121 0 134 121 0 134 121 0 134 121 0 134 122 0 133 123 0 132 124 0 131 125 0 130 125 0 130 125 0 130 124 0 131 123 0 132 123 0 132 122 0 133 122 0 133 123 0 132 124 0 131 125 0 130 127 0 128 128 0 127 129 0 126 129 0 126 129 0 126 129 0 126 127 0 128 126 0 129 125 0 130 124 0 131 123 0 132 123 0 132 124 0 131 125 0 130 127 0 128 128 0 127 129 0 126 129 0 126 130 0 125 130 0 125 130 0 125 130 0 125 130 0 125 130 0 125 131 0 124 131 0 124 131 0 124 131 0 124 131 0 124 131 0 124 130 0 125 129 0 126 127 0 128 124 0 131 123 0 132 127 0 128 160 0 95 
88 0 167 116 0 139 125 0 130 128 0 127 129 0 126 130 0 125 130 0 125 129 0 126 130 0 125 130 0 125 130 0 125 130 0 125 129 0 126 128 0 127 126 0 129 124 0 131 121 0 134 119 0 136 118 0 137 117 0 138 118 0 137 119 0 136 120 0 135 120 0 135 121 0 134 121 0 134 120 0 135 120 0 135 120 0 135 119 0 136 119 0 136 118 0 137 118 0 137 119 0 136 120 0 135 122 0 133 124 0 131 127 0 128 129 0 126 131 0 124 132 0 123 132 0 123 132 0 123 131 0 124 130 0 125 130 0 125 129 0 126 129 0 126 129 0 126 129 0 126 129 0 126 129 0 126 128 0 127 128 0 127 127 0 128 127 0 128 126 0 129 125 0 130 124 0 131 122 0 133 121 0 134 120 0 135 119 0 136 118 0 137 117 0 138 117 0 138 118 0 137 119 0 136 119 0 136 120 0 135 122 0 133 123 0 132 124 0 131 125 0 130 126 0 129 127 0 128 127 0 128 128 0 127 127 0 128 127 0 128 126 0 129 126 0 129 125 0 130 124 0 131 123 0 132 123 0 132 123 0 132 124 0 131 124 0 131 124 0 131 124 0 131 125 0 130 125 0 130 126 0 129 127 0 128 128 0 127 129 0 126 128 0 127 127 0 128 125 0 130 123 0 132 121 0 134 120 0 135 119 0 136 120 0 135 121 0 134 124 0 131 126 0 129 129 0 126 131 0 124 132 0 123 131 0 124 130 0 125 128 0 127 126 0 129 124 0 131 123 0 132 122 0 133 122 0 133 122 0 133 121 0 134 121 0 134 120 0 135 118 0 137 117 0 138 116 0 139 116 0 139 116 0 139 117 0 138 118 0 137 119 0 136 119 0 136 120 0 135 120 0 135 120 0 135 120 0 135 120 0 135 120 0 135 120 0 135 120 0 135 120 0 135 121 0 134 121 0 134 122 0 133 122 0 133 122 0 133 123 0 132 123 0 132 123 0 132 124 0 131 125 0 130 125 0 130 126 0 129 126 0 129 126 0 129 125 0 130 124 0 131 123 0 132 122 0 133 122 0 133 123 0 132 124 0 131 125 0 130 127 0 128 128 0 127 129 0 126 129 0 126 129 0 126 128 0 127 127 0 128 126 0 129 124 0 131 123 0 132 122 0 133 122 0 133 123 0 132 124 0 131 125 0 130 126 0 129 127 0 128 128 0 127 128 0 127 128 0 127 128 0 127 128 0 127 129 0 126 129 0 126 130 0 125 130 0 125 131 0 124 131 0 124 132 0 123 132 0 123 132 0 123 131 0 124 129 0 126 126 0 129 123 0 132 116 0 139 87 0 168 
126 0 129 130 0 125 131 0 124 131 0 124 131 0 124 130 0 125 130 0 125 129 0 126 129 0 126 129 0 126 129 0 126 128 0 127 128 0 127 127 0 128 125 0 130 122 0 133 120 0 135 118 0 137 117 0 138 117 0 138 118 0 137 119 0 136 120 0 135 121 0 134 121 0 134 121 0 134 121 0 134 120 0 135 120 0 135 119 0 136 119 0 136 118 0 137 118 0 137 119 0 136 120 0 135 122 0 133 125 0 130 127 0 128 130 0 125 131 0 124 132 0 123 132 0 123 131 0 124 130 0 125 129 0 126 129 0 126 128 0 127 128 0 127 129 0 126 129 0 126 129 0 126 129 0 126 129 0 126 128 0 127 128 0 127 127 0 128 126 0 129 125 0 130 124 0 131 122 0 133 121 0 134 120 0 135 119 0 136 118 0 137 118 0 137 118 0 137 119 0 136 119 0 136 120 0 135 121 0 134 122 0 133 123 0 132 124 0 131 125 0 130 126 0 129 127 0 128 128 0 127 129 0 126 129 0 126 128 0 127 128 0 127 127 0 128 126 0 129 125 0 130 124 0 131 124 0 131 124 0 131 124 0 131 124 0 131 124 0 131 124 0 131 125 0 130 125 0 130 126 0 129 127 0 128 128 0 127 128 0 127 128 0 127 127 0 128 126 0 129 124 0 131 122 0 133 121 0 134 120 0 135 120 0 135 121 0 134 123 0 132 125 0 130 128 0 127 129 0 126 130 0 125 130 0 125 128 0 127 127 0 128 125 0 130 123 0 132 122 0 133 122 0 133 122 0 133 122 0 133 121 0 134 121 0 134 120 0 135 119 0 136 117 0 138 116 0 139 116 0 139 116 0 139 116 0 139 117 0 138 118 0 137 118 0 137 119 0 136 119 0 136 119 0 136 119 0 136 119 0 136 120 0 135 120 0 135 121 0 134 121 0 134 122 0 133 123 0 132 123 0 132 124 0 131 124 0 131 125 0 130 125 0 130 125 0 130 126 0 129 127 0 128 127 0 128 128 0 127 127 0 128 127 0 128 126 0 129 124 0 131 123 0 132 122 0 133 122 0 133 123 0 132 124 0 131 125 0 130 127 0 128 128 0 127 129 0 126 129 0 126 129 0 126 128 0 127 127 0 128 125 0 130 124 0 131 122 0 133 122 0 133 121 0 134 122 0 133 123 0 132 124 0 131 125 0 130 125 0 130 125 0 130 125 0 130 125 0 130 125 0 130 125 0 130 126 0 129 127 0 128 128 0 127 129 0 126 130 0 125 131 0 124 132 0 123 132 0 123 132 0 123 132 0 123 130 0 125 128 0 127 126 0 129 127 0 128 147 0 108 
187 0 68 148 0 107 137 0 118 134 0 121 132 0 123 131 0 124 130 0 125 129 0 126 128 0 127 128 0 127 127 0 128 126 0 129 126 0 129 125 0 130 123 0 132 121 0 134 119 0 136 118 0 137 117 0 138 117 0 138 118 0 137 119 0 136 120 0 135 121 0 134 121 0 134 121 0 134 121 0 134 121 0 134 120 0 135 120 0 135 119 0 136 119 0 136 119 0 136 119 0 136 121 0 134 123 0 132 125 0 130 128 0 127 130 0 125 131 0 124 132 0 123 131 0 124 130 0 125 129 0 126 128 0 127 127 0 128 127 0 128 128 0 127 128 0 127 128 0 127 129 0 126 129 0 126 129 0 126 129 0 126 128 0 127 128 0 127 127 0 128 125 0 130 124 0 131 122 0 133 121 0 134 120 0 135 119 0 136 119 0 136 119 0 136 119 0 136 120 0 135 121 0 134 121 0 134 122 0 133 123 0 132 123 0 132 124 0 131 125 0 130 127 0 128 128 0 127 128 0 127 129 0 126 129 0 126 129 0 126 129 0 126 128 0 127 127 0 128 126 0 129 125 0 130 125 0 130 125 0 130 125 0 130 125 0 130 125 0 130 125 0 130 125 0 130 125 0 130 125 0 130 126 0 129 127 0 128 128 0 127 128 0 127 127 0 128 126 0 129 125 0 130 123 0 132 122 0 133 121 0 134 121 0 134 121 0 134 122 0 133 124 0 131 126 0 129 127 0 128 128 0 127 128 0 127 127 0 128 125 0 130 124 0 131 123 0 132 123 0 132 122 0 133 122 0 133 122 0 133 122 0 133 121 0 134 120 0 135 119 0 136 118 0 137 117 0 138 116 0 139 116 0 139 116 0 139 117 0 138 118 0 137 118 0 137 118 0 137 118 0 137 119 0 136 119 0 136 119 0 136 120 0 135 120 0 135 121 0 134 122 0 133 123 0 132 124 0 131 125 0 130 126 0 129 126 0 129 126 0 129 127 0 128 127 0 128 128 0 127 129 0 126 129 0 126 129 0 126 129 0 126 128 0 127 127 0 128 125 0 130 124 0 131 123 0 132 122 0 133 123 0 132 124 0 131 125 0 130 127 0 128 128 0 127 129 0 126 129 0 126 129 0 126 128 0 127 126 0 129 125 0 130 123 0 132 122 0 133 121 0 134 121 0 134 121 0 134 121 0 134 122 0 133 123 0 132 123 0 132 123 0 132 122 0 133 122 0 133 122 0 133 122 0 133 123 0 132 125 0 130 126 0 129 128 0 127 129 0 126 131 0 124 131 0 124 132 0 123 132 0 123 132 0 123 130 0 125 128 0 127 124 0 131 118 0 137 103 0 152 
105 0 150 136 0 119 137 0 118 135 0 120 133 0 122 131 0 124 130 0 125 129 0 126 127 0 128 126 0 129 125 0 130 124 0 131 124 0 131 123 0 132 122 0 133 120 0 135 119 0 136 118 0 137 117 0 138 118 0 137 118 0 137 119 0 136 120 0 135 121 0 134 122 0 133 122 0 133 122 0 133 122 0 133 121 0 134 121 0 134 121 0 134 120 0 135 120 0 135 121 0 134 122 0 133 124 0 131 126 0 129 129 0 126 130 0 125 131 0 124 131 0 124 130 0 125 129 0 126 127 0 128 126 0 129 126 0 129 126 0 129 126 0 129 127 0 128 128 0 127 129 0 126 129 0 126 129 0 126 129 0 126 129 0 126 129 0 126 128 0 127 126 0 129 125 0 130 123 0 132 121 0 134 120 0 135 120 0 135 120 0 135 120 0 135 121 0 134 121 0 134 122 0 133 123 0 132 123 0 132 124 0 131 124 0 131 125 0 130 126 0 129 127 0 128 128 0 127 128 0 127 129 0 126 129 0 126 129 0 126 129 0 126 128 0 127 128 0 127 127 0 128 126 0 129 126 0 129 126 0 129 126 0 129 126 0 129 126 0 129 125 0 130 125 0 130 125 0 130 125 0 130 126 0 129 127 0 128 127 0 128 127 0 128 127 0 128 126 0 129 125 0 130 124 0 131 123 0 132 122 0 133 121 0 134 121 0 134 122 0 133 123 0 132 124 0 131 125 0 130 126 0 129 126 0 129 125 0 130 124 0 131 124 0 131 123 0 132 123 0 132 123 0 132 123 0 132 123 0 132 123 0 132 122 0 133 121 0 134 120 0 135 119 0 136 118 0 137 117 0 138 116 0 139 117 0 138 117 0 138 117 0 138 118 0 137 118 0 137 118 0 137 118 0 137 119 0 136 119 0 136 120 0 135 120 0 135 121 0 134 123 0 132 124 0 131 125 0 130 126 0 129 127 0 128 127 0 128 128 0 127 128 0 127 129 0 126 130 0 125 130 0 125 130 0 125 130 0 125 130 0 125 129 0 126 128 0 127 126 0 129 124 0 131 123 0 132 123 0 132 123 0 132 124 0 131 126 0 129 127 0 128 128 0 127 129 0 126 129 0 126 128 0 127 127 0 128 126 0 129 124 0 131 123 0 132 122 0 133 121 0 134 120 0 135 120 0 135 120 0 135 121 0 134 121 0 134 121 0 134 121 0 134 120 0 135 119 0 136 119 0 136 119 0 136 121 0 134 122 0 133 124 0 131 126 0 129 128 0 127 129 0 126 130 0 125 131 0 124 131 0 124 131 0 124 130 0 125 127 0 128 123 0 132 119 0 136 125 0 130 
212 0 43 154 0 101 141 0 114 136 0 119 133 0 122 131 0 124 130 0 125 128 0 127 126 0 129 125 0 130 123 0 132 123 0 132 122 0 133 121 0 134 121 0 134 120 0 135 119 0 136 118 0 137 118 0 137 118 0 137 119 0 136 120 0 135 120 0 135 121 0 134 122 0 133 122 0 133 122 0 133 122 0 133 122 0 133 122 0 133 122 0 133 122 0 133 122 0 133 122 0 133 123 0 132 125 0 130 127 0 128 129 0 126 131 0 124 131 0 124 131 0 124 129 0 126 128 0 127 126 0 129 125 0 130 124 0 131 125 0 130 125 0 130 126 0 129 127 0 128 128 0 127 129 0 126 130 0 125 130 0 125 130 0 125 130 0 125 129 0 126 128 0 127 126 0 129 124 0 131 123 0 132 122 0 133 121 0 134 121 0 134 122 0 133 123 0 132 123 0 132 124 0 131 125 0 130 125 0 130 125 0 130 125 0 130 125 0 130 126 0 129 127 0 128 127 0 128 128 0 127 128 0 127 129 0 126 129 0 126 129 0 126 128 0 127 128 0 127 127 0 128 127 0 128 127 0 128 127 0 128 127 0 128 127 0 128 126 0 129 126 0 129 126 0 129 126 0 129 126 0 129 126 0 129 126 0 129 127 0 128 127 0 128 127 0 128 127 0 128 126 0 129 125 0 130 124 0 131 122 0 133 121 0 134 121 0 134 121 0 134 122 0 133 123 0 132 124 0 131 124 0 131 124 0 131 124 0 131 124 0 131 124 0 131 124 0 131 124 0 131 124 0 131 125 0 130 124 0 131 124 0 131 123 0 132 122 0 133 121 0 134 119 0 136 118 0 137 117 0 138 117 0 138 117 0 138 117 0 138 118 0 137 118 0 137 118 0 137 119 0 136 119 0 136 119 0 136 119 0 136 120 0 135 120 0 135 121 0 134 123 0 132 124 0 131 125 0 130 126 0 129 127 0 128 128 0 127 129 0 126 129 0 126 130 0 125 131 0 124 131 0 124 131 0 124 131 0 124 131 0 124 130 0 125 128 0 127 126 0 129 125 0 130 124 0 131 123 0 132 124 0 131 125 0 130 126 0 129 127 0 128 128 0 127 129 0 126 129 0 126 128 0 127 127 0 128 125 0 130 124 0 131 123 0 132 122 0 133 121 0 134 121 0 134 120 0 135 120 0 135 120 0 135 120 0 135 120 0 135 119 0 136 118 0 137 117 0 138 117 0 138 117 0 138 119 0 136 121 0 134 123 0 132 125 0 130 127 0 128 128 0 127 129 0 126 130 0 125 130 0 125 130 0 125 129 0 126 126 0 129 122 0 133 109 0 146 56 0 199 
75 0 180 128 0 127 136 0 119 135 0 120 133 0 122 131 0 124 129 0 126 127 0 128 125 0 130 124 0 131 122 0 133 121 0 134 121 0 134 121 0 134 120 0 135 120 0 135 119 0 136 119 0 136 119 0 136 119 0 136 119 0 136 120 0 135 121 0 134 121 0 134 122 0 133 122 0 133 122 0 133 123 0 132 123 0 132 124 0 131 124 0 131 124 0 131 124 0 131 124 0 131 125 0 130 126 0 129 128 0 127 130 0 125 131 0 124 131 0 124 130 0 125 129 0 126 127 0 128 125 0 130 124 0 131 123 0 132 123 0 132 124 0 131 125 0 130 127 0 128 128 0 127 129 0 126 130 0 125 131 0 124 132 0 123 132 0 123 131 0 124 129 0 126 127 0 128 126 0 129 124 0 131 123 0 132 123 0 132 123 0 132 124 0 131 125 0 130 125 0 130 126 0 129 126 0 129 126 0 129 126 0 129 126 0 129 126 0 129 126 0 129 127 0 128 127 0 128 127 0 128 128 0 127 128 0 127 128 0 127 128 0 127 128 0 127 128 0 127 128 0 127 128 0 127 128 0 127 127 0 128 127 0 128 127 0 128 127 0 128 127 0 128 127 0 128 127 0 128 126 0 129 126 0 129 126 0 129 126 0 129 127 0 128 127 0 128 127 0 128 126 0 129 126 0 129 124 0 131 123 0 132 122 0 133 121 0 134 121 0 134 121 0 134 122 0 133 122 0 133 123 0 132 124 0 131 124 0 131 125 0 130 125 0 130 126 0 129 126 0 129 126 0 129 126 0 129 126 0 129 125 0 130 124 0 131 122 0 133 121 0 134 120 0 135 118 0 137 118 0 137 117 0 138 118 0 137 118 0 137 119 0 136 119 0 136 119 0 136 119 0 136 119 0 136 119 0 136 120 0 135 120 0 135 121 0 134 121 0 134 123 0 132 124 0 131 125 0 130 126 0 129 127 0 128 128 0 127 128 0 127 129 0 126 130 0 125 131 0 124 131 0 124 131 0 124 131 0 124 131 0 124 130 0 125 128 0 127 127 0 128 125 0 130 124 0 131 124 0 131 124 0 131 125 0 130 126 0 129 128 0 127 128 0 127 129 0 126 128 0 127 127 0 128 126 0 129 125 0 130 124 0 131 123 0 132 122 0 133 122 0 133 121 0 134 121 0 134 121 0 134 120 0 135 120 0 135 119 0 136 118 0 137 117 0 138 116 0 139 116 0 139 116 0 139 118 0 137 120 0 135 122 0 133 124 0 131 125 0 130 126 0 129 127 0 128 128 0 127 128 0 127 128 0 127 127 0 128 127 0 128 128 0 127 137 0 118 186 0 69 
160 0 95 147 0 108 142 0 113 138 0 117 134 0 121 131 0 124 129 0 126 127 0 128 125 0 130 123 0 132 122 0 133 121 0 134 121 0 134 121 0 134 121 0 134 120 0 135 120 0 135 120 0 135 120 0 135 120 0 135 120 0 135 121 0 134 121 0 134 122 0 133 122 0 133 122 0 133 123 0 132 123 0 132 124 0 131 125 0 130 126 0 129 126 0 129 126 0 129 126 0 129 127 0 128 128 0 127 129 0 126 130 0 125 131 0 124 131 0 124 130 0 125 128 0 127 126 0 129 124 0 131 123 0 132 122 0 133 122 0 133 123 0 132 124 0 131 126 0 129 128 0 127 129 0 126 131 0 124 132 0 123 133 0 122 133 0 122 133 0 122 131 0 124 129 0 126 128 0 127 126 0 129 126 0 129 125 0 130 125 0 130 126 0 129 127 0 128 127 0 128 128 0 127 128 0 127 128 0 127 127 0 128 127 0 128 127 0 128 127 0 128 126 0 129 126 0 129 126 0 129 127 0 128 127 0 128 127 0 128 127 0 128 128 0 127 128 0 127 128 0 127 128 0 127 128 0 127 128 0 127 128 0 127 128 0 127 128 0 127 128 0 127 128 0 127 128 0 127 127 0 128 127 0 128 126 0 129 126 0 129 126 0 129 126 0 129 126 0 129 126 0 129 126 0 129 125 0 130 123 0 132 122 0 133 121 0 134 120 0 135 120 0 135 121 0 134 122 0 133 122 0 133 123 0 132 124 0 131 125 0 130 126 0 129 127 0 128 127 0 128 128 0 127 127 0 128 126 0 129 125 0 130 124 0 131 122 0 133 121 0 134 119 0 136 118 0 137 118 0 137 118 0 137 118 0 137 119 0 136 120 0 135 120 0 135 120 0 135 120 0 135 120 0 135 120 0 135 120 0 135 120 0 135 121 0 134 121 0 134 122 0 133 123 0 132 124 0 131 125 0 130 126 0 129 127 0 128 128 0 127 128 0 127 129 0 126 130 0 125 130 0 125 131 0 124 130 0 125 130 0 125 129 0 126 128 0 127 127 0 128 126 0 129 125 0 130 125 0 130 125 0 130 126 0 129 127 0 128 128 0 127 128 0 127 128 0 127 128 0 127 127 0 128 126 0 129 125 0 130 124 0 131 124 0 131 123 0 132 123 0 132 122 0 133 122 0 133 122 0 133 121 0 134 120 0 135 120 0 135 118 0 137 117 0 138 116 0 139 116 0 139 117 0 138 118 0 137 119 0 136 121 0 134 123 0 132 124 0 131 125 0 130 125 0 130 125 0 130 126 0 129 126 0 129 126 0 129 126 0 129 126 0 129 127 0 128 120 0 135 
169 0 86 160 0 95 148 0 107 140 0 115 135 0 120 132 0 123 129 0 126 127 0 128 126 0 129 124 0 131 123 0 132 122 0 133 122 0 133 122 0 133 122 0 133 122 0 133 121 0 134 121 0 134 121 0 134 121 0 134 121 0 134 121 0 134 122 0 133 122 0 133 122 0 133 123 0 132 123 0 132 124 0 131 125 0 130 126 0 129 127 0 128 127 0 128 128 0 127 128 0 127 128 0 127 129 0 126 130 0 125 130 0 125 131 0 124 131 0 124 130 0 125 128 0 127 126 0 129 124 0 131 123 0 132 122 0 133 122 0 133 122 0 133 124 0 131 125 0 130 127 0 128 129 0 126 131 0 124 133 0 122 134 0 121 135 0 120 134 0 121 133 0 122 131 0 124 130 0 125 128 0 127 128 0 127 127 0 128 128 0 127 128 0 127 128 0 127 129 0 126 129 0 126 129 0 126 129 0 126 128 0 127 128 0 127 127 0 128 127 0 128 126 0 129 126 0 129 126 0 129 126 0 129 126 0 129 126 0 129 127 0 128 128 0 127 128 0 127 129 0 126 129 0 126 129 0 126 129 0 126 129 0 126 129 0 126 129 0 126 129 0 126 129 0 126 129 0 126 128 0 127 127 0 128 127 0 128 126 0 129 126 0 129 126 0 129 126 0 129 126 0 129 125 0 130 124 0 131 123 0 132 122 0 133 121 0 134 120 0 135 120 0 135 120 0 135 121 0 134 122 0 133 123 0 132 125 0 130 126 0 129 127 0 128 128 0 127 129 0 126 128 0 127 128 0 127 127 0 128 125 0 130 124 0 131 122 0 133 121 0 134 119 0 136 119 0 136 119 0 136 119 0 136 120 0 135 121 0 134 121 0 134 122 0 133 122 0 133 122 0 133 122 0 133 121 0 134 121 0 134 121 0 134 121 0 134 121 0 134 122 0 133 123 0 132 124 0 131 124 0 131 125 0 130 126 0 129 127 0 128 127 0 128 128 0 127 129 0 126 129 0 126 130 0 125 130 0 125 129 0 126 129 0 126 128 0 127 127 0 128 126 0 129 125 0 130 125 0 130 126 0 129 126 0 129 127 0 128 128 0 127 128 0 127 128 0 127 127 0 128 126 0 129 126 0 129 125 0 130 124 0 131 124 0 131 124 0 131 124 0 131 124 0 131 123 0 132 123 0 132 122 0 133 121 0 134 120 0 135 119 0 136 118 0 137 117 0 138 117 0 138 118 0 137 119 0 136 120 0 135 122 0 133 123 0 132 123 0 132 124 0 131 124 0 131 123 0 132 123 0 132 124 0 131 124 0 131 123 0 132 122 0 133 123 0 132 141 0 114 
239 0 16 175 0 80 152 0 103 142 0 113 136 0 119 132 0 123 130 0 125 128 0 127 126 0 129 125 0 130 124 0 131 124 0 131 123 0 132 123 0 132 123 0 132 123 0 132 123 0 132 122 0 133 122 0 133 122 0 133 122 0 133 122 0 133 122 0 133 123 0 132 123 0 132 123 0 132 123 0 132 124 0 131 125 0 130 126 0 129 128 0 127 128 0 127 129 0 126 129 0 126 129 0 126 130 0 125 130 0 125 131 0 124 131 0 124 131 0 124 130 0 125 128 0 127 126 0 129 124 0 131 123 0 132 122 0 133 122 0 133 122 0 133 123 0 132 125 0 130 127 0 128 129 0 126 132 0 123 134 0 121 135 0 120 135 0 120 135 0 120 134 0 121 133 0 122 131 0 124 130 0 125 130 0 125 129 0 126 129 0 126 129 0 126 130 0 125 130 0 125 130 0 125 130 0 125 129 0 126 129 0 126 128 0 127 127 0 128 127 0 128 126 0 129 125 0 130 125 0 130 125 0 130 125 0 130 126 0 129 127 0 128 128 0 127 128 0 127 129 0 126 129 0 126 130 0 125 130 0 125 130 0 125 130 0 125 130 0 125 130 0 125 130 0 125 130 0 125 129 0 126 128 0 127 127 0 128 127 0 128 126 0 129 126 0 129 126 0 129 126 0 129 125 0 130 124 0 131 123 0 132 122 0 133 121 0 134 120 0 135 120 0 135 120 0 135 121 0 134 122 0 133 123 0 132 125 0 130 126 0 129 128 0 127 129 0 126 129 0 126 129 0 126 128 0 127 127 0 128 125 0 130 124 0 131 122 0 133 120 0 135 119 0 136 119 0 136 120 0 135 120 0 135 121 0 134 122 0 133 123 0 132 124 0 131 124 0 131 123 0 132 123 0 132 123 0 132 122 0 133 122 0 133 122 0 133 122 0 133 122 0 133 122 0 133 123 0 132 124 0 131 124 0 131 125 0 130 126 0 129 126 0 129 127 0 128 128 0 127 128 0 127 128 0 127 129 0 126 128 0 127 128 0 127 127 0 128 127 0 128 126 0 129 126 0 129 126 0 129 127 0 128 127 0 128 128 0 127 128 0 127 128 0 127 128 0 127 127 0 128 126 0 129 125 0 130 124 0 131 124 0 131 124 0 131 124 0 131 125 0 130 125 0 130 125 0 130 124 0 131 124 0 131 123 0 132 121 0 134 120 0 135 119 0 136 119 0 136 119 0 136 119 0 136 120 0 135 121 0 134 122 0 133 123 0 132 123 0 132 123 0 132 122 0 133 122 0 133 122 0 133 122 0 133 122 0 133 121 0 134 116 0 139 103 0 152 56 0 199 
130 0 125 150 0 105 146 0 109 140 0 115 135 0 120 132 0 123 130 0 125 129 0 126 127 0 128 126 0 129 126 0 129 125 0 130 125 0 130 125 0 130 125 0 130 124 0 131 124 0 131 123 0 132 123 0 132 123 0 132 123 0 132 123 0 132 123 0 132 123 0 132 123 0 132 123 0 132 123 0 132 124 0 131 125 0 130 127 0 128 128 0 127 129 0 126 129 0 126 130 0 125 130 0 125 130 0 125 130 0 125 131 0 124 131 0 124 130 0 125 130 0 125 128 0 127 127 0 128 125 0 130 123 0 132 122 0 133 122 0 133 122 0 133 123 0 132 125 0 130 127 0 128 129 0 126 132 0 123 134 0 121 135 0 120 135 0 120 135 0 120 134 0 121 133 0 122 132 0 123 131 0 124 131 0 124 130 0 125 130 0 125 130 0 125 130 0 125 130 0 125 130 0 125 130 0 125 130 0 125 129 0 126 128 0 127 127 0 128 126 0 129 125 0 130 125 0 130 124 0 131 124 0 131 125 0 130 126 0 129 127 0 128 128 0 127 129 0 126 130 0 125 130 0 125 130 0 125 130 0 125 130 0 125 130 0 125 130 0 125 131 0 124 130 0 125 130 0 125 130 0 125 129 0 126 128 0 127 127 0 128 127 0 128 126 0 129 126 0 129 126 0 129 125 0 130 124 0 131 123 0 132 121 0 134 120 0 135 120 0 135 119 0 136 120 0 135 121 0 134 122 0 133 123 0 132 125 0 130 126 0 129 128 0 127 128 0 127 129 0 126 129 0 126 128 0 127 126 0 129 125 0 130 123 0 132 122 0 133 121 0 134 120 0 135 120 0 135 121 0 134 122 0 133 124 0 131 125 0 130 125 0 130 125 0 130 125 0 130 125 0 130 124 0 131 124 0 131 123 0 132 123 0 132 122 0 133 122 0 133 122 0 133 122 0 133 123 0 132 123 0 132 124 0 131 124 0 131 125 0 130 125 0 130 126 0 129 126 0 129 127 0 128 127 0 128 128 0 127 128 0 127 128 0 127 128 0 127 127 0 128 127 0 128 127 0 128 127 0 128 127 0 128 128 0 127 128 0 127 128 0 127 128 0 127 127 0 128 126 0 129 125 0 130 124 0 131 123 0 132 123 0 132 124 0 131 124 0 131 125 0 130 125 0 130 126 0 129 125 0 130 125 0 130 124 0 131 122 0 133 121 0 134 120 0 135 120 0 135 120 0 135 121 0 134 121 0 134 122 0 133 123 0 132 123 0 132 123 0 132 123 0 132 122 0 133 121 0 134 121 0 134 121 0 134 122 0 133 121 0 134 119 0 136 115 0 140 122 0 133 
151 0 104 148 0 107 143 0 112 138 0 117 135 0 120 132 0 123 131 0 124 129 0 126 128 0 127 128 0 127 127 0 128 126 0 129 126 0 129 126 0 129 126 0 129 125 0 130 125 0 130 124 0 131 124 0 131 124 0 131 124 0 131 124 0 131 124 0 131 123 0 132 123 0 132 123 0 132 123 0 132 124 0 131 125 0 130 127 0 128 128 0 127 129 0 126 129 0 126 130 0 125 130 0 125 130 0 125 130 0 125 131 0 124 131 0 124 130 0 125 130 0 125 129 0 126 127 0 128 125 0 130 124 0 131 122 0 133 122 0 133 122 0 133 124 0 131 125 0 130 127 0 128 129 0 126 131 0 124 133 0 122 134 0 121 135 0 120 134 0 121 134 0 121 133 0 122 132 0 123 131 0 124 131 0 124 131 0 124 131 0 124 130 0 125 130 0 125 130 0 125 130 0 125 130 0 125 129 0 126 129 0 126 128 0 127 127 0 128 126 0 129 125 0 130 124 0 131 124 0 131 124 0 131 125 0 130 126 0 129 127 0 128 128 0 127 129 0 126 130 0 125 131 0 124 131 0 124 131 0 124 131 0 124 131 0 124 131 0 124 131 0 124 131 0 124 130 0 125 130 0 125 129 0 126 128 0 127 128 0 127 127 0 128 127 0 128 126 0 129 126 0 129 125 0 130 124 0 131 122 0 133 121 0 134 120 0 135 119 0 136 119 0 136 120 0 135 121 0 134 122 0 133 123 0 132 125 0 130 126 0 129 127 0 128 128 0 127 128 0 127 128 0 127 127 0 128 126 0 129 125 0 130 123 0 132 122 0 133 121 0 134 121 0 134 122 0 133 123 0 132 124 0 131 126 0 129 127 0 128 127 0 128 127 0 128 126 0 129 126 0 129 125 0 130 124 0 131 124 0 131 123 0 132 123 0 132 123 0 132 123 0 132 123 0 132 123 0 132 124 0 131 124 0 131 124 0 131 124 0 131 125 0 130 125 0 130 125 0 130 126 0 129 126 0 129 127 0 128 127 0 128 128 0 127 128 0 127 128 0 127 128 0 127 128 0 127 128 0 127 128 0 127 129 0 126 129 0 126 128 0 127 127 0 128 126 0 129 125 0 130 123 0 132 122 0 133 122 0 133 122 0 133 123 0 132 124 0 131 125 0 130 126 0 129 126 0 129 126 0 129 126 0 129 125 0 130 123 0 132 122 0 133 121 0 134 121 0 134 121 0 134 122 0 133 123 0 132 123 0 132 124 0 131 124 0 131 124 0 131 123 0 132 122 0 133 121 0 134 121 0 134 122 0 133 123 0 132 123 0 132 123 0 132 117 0 138 85 0 170 
181 0 74 150 0 105 140 0 115 136 0 119 133 0 122 132 0 123 131 0 124 130 0 125 129 0 126 128 0 127 128 0 127 127 0 128 127 0 128 126 0 129 126 0 129 126 0 129 126 0 129 125 0 130 125 0 130 125 0 130 125 0 130 125 0 130 124 0 131 124 0 131 124 0 131 124 0 131 124 0 131 124 0 131 125 0 130 127 0 128 128 0 127 129 0 126 129 0 126 130 0 125 130 0 125 130 0 125 130 0 125 131 0 124 131 0 124 131 0 124 130 0 125 129 0 126 127 0 128 126 0 129 124 0 131 123 0 132 123 0 132 123 0 132 124 0 131 126 0 129 127 0 128 129 0 126 131 0 124 133 0 122 133 0 122 134 0 121 133 0 122 132 0 123 132 0 123 131 0 124 131 0 124 131 0 124 131 0 124 130 0 125 130 0 125 130 0 125 129 0 126 129 0 126 129 0 126 129 0 126 128 0 127 128 0 127 126 0 129 125 0 130 124 0 131 124 0 131 123 0 132 124 0 131 124 0 131 126 0 129 127 0 128 128 0 127 129 0 126 130 0 125 131 0 124 132 0 123 132 0 123 132 0 123 132 0 123 132 0 123 131 0 124 131 0 124 130 0 125 130 0 125 129 0 126 129 0 126 128 0 127 127 0 128 127 0 128 126 0 129 126 0 129 125 0 130 123 0 132 122 0 133 120 0 135 119 0 136 119 0 136 119 0 136 120 0 135 121 0 134 122 0 133 123 0 132 124 0 131 125 0 130 126 0 129 127 0 128 127 0 128 127 0 128 127 0 128 126 0 129 125 0 130 123 0 132 122 0 133 122 0 133 122 0 133 123 0 132 125 0 130 126 0 129 127 0 128 128 0 127 128 0 127 127 0 128 127 0 128 126 0 129 125 0 130 125 0 130 124 0 131 124 0 131 124 0 131 123 0 132 123 0 132 123 0 132 124 0 131 124 0 131 124 0 131 124 0 131 124 0 131 124 0 131 124 0 131 125 0 130 125 0 130 126 0 129 126 0 129 127 0 128 127 0 128 128 0 127 128 0 127 128 0 127 128 0 127 129 0 126 129 0 126 129 0 126 129 0 126 128 0 127 127 0 128 125 0 130 123 0 132 122 0 133 121 0 134 120 0 135 120 0 135 121 0 134 123 0 132 124 0 131 125 0 130 126 0 129 126 0 129 126 0 129 125 0 130 124 0 131 123 0 132 122 0 133 122 0 133 122 0 133 123 0 132 124 0 131 124 0 131 125 0 130 125 0 130 124 0 131 123 0 132 122 0 133 122 0 133 122 0 133 122 0 133 124 0 131 126 0 129 130 0 125 145 0 110 210 0 45 
114 0 141 130 0 125 132 0 123 132 0 123 131 0 124 131 0 124 130 0 125 130 0 125 129 0 126 128 0 127 127 0 128 127 0 128 126 0 129 126 0 129 126 0 129 126 0 129 126 0 129 126 0 129 126 0 129 126 0 129 126 0 129 126 0 129 126 0 129 125 0 130 125 0 130 125 0 130 125 0 130 125 0 130 126 0 129 127 0 128 128 0 127 129 0 126 129 0 126 130 0 125 130 0 125 130 0 125 130 0 125 131 0 124 131 0 124 131 0 124 130 0 125 129 0 126 127 0 128 126 0 129 124 0 131 123 0 132 123 0 132 124 0 131 125 0 130 126 0 129 128 0 127 129 0 126 131 0 124 132 0 123 132 0 123 132 0 123 132 0 123 131 0 124 130 0 125 130 0 125 130 0 125 130 0 125 130 0 125 130 0 125 130 0 125 129 0 126 129 0 126 129 0 126 128 0 127 128 0 127 128 0 127 127 0 128 126 0 129 125 0 130 124 0 131 123 0 132 123 0 132 123 0 132 124 0 131 126 0 129 127 0 128 128 0 127 130 0 125 131 0 124 132 0 123 132 0 123 132 0 123 132 0 123 132 0 123 132 0 123 132 0 123 131 0 124 130 0 125 130 0 125 129 0 126 128 0 127 128 0 127 128 0 127 127 0 128 126 0 129 126 0 129 124 0 131 123 0 132 121 0 134 120 0 135 119 0 136 118 0 137 119 0 136 120 0 135 121 0 134 122 0 133 123 0 132 124 0 131 125 0 130 126 0 129 126 0 129 127 0 128 127 0 128 126 0 129 125 0 130 124 0 131 123 0 132 123 0 132 123 0 132 123 0 132 124 0 131 126 0 129 127 0 128 129 0 126 129 0 126 128 0 127 128 0 127 127 0 128 126 0 129 125 0 130 125 0 130 124 0 131 124 0 131 124 0 131 124 0 131 124 0 131 124 0 131 125 0 130 125 0 130 125 0 130 125 0 130 124 0 131 124 0 131 124 0 131 124 0 131 125 0 130 125 0 130 126 0 129 126 0 129 127 0 128 128 0 127 128 0 127 128 0 127 129 0 126 129 0 126 129 0 126 129 0 126 129 0 126 127 0 128 126 0 129 124 0 131 122 0 133 120 0 135 119 0 136 118 0 137 119 0 136 120 0 135 121 0 134 123 0 132 125 0 130 126 0 129 126 0 129 126 0 129 126 0 129 125 0 130 124 0 131 123 0 132 123 0 132 124 0 131 124 0 131 125 0 130 125 0 130 125 0 130 125 0 130 124 0 131 123 0 132 123 0 132 122 0 133 122 0 133 123 0 132 124 0 131 126 0 129 128 0 127 123 0 132 79 0 176 
132 0 123 123 0 132 126 0 129 128 0 127 129 0 126 130 0 125 129 0 126 129 0 126 129 0 126 128 0 127 127 0 128 126 0 129 126 0 129 126 0 129 126 0 129 126 0 129 126 0 129 126 0 129 127 0 128 127 0 128 127 0 128 128 0 127 127 0 128 127 0 128 127 0 128 126 0 129 126 0 129 126 0 129 126 0 129 127 0 128 128 0 127 129 0 126 129 0 126 130 0 125 130 0 125 130 0 125 131 0 124 131 0 124 131 0 124 131 0 124 130 0 125 129 0 126 127 0 128 126 0 129 124 0 131 123 0 132 123 0 132 124 0 131 125 0 130 127 0 128 128 0 127 129 0 126 130 0 125 131 0 124 131 0 124 131 0 124 130 0 125 129 0 126 129 0 126 128 0 127 128 0 127 129 0 126 129 0 126 129 0 126 129 0 126 129 0 126 128 0 127 128 0 127 128 0 127 128 0 127 127 0 128 126 0 129 125 0 130 124 0 131 123 0 132 123 0 132 123 0 132 123 0 132 124 0 131 126 0 129 127 0 128 128 0 127 130 0 125 131 0 124 132 0 123 133 0 122 133 0 122 133 0 122 133 0 122 132 0 123 132 0 123 131 0 124 130 0 125 129 0 126 129 0 126 128 0 127 128 0 127 128 0 127 127 0 128 127 0 128 126 0 129 124 0 131 123 0 132 121 0 134 120 0 135 118 0 137 118 0 137 118 0 137 119 0 136 121 0 134 122 0 133 123 0 132 124 0 131 125 0 130 125 0 130 126 0 129 126 0 129 126 0 129 126 0 129 125 0 130 124 0 131 123 0 132 123 0 132 123 0 132 124 0 131 125 0 130 127 0 128 128 0 127 129 0 126 129 0 126 128 0 127 127 0 128 126 0 129 125 0 130 124 0 131 124 0 131 124 0 131 124 0 131 125 0 130 125 0 130 125 0 130 125 0 130 125 0 130 126 0 129 126 0 129 125 0 130 125 0 130 124 0 131 124 0 131 124 0 131 124 0 131 125 0 130 125 0 130 126 0 129 127 0 128 127 0 128 128 0 127 128 0 127 129 0 126 129 0 126 129 0 126 129 0 126 128 0 127 127 0 128 125 0 130 123 0 132 120 0 135 118 0 137 117 0 138 117 0 138 117 0 138 118 0 137 120 0 135 122 0 133 124 0 131 125 0 130 126 0 129 126 0 129 126 0 129 125 0 130 125 0 130 124 0 131 124 0 131 125 0 130 125 0 130 125 0 130 126 0 129 126 0 129 126 0 129 125 0 130 124 0 131 123 0 132 122 0 133 122 0 133 123 0 132 125 0 130 127 0 128 130 0 125 140 0 115 186 0 69 
52 0 203 106 0 149 120 0 135 125 0 130 127 0 128 128 0 127 129 0 126 128 0 127 128 0 127 127 0 128 126 0 129 125 0 130 125 0 130 125 0 130 125 0 130 125 0 130 126 0 129 126 0 129 127 0 128 128 0 127 129 0 126 129 0 126 129 0 126 129 0 126 128 0 127 128 0 127 127 0 128 127 0 128 127 0 128 128 0 127 128 0 127 129 0 126 130 0 125 130 0 125 130 0 125 131 0 124 131 0 124 131 0 124 131 0 124 131 0 124 130 0 125 129 0 126 127 0 128 125 0 130 124 0 131 123 0 132 124 0 131 124 0 131 126 0 129 127 0 128 128 0 127 130 0 125 130 0 125 131 0 124 130 0 125 130 0 125 129 0 126 128 0 127 127 0 128 127 0 128 127 0 128 128 0 127 128 0 127 128 0 127 128 0 127 128 0 127 128 0 127 128 0 127 127 0 128 127 0 128 126 0 129 125 0 130 124 0 131 123 0 132 122 0 133 122 0 133 122 0 133 123 0 132 124 0 131 125 0 130 127 0 128 128 0 127 130 0 125 131 0 124 132 0 123 133 0 122 133 0 122 133 0 122 133 0 122 133 0 122 132 0 123 131 0 124 130 0 125 129 0 126 128 0 127 128 0 127 128 0 127 127 0 128 127 0 128 127 0 128 126 0 129 125 0 130 123 0 132 121 0 134 120 0 135 118 0 137 118 0 137 118 0 137 119 0 136 120 0 135 122 0 133 123 0 132 124 0 131 124 0 131 125 0 130 125 0 130 126 0 129 126 0 129 125 0 130 124 0 131 124 0 131 123 0 132 123 0 132 123 0 132 124 0 131 125 0 130 126 0 129 127 0 128 128 0 127 128 0 127 127 0 128 126 0 129 125 0 130 124 0 131 124 0 131 124 0 131 124 0 131 124 0 131 125 0 130 125 0 130 125 0 130 126 0 129 126 0 129 126 0 129 126 0 129 126 0 129 126 0 129 125 0 130 125 0 130 125 0 130 125 0 130 125 0 130 125 0 130 125 0 130 126 0 129 127 0 128 127 0 128 128 0 127 128 0 127 129 0 126 128 0 127 128 0 127 127 0 128 126 0 129 124 0 131 121 0 134 119 0 136 117 0 138 116 0 139 115 0 140 116 0 139 117 0 138 119 0 136 121 0 134 123 0 132 124 0 131 126 0 129 126 0 129 126 0 129 126 0 129 125 0 130 125 0 130 125 0 130 125 0 130 126 0 129 126 0 129 126 0 129 126 0 129 126 0 129 125 0 130 124 0 131 123 0 132 123 0 132 123 0 132 123 0 132 124 0 131 126 0 129 127 0 128 121 0 134 81 0 174 
167 0 88 127 0 128 124 0 131 125 0 130 127 0 128 128 0 127 128 0 127 128 0 127 127 0 128 126 0 129 125 0 130 124 0 131 124 0 131 123 0 132 124 0 131 124 0 131 125 0 130 126 0 129 128 0 127 129 0 126 130 0 125 131 0 124 131 0 124 131 0 124 130 0 125 129 0 126 128 0 127 128 0 127 128 0 127 128 0 127 129 0 126 129 0 126 130 0 125 130 0 125 131 0 124 131 0 124 131 0 124 131 0 124 132 0 123 131 0 124 130 0 125 129 0 126 127 0 128 125 0 130 124 0 131 123 0 132 124 0 131 125 0 130 126 0 129 128 0 127 129 0 126 130 0 125 130 0 125 130 0 125 130 0 125 129 0 126 128 0 127 127 0 128 126 0 129 126 0 129 127 0 128 127 0 128 128 0 127 128 0 127 128 0 127 127 0 128 127 0 128 127 0 128 127 0 128 126 0 129 126 0 129 125 0 130 124 0 131 123 0 132 122 0 133 122 0 133 122 0 133 123 0 132 124 0 131 125 0 130 126 0 129 128 0 127 129 0 126 130 0 125 132 0 123 132 0 123 133 0 122 133 0 122 133 0 122 132 0 123 131 0 124 130 0 125 129 0 126 129 0 126 128 0 127 128 0 127 127 0 128 127 0 128 127 0 128 127 0 128 126 0 129 125 0 130 123 0 132 122 0 133 120 0 135 119 0 136 118 0 137 118 0 137 119 0 136 120 0 135 121 0 134 122 0 133 123 0 132 124 0 131 125 0 130 125 0 130 126 0 129 125 0 130 125 0 130 124 0 131 123 0 132 122 0 133 122 0 133 123 0 132 124 0 131 125 0 130 126 0 129 127 0 128 127 0 128 126 0 129 126 0 129 125 0 130 124 0 131 123 0 132 123 0 132 123 0 132 124 0 131 124 0 131 125 0 130 125 0 130 126 0 129 126 0 129 126 0 129 127 0 128 127 0 128 127 0 128 126 0 129 126 0 129 126 0 129 125 0 130 125 0 130 125 0 130 125 0 130 125 0 130 125 0 130 126 0 129 126 0 129 127 0 128 127 0 128 128 0 127 128 0 127 127 0 128 126 0 129 125 0 130 123 0 132 121 0 134 118 0 137 117 0 138 115 0 140 115 0 140 115 0 140 117 0 138 118 0 137 120 0 135 122 0 133 124 0 131 125 0 130 126 0 129 126 0 129 126 0 129 126 0 129 126 0 129 126 0 129 126 0 129 126 0 129 127 0 128 127 0 128 127 0 128 126 0 129 125 0 130 124 0 131 123 0 132 123 0 132 123 0 132 123 0 132 125 0 130 127 0 128 130 0 125 138 0 117 170 0 85 
82 0 173 113 0 142 122 0 133 125 0 130 127 0 128 127 0 128 128 0 127 127 0 128 127 0 128 126 0 129 125 0 130 124 0 131 123 0 132 123 0 132 123 0 132 124 0 131 125 0 130 126 0 129 128 0 127 130 0 125 131 0 124 132 0 123 132 0 123 132 0 123 131 0 124 130 0 125 129 0 126 128 0 127 128 0 127 129 0 126 129 0 126 130 0 125 130 0 125 131 0 124 131 0 124 131 0 124 132 0 123 132 0 123 132 0 123 131 0 124 130 0 125 129 0 126 127 0 128 125 0 130 124 0 131 124 0 131 124 0 131 125 0 130 127 0 128 128 0 127 129 0 126 130 0 125 130 0 125 130 0 125 129 0 126 128 0 127 127 0 128 126 0 129 126 0 129 126 0 129 127 0 128 127 0 128 128 0 127 128 0 127 127 0 128 127 0 128 127 0 128 126 0 129 126 0 129 126 0 129 125 0 130 124 0 131 123 0 132 122 0 133 121 0 134 121 0 134 122 0 133 122 0 133 123 0 132 125 0 130 126 0 129 127 0 128 128 0 127 130 0 125 131 0 124 131 0 124 132 0 123 132 0 123 132 0 123 131 0 124 130 0 125 130 0 125 129 0 126 128 0 127 128 0 127 127 0 128 127 0 128 127 0 128 127 0 128 127 0 128 127 0 128 126 0 129 124 0 131 123 0 132 121 0 134 119 0 136 119 0 136 118 0 137 119 0 136 120 0 135 121 0 134 122 0 133 123 0 132 124 0 131 125 0 130 125 0 130 126 0 129 125 0 130 125 0 130 124 0 131 123 0 132 122 0 133 122 0 133 123 0 132 123 0 132 124 0 131 125 0 130 125 0 130 125 0 130 125 0 130 124 0 131 123 0 132 123 0 132 122 0 133 122 0 133 123 0 132 123 0 132 124 0 131 125 0 130 125 0 130 126 0 129 126 0 129 127 0 128 127 0 128 127 0 128 127 0 128 127 0 128 127 0 128 126 0 129 126 0 129 126 0 129 125 0 130 125 0 130 125 0 130 124 0 131 125 0 130 125 0 130 126 0 129 126 0 129 127 0 128 126 0 129 126 0 129 125 0 130 124 0 131 122 0 133 120 0 135 118 0 137 117 0 138 115 0 140 115 0 140 115 0 140 117 0 138 118 0 137 120 0 135 122 0 133 123 0 132 124 0 131 125 0 130 126 0 129 126 0 129 126 0 129 126 0 129 126 0 129 126 0 129 127 0 128 127 0 128 127 0 128 127 0 128 126 0 129 126 0 129 125 0 130 124 0 131 123 0 132 123 0 132 123 0 132 125 0 130 127 0 128 129 0 126 129 0 126 112 0 143 
101 0 154 122 0 133 127 0 128 128 0 127 128 0 127 128 0 127 128 0 127 127 0 128 127 0 128 126 0 129 125 0 130 124 0 131 123 0 132 122 0 133 122 0 133 123 0 132 124 0 131 126 0 129 128 0 127 130 0 125 131 0 124 132 0 123 133 0 122 132 0 123 131 0 124 130 0 125 129 0 126 128 0 127 128 0 127 129 0 126 129 0 126 130 0 125 131 0 124 131 0 124 131 0 124 132 0 123 132 0 123 132 0 123 132 0 123 131 0 124 130 0 125 128 0 127 127 0 128 125 0 130 124 0 131 124 0 131 125 0 130 126 0 129 127 0 128 129 0 126 130 0 125 130 0 125 130 0 125 130 0 125 129 0 126 128 0 127 127 0 128 126 0 129 126 0 129 126 0 129 127 0 128 127 0 128 128 0 127 127 0 128 127 0 128 126 0 129 126 0 129 126 0 129 125 0 130 125 0 130 124 0 131 123 0 132 122 0 133 122 0 133 121 0 134 121 0 134 121 0 134 122 0 133 123 0 132 124 0 131 125 0 130 126 0 129 128 0 127 128 0 127 129 0 126 130 0 125 130 0 125 130 0 125 130 0 125 130 0 125 129 0 126 128 0 127 128 0 127 127 0 128 127 0 128 127 0 128 127 0 128 127 0 128 127 0 128 128 0 127 127 0 128 127 0 128 126 0 129 124 0 131 122 0 133 121 0 134 120 0 135 119 0 136 119 0 136 120 0 135 121 0 134 122 0 133 123 0 132 124 0 131 125 0 130 126 0 129 126 0 129 125 0 130 125 0 130 124 0 131 123 0 132 122 0 133 122 0 133 123 0 132 124 0 131 124 0 131 125 0 130 124 0 131 124 0 131 123 0 132 123 0 132 122 0 133 122 0 133 122 0 133 122 0 133 122 0 133 123 0 132 124 0 131 125 0 130 126 0 129 126 0 129 126 0 129 127 0 128 127 0 128 127 0 128 127 0 128 127 0 128 127 0 128 127 0 128 127 0 128 126 0 129 125 0 130 125 0 130 124 0 131 124 0 131 124 0 131 124 0 131 125 0 130 125 0 130 126 0 129 126 0 129 125 0 130 124 0 131 123 0 132 122 0 133 120 0 135 118 0 137 117 0 138 116 0 139 116 0 139 116 0 139 117 0 138 118 0 137 120 0 135 121 0 134 123 0 132 124 0 131 125 0 130 125 0 130 125 0 130 125 0 130 125 0 130 125 0 130 126 0 129 126 0 129 126 0 129 127 0 128 127 0 128 126 0 129 125 0 130 124 0 131 123 0 132 123 0 132 123 0 132 123 0 132 125 0 130 128 0 127 132 0 123 138 0 117 146 0 109 
175 0 80 147 0 108 136 0 119 131 0 124 129 0 126 128 0 127 128 0 127 128 0 127 128 0 127 127 0 128 126 0 129 124 0 131 123 0 132 122 0 133 122 0 133 123 0 132 124 0 131 126 0 129 128 0 127 130 0 125 132 0 123 133 0 122 133 0 122 132 0 123 131 0 124 130 0 125 129 0 126 128 0 127 128 0 127 129 0 126 130 0 125 130 0 125 131 0 124 131 0 124 132 0 123 132 0 123 132 0 123 132 0 123 132 0 123 131 0 124 130 0 125 128 0 127 127 0 128 126 0 129 125 0 130 125 0 130 125 0 130 127 0 128 128 0 127 129 0 126 130 0 125 130 0 125 130 0 125 129 0 126 128 0 127 128 0 127 127 0 128 126 0 129 126 0 129 127 0 128 127 0 128 128 0 127 128 0 127 127 0 128 127 0 128 126 0 129 125 0 130 125 0 130 125 0 130 124 0 131 124 0 131 123 0 132 122 0 133 121 0 134 121 0 134 121 0 134 121 0 134 122 0 133 123 0 132 124 0 131 125 0 130 126 0 129 126 0 129 127 0 128 128 0 127 128 0 127 128 0 127 128 0 127 128 0 127 128 0 127 127 0 128 127 0 128 127 0 128 127 0 128 127 0 128 127 0 128 127 0 128 128 0 127 128 0 127 128 0 127 128 0 127 128 0 127 127 0 128 126 0 129 124 0 131 122 0 133 121 0 134 120 0 135 120 0 135 120 0 135 121 0 134 121 0 134 122 0 133 124 0 131 125 0 130 125 0 130 126 0 129 125 0 130 125 0 130 124 0 131 123 0 132 123 0 132 123 0 132 124 0 131 124 0 131 125 0 130 125 0 130 124 0 131 124 0 131 123 0 132 122 0 133 122 0 133 122 0 133 122 0 133 122 0 133 122 0 133 123 0 132 124 0 131 125 0 130 125 0 130 126 0 129 126 0 129 126 0 129 126 0 129 127 0 128 127 0 128 127 0 128 127 0 128 127 0 128 127 0 128 126 0 129 125 0 130 124 0 131 123 0 132 123 0 132 123 0 132 123 0 132 124 0 131 124 0 131 125 0 130 125 0 130 125 0 130 124 0 131 123 0 132 122 0 133 121 0 134 119 0 136 118 0 137 117 0 138 117 0 138 117 0 138 118 0 137 119 0 136 120 0 135 121 0 134 123 0 132 124 0 131 125 0 130 125 0 130 125 0 130 125 0 130 125 0 130 125 0 130 125 0 130 125 0 130 125 0 130 126 0 129 126 0 129 125 0 130 125 0 130 124 0 131 123 0 132 122 0 133 122 0 133 123 0 132 124 0 131 127 0 128 133 0 122 145 0 110 175 0 80 
196 0 59 155 0 100 140 0 115 133 0 122 130 0 125 129 0 126 129 0 126 129 0 126 128 0 127 128 0 127 126 0 129 125 0 130 124 0 131 123 0 132 122 0 133 123 0 132 125 0 130 127 0 128 129 0 126 130 0 125 132 0 123 132 0 123 132 0 123 131 0 124 130 0 125 129 0 126 128 0 127 127 0 128 128 0 127 128 0 127 129 0 126 130 0 125 131 0 124 132 0 123 132 0 123 132 0 123 132 0 123 132 0 123 132 0 123 131 0 124 130 0 125 128 0 127 127 0 128 126 0 129 125 0 130 126 0 129 126 0 129 127 0 128 128 0 127 129 0 126 130 0 125 130 0 125 130 0 125 129 0 126 128 0 127 128 0 127 127 0 128 127 0 128 127 0 128 128 0 127 128 0 127 128 0 127 128 0 127 127 0 128 126 0 129 125 0 130 125 0 130 124 0 131 124 0 131 123 0 132 123 0 132 122 0 133 121 0 134 121 0 134 121 0 134 121 0 134 122 0 133 123 0 132 124 0 131 124 0 131 125 0 130 125 0 130 126 0 129 126 0 129 126 0 129 126 0 129 126 0 129 126 0 129 126 0 129 125 0 130 125 0 130 125 0 130 126 0 129 126 0 129 126 0 129 127 0 128 127 0 128 128 0 127 129 0 126 129 0 126 129 0 126 129 0 126 129 0 126 128 0 127 126 0 129 124 0 131 123 0 132 121 0 134 121 0 134 121 0 134 121 0 134 121 0 134 122 0 133 123 0 132 124 0 131 125 0 130 125 0 130 125 0 130 125 0 130 124 0 131 123 0 132 123 0 132 124 0 131 125 0 130 126 0 129 126 0 129 126 0 129 125 0 130 124 0 131 123 0 132 122 0 133 122 0 133 122 0 133 122 0 133 122 0 133 122 0 133 123 0 132 124 0 131 124 0 131 125 0 130 125 0 130 125 0 130 125 0 130 125 0 130 126 0 129 126 0 129 126 0 129 126 0 129 126 0 129 126 0 129 125 0 130 124 0 131 123 0 132 122 0 133 122 0 133 122 0 133 122 0 133 123 0 132 124 0 131 124 0 131 125 0 130 125 0 130 124 0 131 124 0 131 123 0 132 122 0 133 121 0 134 120 0 135 119 0 136 119 0 136 119 0 136 119 0 136 120 0 135 120 0 135 121 0 134 123 0 132 124 0 131 124 0 131 125 0 130 124 0 131 124 0 131 124 0 131 123 0 132 123 0 132 123 0 132 124 0 131 124 0 131 125 0 130 124 0 131 124 0 131 123 0 132 122 0 133 121 0 134 121 0 134 121 0 134 122 0 133 124 0 131 127 0 128 135 0 120 158 0 97 
125 0 130 139 0 116 136 0 119 133 0 122 130 0 125 129 0 126 129 0 126 129 0 126 129 0 126 129 0 126 127 0 128 126 0 129 124 0 131 123 0 132 123 0 132 124 0 131 125 0 130 127 0 128 129 0 126 131 0 124 132 0 123 132 0 123 132 0 123 131 0 124 129 0 126 128 0 127 127 0 128 127 0 128 127 0 128 128 0 127 129 0 126 130 0 125 131 0 124 132 0 123 132 0 123 132 0 123 132 0 123 132 0 123 131 0 124 131 0 124 130 0 125 128 0 127 127 0 128 127 0 128 126 0 129 127 0 128 127 0 128 128 0 127 129 0 126 129 0 126 130 0 125 130 0 125 129 0 126 129 0 126 128 0 127 127 0 128 127 0 128 127 0 128 128 0 127 129 0 126 129 0 126 129 0 126 129 0 126 128 0 127 126 0 129 125 0 130 124 0 131 124 0 131 123 0 132 123 0 132 122 0 133 122 0 133 121 0 134 121 0 134 121 0 134 122 0 133 123 0 132 123 0 132 124 0 131 125 0 130 125 0 130 125 0 130 125 0 130 125 0 130 125 0 130 125 0 130 125 0 130 124 0 131 124 0 131 124 0 131 124 0 131 124 0 131 125 0 130 125 0 130 126 0 129 127 0 128 128 0 127 129 0 126 129 0 126 130 0 125 131 0 124 131 0 124 131 0 124 130 0 125 128 0 127 126 0 129 125 0 130 123 0 132 122 0 133 121 0 134 121 0 134 121 0 134 122 0 133 122 0 133 123 0 132 124 0 131 125 0 130 125 0 130 125 0 130 124 0 131 124 0 131 124 0 131 125 0 130 126 0 129 127 0 128 128 0 127 127 0 128 126 0 129 125 0 130 124 0 131 123 0 132 123 0 132 122 0 133 122 0 133 122 0 133 122 0 133 122 0 133 123 0 132 124 0 131 124 0 131 124 0 131 124 0 131 124 0 131 124 0 131 124 0 131 125 0 130 125 0 130 125 0 130 125 0 130 125 0 130 125 0 130 124 0 131 122 0 133 122 0 133 121 0 134 121 0 134 122 0 133 122 0 133 123 0 132 124 0 131 124 0 131 125 0 130 125 0 130 125 0 130 124 0 131 123 0 132 122 0 133 121 0 134 121 0 134 120 0 135 120 0 135 120 0 135 120 0 135 121 0 134 121 0 134 122 0 133 123 0 132 124 0 131 124 0 131 123 0 132 123 0 132 122 0 133 122 0 133 122 0 133 122 0 133 122 0 133 123 0 132 123 0 132 123 0 132 122 0 133 122 0 133 121 0 134 120 0 135 120 0 135 120 0 135 120 0 135 120 0 135 117 0 138 109 0 146 79 0 176 
141 0 114 139 0 116 134 0 121 131 0 124 130 0 125 130 0 125 130 0 125 130 0 125 130 0 125 129 0 126 128 0 127 127 0 128 125 0 130 124 0 131 124 0 131 125 0 130 126 0 129 128 0 127 130 0 125 131 0 124 132 0 123 132 0 123 131 0 124 130 0 125 129 0 126 127 0 128 126 0 129 126 0 129 126 0 129 127 0 128 129 0 126 130 0 125 131 0 124 132 0 123 132 0 123 132 0 123 132 0 123 132 0 123 131 0 124 130 0 125 129 0 126 128 0 127 127 0 128 127 0 128 127 0 128 127 0 128 128 0 127 128 0 127 129 0 126 129 0 126 129 0 126 129 0 126 128 0 127 128 0 127 127 0 128 127 0 128 127 0 128 127 0 128 128 0 127 129 0 126 130 0 125 130 0 125 129 0 126 128 0 127 126 0 129 125 0 130 124 0 131 124 0 131 123 0 132 123 0 132 122 0 133 121 0 134 121 0 134 121 0 134 122 0 133 123 0 132 124 0 131 125 0 130 126 0 129 126 0 129 126 0 129 125 0 130 125 0 130 124 0 131 124 0 131 124 0 131 123 0 132 123 0 132 123 0 132 122 0 133 122 0 133 123 0 132 124 0 131 125 0 130 127 0 128 128 0 127 129 0 126 129 0 126 130 0 125 131 0 124 132 0 123 133 0 122 133 0 122 132 0 123 130 0 125 128 0 127 126 0 129 125 0 130 123 0 132 122 0 133 121 0 134 121 0 134 121 0 134 121 0 134 122 0 133 123 0 132 124 0 131 124 0 131 124 0 131 124 0 131 124 0 131 125 0 130 126 0 129 127 0 128 128 0 127 129 0 126 129 0 126 128 0 127 127 0 128 126 0 129 125 0 130 124 0 131 123 0 132 123 0 132 122 0 133 122 0 133 122 0 133 122 0 133 123 0 132 123 0 132 123 0 132 123 0 132 123 0 132 123 0 132 123 0 132 123 0 132 124 0 131 124 0 131 124 0 131 124 0 131 124 0 131 123 0 132 122 0 133 121 0 134 121 0 134 121 0 134 121 0 134 122 0 133 123 0 132 124 0 131 125 0 130 125 0 130 125 0 130 125 0 130 125 0 130 125 0 130 124 0 131 123 0 132 123 0 132 122 0 133 121 0 134 121 0 134 121 0 134 121 0 134 121 0 134 122 0 133 122 0 133 123 0 132 123 0 132 122 0 133 122 0 133 121 0 134 120 0 135 120 0 135 120 0 135 121 0 134 121 0 134 122 0 133 122 0 133 121 0 134 120 0 135 119 0 136 118 0 137 118 0 137 118 0 137 118 0 137 117 0 138 114 0 141 103 0 152 72 0 183 
171 0 84 140 0 115 132 0 123 129 0 126 129 0 126 129 0 126 130 0 125 131 0 124 131 0 124 130 0 125 129 0 126 127 0 128 126 0 129 125 0 130 125 0 130 126 0 129 127 0 128 129 0 126 130 0 125 131 0 124 132 0 123 132 0 123 131 0 124 129 0 126 128 0 127 127 0 128 126 0 129 126 0 129 126 0 129 127 0 128 129 0 126 130 0 125 131 0 124 132 0 123 132 0 123 132 0 123 132 0 123 131 0 124 130 0 125 129 0 126 128 0 127 127 0 128 127 0 128 127 0 128 127 0 128 128 0 127 128 0 127 129 0 126 129 0 126 128 0 127 128 0 127 128 0 127 127 0 128 127 0 128 126 0 129 126 0 129 127 0 128 127 0 128 128 0 127 129 0 126 130 0 125 130 0 125 129 0 126 128 0 127 127 0 128 125 0 130 125 0 130 124 0 131 123 0 132 123 0 132 122 0 133 122 0 133 122 0 133 122 0 133 123 0 132 124 0 131 125 0 130 126 0 129 127 0 128 127 0 128 127 0 128 126 0 129 125 0 130 124 0 131 124 0 131 123 0 132 123 0 132 122 0 133 122 0 133 122 0 133 122 0 133 123 0 132 124 0 131 126 0 129 127 0 128 128 0 127 129 0 126 130 0 125 131 0 124 132 0 123 133 0 122 134 0 121 134 0 121 134 0 121 132 0 123 130 0 125 128 0 127 126 0 129 124 0 131 123 0 132 121 0 134 120 0 135 120 0 135 120 0 135 121 0 134 121 0 134 122 0 133 123 0 132 123 0 132 124 0 131 124 0 131 125 0 130 126 0 129 128 0 127 129 0 126 130 0 125 130 0 125 129 0 126 128 0 127 127 0 128 126 0 129 125 0 130 124 0 131 123 0 132 122 0 133 122 0 133 122 0 133 122 0 133 122 0 133 122 0 133 122 0 133 122 0 133 122 0 133 122 0 133 122 0 133 123 0 132 123 0 132 123 0 132 123 0 132 123 0 132 123 0 132 122 0 133 121 0 134 120 0 135 120 0 135 120 0 135 121 0 134 122 0 133 123 0 132 124 0 131 125 0 130 125 0 130 126 0 129 126 0 129 126 0 129 126 0 129 125 0 130 125 0 130 124 0 131 123 0 132 123 0 132 122 0 133 122 0 133 121 0 134 121 0 134 121 0 134 121 0 134 122 0 133 121 0 134 121 0 134 121 0 134 120 0 135 119 0 136 119 0 136 119 0 136 119 0 136 120 0 135 120 0 135 120 0 135 120 0 135 119 0 136 118 0 137 117 0 138 117 0 138 117 0 138 117 0 138 118 0 137 117 0 138 118 0 137 137 0 118 
105 0 150 120 0 135 124 0 131 126 0 129 127 0 128 129 0 126 130 0 125 131 0 124 131 0 124 131 0 124 130 0 125 128 0 127 127 0 128 126 0 129 126 0 129 127 0 128 128 0 127 130 0 125 131 0 124 132 0 123 132 0 123 131 0 124 130 0 125 129 0 126 128 0 127 127 0 128 126 0 129 126 0 129 126 0 129 127 0 128 129 0 126 130 0 125 131 0 124 132 0 123 132 0 123 132 0 123 131 0 124 130 0 125 129 0 126 128 0 127 127 0 128 126 0 129 126 0 129 127 0 128 127 0 128 128 0 127 128 0 127 128 0 127 128 0 127 128 0 127 127 0 128 126 0 129 126 0 129 125 0 130 125 0 130 125 0 130 126 0 129 127 0 128 128 0 127 129 0 126 130 0 125 130 0 125 129 0 126 128 0 127 127 0 128 126 0 129 125 0 130 125 0 130 124 0 131 124 0 131 123 0 132 123 0 132 123 0 132 123 0 132 124 0 131 126 0 129 127 0 128 128 0 127 129 0 126 129 0 126 128 0 127 127 0 128 125 0 130 124 0 131 123 0 132 123 0 132 122 0 133 122 0 133 122 0 133 122 0 133 122 0 133 123 0 132 125 0 130 126 0 129 128 0 127 129 0 126 130 0 125 131 0 124 132 0 123 133 0 122 134 0 121 135 0 120 135 0 120 135 0 120 134 0 121 132 0 123 130 0 125 127 0 128 125 0 130 123 0 132 121 0 134 120 0 135 119 0 136 119 0 136 119 0 136 120 0 135 121 0 134 122 0 133 123 0 132 123 0 132 124 0 131 125 0 130 126 0 129 128 0 127 129 0 126 130 0 125 130 0 125 130 0 125 129 0 126 128 0 127 127 0 128 126 0 129 125 0 130 124 0 131 123 0 132 122 0 133 121 0 134 121 0 134 121 0 134 122 0 133 122 0 133 122 0 133 122 0 133 122 0 133 122 0 133 122 0 133 122 0 133 122 0 133 122 0 133 122 0 133 122 0 133 121 0 134 121 0 134 120 0 135 120 0 135 120 0 135 120 0 135 121 0 134 122 0 133 123 0 132 124 0 131 126 0 129 126 0 129 127 0 128 127 0 128 127 0 128 126 0 129 125 0 130 125 0 130 124 0 131 123 0 132 123 0 132 122 0 133 122 0 133 121 0 134 121 0 134 121 0 134 121 0 134 121 0 134 120 0 135 120 0 135 119 0 136 118 0 137 118 0 137 118 0 137 118 0 137 119 0 136 119 0 136 120 0 135 119 0 136 118 0 137 117 0 138 116 0 139 116 0 139 117 0 138 117 0 138 119 0 136 119 0 136 116 0 139 88 0 167 
107 0 148 109 0 146 117 0 138 122 0 133 126 0 129 128 0 127 130 0 125 131 0 124 132 0 123 131 0 124 131 0 124 129 0 126 128 0 127 127 0 128 127 0 128 128 0 127 129 0 126 130 0 125 131 0 124 132 0 123 131 0 124 131 0 124 130 0 125 129 0 126 128 0 127 128 0 127 127 0 128 127 0 128 127 0 128 128 0 127 129 0 126 130 0 125 132 0 123 132 0 123 132 0 123 131 0 124 130 0 125 129 0 126 127 0 128 126 0 129 125 0 130 125 0 130 125 0 130 126 0 129 127 0 128 127 0 128 128 0 127 128 0 127 128 0 127 127 0 128 126 0 129 125 0 130 125 0 130 125 0 130 124 0 131 125 0 130 126 0 129 127 0 128 128 0 127 129 0 126 130 0 125 130 0 125 129 0 126 129 0 126 128 0 127 127 0 128 127 0 128 126 0 129 126 0 129 125 0 130 125 0 130 124 0 131 124 0 131 125 0 130 126 0 129 127 0 128 129 0 126 130 0 125 130 0 125 130 0 125 129 0 126 127 0 128 126 0 129 124 0 131 123 0 132 123 0 132 122 0 133 122 0 133 122 0 133 122 0 133 123 0 132 124 0 131 126 0 129 127 0 128 129 0 126 130 0 125 131 0 124 132 0 123 133 0 122 134 0 121 135 0 120 136 0 119 136 0 119 136 0 119 134 0 121 132 0 123 130 0 125 128 0 127 126 0 129 123 0 132 121 0 134 119 0 136 118 0 137 117 0 138 118 0 137 118 0 137 120 0 135 121 0 134 122 0 133 123 0 132 124 0 131 125 0 130 126 0 129 127 0 128 128 0 127 129 0 126 130 0 125 130 0 125 129 0 126 129 0 126 128 0 127 127 0 128 125 0 130 124 0 131 123 0 132 122 0 133 121 0 134 121 0 134 121 0 134 121 0 134 122 0 133 122 0 133 122 0 133 122 0 133 122 0 133 122 0 133 122 0 133 122 0 133 122 0 133 121 0 134 121 0 134 121 0 134 120 0 135 120 0 135 119 0 136 119 0 136 120 0 135 120 0 135 121 0 134 123 0 132 124 0 131 125 0 130 126 0 129 127 0 128 127 0 128 127 0 128 126 0 129 126 0 129 125 0 130 125 0 130 124 0 131 123 0 132 123 0 132 122 0 133 121 0 134 121 0 134 121 0 134 120 0 135 120 0 135 120 0 135 119 0 136 119 0 136 118 0 137 118 0 137 118 0 137 118 0 137 119 0 136 119 0 136 119 0 136 119 0 136 118 0 137 117 0 138 116 0 139 116 0 139 117 0 138 118 0 137 121 0 134 126 0 129 138 0 117 172 0 83 
43 0 212 94 0 161 112 0 143 121 0 134 125 0 130 128 0 127 129 0 126 131 0 124 131 0 124 132 0 123 131 0 124 130 0 125 129 0 126 129 0 126 129 0 126 129 0 126 130 0 125 130 0 125 131 0 124 131 0 124 131 0 124 130 0 125 130 0 125 129 0 126 129 0 126 128 0 127 127 0 128 127 0 128 127 0 128 128 0 127 130 0 125 131 0 124 132 0 123 132 0 123 132 0 123 131 0 124 129 0 126 127 0 128 126 0 129 124 0 131 123 0 132 123 0 132 124 0 131 125 0 130 126 0 129 127 0 128 127 0 128 127 0 128 127 0 128 126 0 129 126 0 129 125 0 130 124 0 131 124 0 131 124 0 131 125 0 130 125 0 130 127 0 128 128 0 127 129 0 126 130 0 125 130 0 125 129 0 126 129 0 126 128 0 127 128 0 127 128 0 127 128 0 127 127 0 128 127 0 128 126 0 129 126 0 129 126 0 129 126 0 129 127 0 128 128 0 127 130 0 125 131 0 124 131 0 124 131 0 124 129 0 126 128 0 127 126 0 129 124 0 131 123 0 132 122 0 133 122 0 133 122 0 133 122 0 133 123 0 132 124 0 131 125 0 130 126 0 129 128 0 127 129 0 126 130 0 125 131 0 124 132 0 123 133 0 122 134 0 121 135 0 120 136 0 119 136 0 119 136 0 119 134 0 121 133 0 122 130 0 125 128 0 127 126 0 129 123 0 132 121 0 134 119 0 136 117 0 138 116 0 139 117 0 138 117 0 138 119 0 136 120 0 135 121 0 134 122 0 133 123 0 132 124 0 131 125 0 130 126 0 129 127 0 128 128 0 127 129 0 126 129 0 126 129 0 126 128 0 127 128 0 127 127 0 128 125 0 130 124 0 131 122 0 133 121 0 134 121 0 134 121 0 134 121 0 134 122 0 133 122 0 133 123 0 132 123 0 132 123 0 132 123 0 132 122 0 133 122 0 133 121 0 134 121 0 134 121 0 134 121 0 134 120 0 135 120 0 135 119 0 136 119 0 136 118 0 137 119 0 136 119 0 136 120 0 135 122 0 133 123 0 132 125 0 130 126 0 129 127 0 128 127 0 128 127 0 128 127 0 128 126 0 129 125 0 130 125 0 130 124 0 131 124 0 131 123 0 132 122 0 133 122 0 133 121 0 134 121 0 134 121 0 134 120 0 135 120 0 135 120 0 135 119 0 136 118 0 137 118 0 137 118 0 137 118 0 137 119 0 136 119 0 136 119 0 136 119 0 136 118 0 137 117 0 138 117 0 138 116 0 139 117 0 138 118 0 137 122 0 133 127 0 128 138 0 117 151 0 104 
97 0 158 109 0 146 117 0 138 122 0 133 125 0 130 127 0 128 129 0 126 130 0 125 131 0 124 131 0 124 131 0 124 131 0 124 130 0 125 130 0 125 129 0 126 129 0 126 130 0 125 130 0 125 130 0 125 130 0 125 130 0 125 129 0 126 129 0 126 129 0 126 129 0 126 128 0 127 128 0 127 128 0 127 128 0 127 129 0 126 130 0 125 131 0 124 132 0 123 132 0 123 131 0 124 130 0 125 128 0 127 126 0 129 124 0 131 122 0 133 122 0 133 122 0 133 123 0 132 124 0 131 125 0 130 126 0 129 127 0 128 127 0 128 127 0 128 126 0 129 126 0 129 125 0 130 125 0 130 124 0 131 124 0 131 125 0 130 126 0 129 127 0 128 128 0 127 129 0 126 129 0 126 129 0 126 129 0 126 129 0 126 129 0 126 129 0 126 129 0 126 129 0 126 129 0 126 129 0 126 128 0 127 127 0 128 127 0 128 127 0 128 128 0 127 129 0 126 130 0 125 131 0 124 131 0 124 131 0 124 130 0 125 128 0 127 126 0 129 124 0 131 123 0 132 122 0 133 122 0 133 122 0 133 122 0 133 123 0 132 124 0 131 125 0 130 127 0 128 128 0 127 129 0 126 130 0 125 131 0 124 132 0 123 133 0 122 134 0 121 135 0 120 136 0 119 136 0 119 135 0 120 134 0 121 132 0 123 130 0 125 128 0 127 126 0 129 123 0 132 121 0 134 119 0 136 117 0 138 116 0 139 116 0 139 117 0 138 118 0 137 120 0 135 121 0 134 122 0 133 123 0 132 123 0 132 124 0 131 125 0 130 125 0 130 126 0 129 127 0 128 128 0 127 128 0 127 128 0 127 127 0 128 126 0 129 125 0 130 124 0 131 122 0 133 121 0 134 120 0 135 120 0 135 121 0 134 122 0 133 123 0 132 124 0 131 124 0 131 124 0 131 123 0 132 123 0 132 122 0 133 121 0 134 121 0 134 120 0 135 120 0 135 120 0 135 119 0 136 118 0 137 118 0 137 118 0 137 118 0 137 118 0 137 119 0 136 121 0 134 122 0 133 124 0 131 126 0 129 127 0 128 127 0 128 127 0 128 127 0 128 126 0 129 126 0 129 125 0 130 124 0 131 124 0 131 123 0 132 123 0 132 122 0 133 122 0 133 122 0 133 122 0 133 121 0 134 121 0 134 120 0 135 120 0 135 119 0 136 119 0 136 118 0 137 118 0 137 119 0 136 119 0 136 120 0 135 119 0 136 119 0 136 118 0 137 117 0 138 117 0 138 117 0 138 118 0 137 120 0 135 124 0 131 134 0 121 164 0 91 
153 0 102 129 0 126 124 0 131 125 0 130 126 0 129 127 0 128 128 0 127 129 0 126 130 0 125 131 0 124 131 0 124 131 0 124 130 0 125 130 0 125 130 0 125 130 0 125 129 0 126 129 0 126 129 0 126 128 0 127 128 0 127 128 0 127 128 0 127 128 0 127 128 0 127 128 0 127 128 0 127 128 0 127 128 0 127 129 0 126 130 0 125 130 0 125 131 0 124 131 0 124 130 0 125 128 0 127 126 0 129 124 0 131 122 0 133 121 0 134 121 0 134 121 0 134 122 0 133 123 0 132 124 0 131 125 0 130 126 0 129 126 0 129 126 0 129 126 0 129 126 0 129 126 0 129 125 0 130 125 0 130 125 0 130 125 0 130 126 0 129 127 0 128 128 0 127 128 0 127 129 0 126 129 0 126 129 0 126 129 0 126 129 0 126 130 0 125 130 0 125 130 0 125 130 0 125 130 0 125 129 0 126 129 0 126 128 0 127 128 0 127 128 0 127 129 0 126 130 0 125 131 0 124 131 0 124 131 0 124 130 0 125 128 0 127 126 0 129 124 0 131 123 0 132 122 0 133 122 0 133 122 0 133 122 0 133 123 0 132 124 0 131 126 0 129 127 0 128 128 0 127 129 0 126 130 0 125 131 0 124 132 0 123 133 0 122 134 0 121 135 0 120 136 0 119 136 0 119 135 0 120 133 0 122 131 0 124 129 0 126 127 0 128 125 0 130 123 0 132 121 0 134 118 0 137 117 0 138 116 0 139 116 0 139 117 0 138 118 0 137 120 0 135 121 0 134 122 0 133 123 0 132 123 0 132 123 0 132 124 0 131 124 0 131 125 0 130 126 0 129 126 0 129 127 0 128 127 0 128 126 0 129 126 0 129 125 0 130 123 0 132 122 0 133 121 0 134 120 0 135 121 0 134 121 0 134 123 0 132 124 0 131 125 0 130 125 0 130 125 0 130 124 0 131 123 0 132 122 0 133 121 0 134 121 0 134 120 0 135 120 0 135 120 0 135 119 0 136 118 0 137 118 0 137 117 0 138 117 0 138 117 0 138 118 0 137 119 0 136 121 0 134 123 0 132 125 0 130 126 0 129 127 0 128 127 0 128 127 0 128 127 0 128 126 0 129 125 0 130 125 0 130 124 0 131 124 0 131 123 0 132 123 0 132 123 0 132 123 0 132 123 0 132 122 0 133 122 0 133 122 0 133 121 0 134 120 0 135 120 0 135 119 0 136 119 0 136 119 0 136 120 0 135 120 0 135 120 0 135 120 0 135 119 0 136 118 0 137 118 0 137 118 0 137 118 0 137 117 0 138 116 0 139 112 0 143 99 0 156 
149 0 106 129 0 126 126 0 129 126 0 129 126 0 129 127 0 128 127 0 128 128 0 127 129 0 126 130 0 125 130 0 125 130 0 125 130 0 125 130 0 125 130 0 125 129 0 126 129 0 126 128 0 127 127 0 128 127 0 128 127 0 128 127 0 128 127 0 128 128 0 127 128 0 127 128 0 127 128 0 127 127 0 128 128 0 127 128 0 127 129 0 126 129 0 126 129 0 126 129 0 126 128 0 127 126 0 129 125 0 130 123 0 132 121 0 134 121 0 134 120 0 135 121 0 134 122 0 133 123 0 132 124 0 131 125 0 130 125 0 130 126 0 129 126 0 129 126 0 129 126 0 129 126 0 129 126 0 129 126 0 129 126 0 129 126 0 129 127 0 128 127 0 128 128 0 127 128 0 127 128 0 127 129 0 126 129 0 126 129 0 126 130 0 125 130 0 125 131 0 124 131 0 124 131 0 124 131 0 124 130 0 125 129 0 126 128 0 127 128 0 127 128 0 127 128 0 127 129 0 126 130 0 125 130 0 125 130 0 125 129 0 126 128 0 127 126 0 129 125 0 130 123 0 132 122 0 133 122 0 133 122 0 133 122 0 133 123 0 132 124 0 131 125 0 130 126 0 129 127 0 128 128 0 127 129 0 126 130 0 125 131 0 124 132 0 123 134 0 121 135 0 120 135 0 120 135 0 120 134 0 121 132 0 123 130 0 125 128 0 127 126 0 129 124 0 131 122 0 133 120 0 135 118 0 137 117 0 138 116 0 139 116 0 139 117 0 138 119 0 136 120 0 135 122 0 133 122 0 133 123 0 132 123 0 132 123 0 132 123 0 132 123 0 132 124 0 131 124 0 131 125 0 130 126 0 129 126 0 129 126 0 129 125 0 130 124 0 131 123 0 132 122 0 133 121 0 134 121 0 134 121 0 134 122 0 133 123 0 132 125 0 130 126 0 129 126 0 129 126 0 129 125 0 130 124 0 131 123 0 132 122 0 133 121 0 134 121 0 134 121 0 134 120 0 135 119 0 136 119 0 136 118 0 137 117 0 138 117 0 138 116 0 139 117 0 138 118 0 137 120 0 135 122 0 133 124 0 131 126 0 129 127 0 128 128 0 127 128 0 127 127 0 128 127 0 128 126 0 129 125 0 130 124 0 131 124 0 131 124 0 131 124 0 131 124 0 131 124 0 131 124 0 131 124 0 131 123 0 132 123 0 132 122 0 133 121 0 134 120 0 135 120 0 135 120 0 135 120 0 135 120 0 135 120 0 135 120 0 135 120 0 135 120 0 135 119 0 136 119 0 136 118 0 137 118 0 137 116 0 139 111 0 144 99 0 156 59 0 196 
62 0 193 112 0 143 123 0 132 126 0 129 126 0 129 126 0 129 126 0 129 127 0 128 127 0 128 128 0 127 129 0 126 129 0 126 129 0 126 129 0 126 129 0 126 128 0 127 128 0 127 127 0 128 126 0 129 126 0 129 126 0 129 126 0 129 127 0 128 127 0 128 127 0 128 127 0 128 127 0 128 127 0 128 127 0 128 127 0 128 127 0 128 127 0 128 127 0 128 127 0 128 126 0 129 125 0 130 123 0 132 122 0 133 121 0 134 121 0 134 121 0 134 121 0 134 122 0 133 123 0 132 124 0 131 124 0 131 124 0 131 125 0 130 125 0 130 126 0 129 127 0 128 127 0 128 127 0 128 127 0 128 127 0 128 127 0 128 127 0 128 127 0 128 127 0 128 128 0 127 128 0 127 128 0 127 128 0 127 129 0 126 130 0 125 131 0 124 132 0 123 132 0 123 132 0 123 132 0 123 131 0 124 129 0 126 128 0 127 127 0 128 127 0 128 127 0 128 128 0 127 129 0 126 130 0 125 130 0 125 129 0 126 128 0 127 127 0 128 125 0 130 124 0 131 123 0 132 122 0 133 122 0 133 123 0 132 123 0 132 124 0 131 125 0 130 126 0 129 126 0 129 127 0 128 128 0 127 129 0 126 130 0 125 132 0 123 133 0 122 134 0 121 134 0 121 134 0 121 133 0 122 131 0 124 129 0 126 127 0 128 125 0 130 123 0 132 122 0 133 120 0 135 119 0 136 118 0 137 117 0 138 118 0 137 118 0 137 120 0 135 121 0 134 122 0 133 123 0 132 124 0 131 124 0 131 123 0 132 123 0 132 123 0 132 123 0 132 124 0 131 124 0 131 125 0 130 125 0 130 125 0 130 124 0 131 124 0 131 123 0 132 122 0 133 121 0 134 121 0 134 122 0 133 123 0 132 124 0 131 126 0 129 127 0 128 127 0 128 127 0 128 126 0 129 125 0 130 124 0 131 123 0 132 122 0 133 122 0 133 121 0 134 121 0 134 120 0 135 119 0 136 119 0 136 118 0 137 117 0 138 116 0 139 116 0 139 117 0 138 119 0 136 121 0 134 123 0 132 125 0 130 127 0 128 128 0 127 128 0 127 128 0 127 127 0 128 127 0 128 126 0 129 125 0 130 124 0 131 124 0 131 124 0 131 125 0 130 125 0 130 125 0 130 125 0 130 125 0 130 124 0 131 123 0 132 122 0 133 121 0 134 121 0 134 120 0 135 120 0 135 120 0 135 121 0 134 121 0 134 121 0 134 120 0 135 120 0 135 119 0 136 119 0 136 118 0 137 117 0 138 115 0 140 113 0 142 129 0 126 
143 0 112 134 0 121 130 0 125 128 0 127 126 0 129 125 0 130 125 0 130 125 0 130 126 0 129 126 0 129 127 0 128 127 0 128 128 0 127 128 0 127 128 0 127 127 0 128 127 0 128 126 0 129 126 0 129 125 0 130 126 0 129 126 0 129 126 0 129 127 0 128 127 0 128 126 0 129 126 0 129 126 0 129 125 0 130 125 0 130 125 0 130 125 0 130 125 0 130 124 0 131 124 0 131 123 0 132 122 0 133 122 0 133 122 0 133 122 0 133 122 0 133 123 0 132 123 0 132 123 0 132 124 0 131 124 0 131 124 0 131 124 0 131 125 0 130 126 0 129 127 0 128 128 0 127 128 0 127 128 0 127 128 0 127 128 0 127 127 0 128 127 0 128 127 0 128 127 0 128 127 0 128 127 0 128 128 0 127 129 0 126 130 0 125 131 0 124 132 0 123 133 0 122 133 0 122 132 0 123 131 0 124 129 0 126 127 0 128 126 0 129 125 0 130 126 0 129 127 0 128 128 0 127 129 0 126 129 0 126 129 0 126 129 0 126 127 0 128 126 0 129 125 0 130 123 0 132 123 0 132 123 0 132 123 0 132 123 0 132 124 0 131 125 0 130 125 0 130 125 0 130 126 0 129 127 0 128 128 0 127 129 0 126 131 0 124 132 0 123 133 0 122 134 0 121 133 0 122 132 0 123 130 0 125 128 0 127 126 0 129 124 0 131 123 0 132 121 0 134 120 0 135 119 0 136 119 0 136 119 0 136 119 0 136 120 0 135 121 0 134 122 0 133 123 0 132 124 0 131 124 0 131 124 0 131 124 0 131 123 0 132 123 0 132 123 0 132 123 0 132 124 0 131 124 0 131 124 0 131 124 0 131 124 0 131 123 0 132 123 0 132 122 0 133 122 0 133 122 0 133 123 0 132 124 0 131 125 0 130 127 0 128 127 0 128 128 0 127 127 0 128 126 0 129 125 0 130 124 0 131 124 0 131 123 0 132 123 0 132 123 0 132 122 0 133 122 0 133 121 0 134 120 0 135 119 0 136 118 0 137 117 0 138 116 0 139 117 0 138 118 0 137 120 0 135 122 0 133 124 0 131 126 0 129 128 0 127 128 0 127 128 0 127 128 0 127 127 0 128 126 0 129 125 0 130 125 0 130 125 0 130 125 0 130 125 0 130 126 0 129 126 0 129 126 0 129 126 0 129 125 0 130 124 0 131 123 0 132 122 0 133 121 0 134 121 0 134 120 0 135 121 0 134 121 0 134 121 0 134 121 0 134 120 0 135 120 0 135 120 0 135 120 0 135 120 0 135 120 0 135 117 0 138 108 0 147 73 0 182 
181 0 74 151 0 104 137 0 118 129 0 126 126 0 129 124 0 131 124 0 131 124 0 131 124 0 131 125 0 130 125 0 130 126 0 129 126 0 129 126 0 129 127 0 128 126 0 129 126 0 129 126 0 129 125 0 130 125 0 130 126 0 129 126 0 129 126 0 129 126 0 129 126 0 129 126 0 129 125 0 130 124 0 131 123 0 132 123 0 132 123 0 132 123 0 132 122 0 133 122 0 133 122 0 133 122 0 133 122 0 133 122 0 133 122 0 133 123 0 132 124 0 131 124 0 131 124 0 131 124 0 131 124 0 131 124 0 131 124 0 131 124 0 131 125 0 130 126 0 129 127 0 128 128 0 127 129 0 126 129 0 126 129 0 126 128 0 127 127 0 128 127 0 128 126 0 129 126 0 129 126 0 129 127 0 128 128 0 127 129 0 126 130 0 125 131 0 124 132 0 123 133 0 122 133 0 122 132 0 123 130 0 125 128 0 127 126 0 129 125 0 130 124 0 131 125 0 130 125 0 130 127 0 128 128 0 127 129 0 126 129 0 126 129 0 126 128 0 127 127 0 128 126 0 129 125 0 130 124 0 131 124 0 131 124 0 131 124 0 131 124 0 131 124 0 131 125 0 130 125 0 130 125 0 130 126 0 129 127 0 128 128 0 127 130 0 125 131 0 124 132 0 123 133 0 122 133 0 122 131 0 124 130 0 125 128 0 127 126 0 129 124 0 131 122 0 133 121 0 134 120 0 135 120 0 135 120 0 135 120 0 135 121 0 134 122 0 133 123 0 132 124 0 131 125 0 130 125 0 130 125 0 130 125 0 130 125 0 130 125 0 130 124 0 131 124 0 131 124 0 131 124 0 131 124 0 131 124 0 131 124 0 131 124 0 131 123 0 132 123 0 132 123 0 132 123 0 132 123 0 132 124 0 131 125 0 130 127 0 128 128 0 127 128 0 127 128 0 127 127 0 128 126 0 129 125 0 130 125 0 130 124 0 131 124 0 131 124 0 131 124 0 131 123 0 132 123 0 132 122 0 133 121 0 134 120 0 135 119 0 136 118 0 137 117 0 138 117 0 138 118 0 137 119 0 136 121 0 134 123 0 132 126 0 129 127 0 128 128 0 127 128 0 127 128 0 127 128 0 127 127 0 128 126 0 129 125 0 130 125 0 130 125 0 130 126 0 129 126 0 129 127 0 128 127 0 128 126 0 129 126 0 129 125 0 130 124 0 131 123 0 132 122 0 133 121 0 134 121 0 134 121 0 134 121 0 134 121 0 134 121 0 134 121 0 134 121 0 134 121 0 134 122 0 133 123 0 132 124 0 131 126 0 129 131 0 124 160 0 95 
192 0 63 153 0 102 136 0 119 129 0 126 125 0 130 123 0 132 123 0 132 123 0 132 123 0 132 124 0 131 124 0 131 125 0 130 125 0 130 126 0 129 126 0 129 126 0 129 126 0 129 126 0 129 126 0 129 126 0 129 126 0 129 126 0 129 126 0 129 126 0 129 125 0 130 125 0 130 124 0 131 122 0 133 122 0 133 121 0 134 121 0 134 120 0 135 120 0 135 120 0 135 120 0 135 120 0 135 121 0 134 122 0 133 123 0 132 124 0 131 125 0 130 125 0 130 125 0 130 125 0 130 125 0 130 124 0 131 124 0 131 124 0 131 125 0 130 126 0 129 127 0 128 128 0 127 128 0 127 129 0 126 128 0 127 128 0 127 127 0 128 126 0 129 126 0 129 126 0 129 126 0 129 126 0 129 127 0 128 128 0 127 129 0 126 131 0 124 132 0 123 133 0 122 132 0 123 131 0 124 130 0 125 128 0 127 126 0 129 124 0 131 124 0 131 124 0 131 125 0 130 126 0 129 128 0 127 129 0 126 130 0 125 129 0 126 129 0 126 128 0 127 127 0 128 126 0 129 125 0 130 125 0 130 125 0 130 125 0 130 125 0 130 125 0 130 124 0 131 124 0 131 125 0 130 125 0 130 126 0 129 127 0 128 129 0 126 130 0 125 132 0 123 132 0 123 132 0 123 131 0 124 129 0 126 127 0 128 125 0 130 123 0 132 122 0 133 121 0 134 121 0 134 121 0 134 121 0 134 122 0 133 123 0 132 124 0 131 124 0 131 125 0 130 126 0 129 126 0 129 126 0 129 126 0 129 126 0 129 126 0 129 126 0 129 126 0 129 126 0 129 125 0 130 125 0 130 125 0 130 124 0 131 124 0 131 123 0 132 123 0 132 123 0 132 124 0 131 124 0 131 126 0 129 127 0 128 128 0 127 128 0 127 129 0 126 128 0 127 127 0 128 126 0 129 125 0 130 125 0 130 125 0 130 125 0 130 125 0 130 125 0 130 124 0 131 124 0 131 123 0 132 122 0 133 121 0 134 120 0 135 119 0 136 118 0 137 117 0 138 117 0 138 118 0 137 120 0 135 122 0 133 124 0 131 126 0 129 127 0 128 128 0 127 128 0 127 127 0 128 127 0 128 126 0 129 126 0 129 126 0 129 126 0 129 126 0 129 127 0 128 127 0 128 127 0 128 127 0 128 126 0 129 126 0 129 125 0 130 123 0 132 122 0 133 121 0 134 121 0 134 121 0 134 122 0 133 122 0 133 122 0 133 122 0 133 122 0 133 122 0 133 123 0 132 125 0 130 128 0 127 131 0 124 131 0 124 114 0 141 
137 0 118 133 0 122 129 0 126 125 0 130 123 0 132 122 0 133 122 0 133 122 0 133 123 0 132 124 0 131 124 0 131 125 0 130 125 0 130 125 0 130 125 0 130 126 0 129 126 0 129 126 0 129 126 0 129 126 0 129 126 0 129 126 0 129 126 0 129 126 0 129 125 0 130 124 0 131 123 0 132 121 0 134 120 0 135 120 0 135 119 0 136 119 0 136 119 0 136 119 0 136 119 0 136 120 0 135 121 0 134 122 0 133 124 0 131 125 0 130 126 0 129 126 0 129 126 0 129 126 0 129 125 0 130 125 0 130 125 0 130 125 0 130 126 0 129 126 0 129 127 0 128 127 0 128 128 0 127 128 0 127 127 0 128 127 0 128 126 0 129 126 0 129 125 0 130 125 0 130 125 0 130 125 0 130 126 0 129 127 0 128 129 0 126 130 0 125 131 0 124 132 0 123 132 0 123 131 0 124 129 0 126 127 0 128 126 0 129 124 0 131 124 0 131 124 0 131 125 0 130 126 0 129 128 0 127 129 0 126 130 0 125 130 0 125 129 0 126 129 0 126 128 0 127 127 0 128 127 0 128 127 0 128 126 0 129 126 0 129 126 0 129 125 0 130 125 0 130 124 0 131 124 0 131 125 0 130 125 0 130 127 0 128 128 0 127 129 0 126 131 0 124 131 0 124 131 0 124 130 0 125 129 0 126 127 0 128 125 0 130 124 0 131 122 0 133 122 0 133 122 0 133 122 0 133 123 0 132 124 0 131 125 0 130 125 0 130 126 0 129 126 0 129 126 0 129 127 0 128 127 0 128 127 0 128 127 0 128 128 0 127 128 0 127 128 0 127 128 0 127 127 0 128 126 0 129 125 0 130 125 0 130 124 0 131 124 0 131 124 0 131 124 0 131 125 0 130 126 0 129 127 0 128 128 0 127 129 0 126 129 0 126 129 0 126 128 0 127 127 0 128 126 0 129 125 0 130 125 0 130 125 0 130 125 0 130 125 0 130 125 0 130 125 0 130 124 0 131 124 0 131 123 0 132 123 0 132 122 0 133 120 0 135 119 0 136 118 0 137 117 0 138 118 0 137 119 0 136 121 0 134 123 0 132 125 0 130 126 0 129 127 0 128 127 0 128 127 0 128 126 0 129 126 0 129 126 0 129 126 0 129 126 0 129 127 0 128 127 0 128 128 0 127 128 0 127 127 0 128 127 0 128 126 0 129 125 0 130 124 0 131 123 0 132 122 0 133 122 0 133 122 0 133 122 0 133 122 0 133 122 0 133 122 0 133 123 0 132 123 0 132 125 0 130 128 0 127 133 0 122 139 0 116 148 0 107 158 0 97 
73 0 182 113 0 142 121 0 134 122 0 133 122 0 133 121 0 134 122 0 133 122 0 133 123 0 132 124 0 131 125 0 130 125 0 130 125 0 130 126 0 129 126 0 129 126 0 129 126 0 129 126 0 129 126 0 129 126 0 129 126 0 129 127 0 128 126 0 129 126 0 129 125 0 130 123 0 132 122 0 133 121 0 134 119 0 136 119 0 136 118 0 137 118 0 137 118 0 137 118 0 137 119 0 136 120 0 135 121 0 134 123 0 132 124 0 131 126 0 129 127 0 128 127 0 128 127 0 128 127 0 128 126 0 129 126 0 129 126 0 129 126 0 129 126 0 129 127 0 128 127 0 128 127 0 128 127 0 128 127 0 128 126 0 129 126 0 129 125 0 130 125 0 130 124 0 131 124 0 131 124 0 131 125 0 130 125 0 130 126 0 129 127 0 128 128 0 127 129 0 126 130 0 125 130 0 125 129 0 126 128 0 127 127 0 128 126 0 129 125 0 130 125 0 130 125 0 130 126 0 129 127 0 128 128 0 127 129 0 126 129 0 126 130 0 125 129 0 126 129 0 126 129 0 126 128 0 127 128 0 127 128 0 127 128 0 127 127 0 128 126 0 129 126 0 129 125 0 130 124 0 131 124 0 131 124 0 131 125 0 130 126 0 129 127 0 128 129 0 126 130 0 125 130 0 125 130 0 125 130 0 125 129 0 126 127 0 128 125 0 130 124 0 131 123 0 132 123 0 132 123 0 132 124 0 131 125 0 130 126 0 129 127 0 128 127 0 128 127 0 128 127 0 128 127 0 128 127 0 128 127 0 128 128 0 127 129 0 126 129 0 126 130 0 125 130 0 125 130 0 125 129 0 126 128 0 127 127 0 128 125 0 130 125 0 130 125 0 130 125 0 130 126 0 129 127 0 128 128 0 127 129 0 126 130 0 125 130 0 125 130 0 125 129 0 126 128 0 127 126 0 129 125 0 130 125 0 130 125 0 130 125 0 130 125 0 130 125 0 130 125 0 130 125 0 130 124 0 131 124 0 131 124 0 131 124 0 131 123 0 132 121 0 134 120 0 135 118 0 137 118 0 137 118 0 137 119 0 136 120 0 135 121 0 134 123 0 132 124 0 131 125 0 130 125 0 130 125 0 130 125 0 130 125 0 130 125 0 130 126 0 129 126 0 129 127 0 128 128 0 127 128 0 127 128 0 127 128 0 127 127 0 128 127 0 128 126 0 129 125 0 130 124 0 131 123 0 132 122 0 133 123 0 132 123 0 132 123 0 132 123 0 132 123 0 132 124 0 131 125 0 130 126 0 129 130 0 125 136 0 119 146 0 109 165 0 90 204 0 51 
146 0 109 126 0 129 122 0 133 121 0 134 121 0 134 122 0 133 122 0 133 123 0 132 124 0 131 125 0 130 125 0 130 126 0 129 126 0 129 126 0 129 126 0 129 126 0 129 126 0 129 125 0 130 126 0 129 126 0 129 126 0 129 126 0 129 126 0 129 126 0 129 125 0 130 123 0 132 122 0 133 121 0 134 119 0 136 118 0 137 118 0 137 117 0 138 117 0 138 118 0 137 118 0 137 119 0 136 121 0 134 123 0 132 124 0 131 126 0 129 127 0 128 127 0 128 127 0 128 127 0 128 127 0 128 127 0 128 127 0 128 127 0 128 127 0 128 127 0 128 127 0 128 126 0 129 126 0 129 126 0 129 125 0 130 125 0 130 124 0 131 124 0 131 124 0 131 124 0 131 124 0 131 124 0 131 124 0 131 125 0 130 126 0 129 127 0 128 128 0 127 128 0 127 128 0 127 128 0 127 127 0 128 127 0 128 126 0 129 126 0 129 126 0 129 126 0 129 127 0 128 128 0 127 128 0 127 129 0 126 129 0 126 129 0 126 129 0 126 129 0 126 129 0 126 129 0 126 129 0 126 129 0 126 129 0 126 128 0 127 127 0 128 126 0 129 125 0 130 124 0 131 124 0 131 124 0 131 124 0 131 125 0 130 126 0 129 128 0 127 129 0 126 130 0 125 130 0 125 130 0 125 129 0 126 127 0 128 126 0 129 125 0 130 124 0 131 124 0 131 125 0 130 126 0 129 127 0 128 128 0 127 129 0 126 129 0 126 128 0 127 127 0 128 127 0 128 127 0 128 127 0 128 128 0 127 129 0 126 131 0 124 132 0 123 132 0 123 132 0 123 131 0 124 130 0 125 128 0 127 127 0 128 126 0 129 126 0 129 126 0 129 127 0 128 129 0 126 130 0 125 131 0 124 131 0 124 131 0 124 130 0 125 129 0 126 127 0 128 126 0 129 125 0 130 124 0 131 124 0 131 125 0 130 125 0 130 125 0 130 124 0 131 124 0 131 124 0 131 124 0 131 124 0 131 124 0 131 124 0 131 122 0 133 121 0 134 119 0 136 118 0 137 118 0 137 118 0 137 119 0 136 119 0 136 120 0 135 121 0 134 122 0 133 123 0 132 123 0 132 124 0 131 124 0 131 124 0 131 125 0 130 126 0 129 127 0 128 127 0 128 128 0 127 128 0 127 128 0 127 127 0 128 127 0 128 126 0 129 125 0 130 124 0 131 123 0 132 123 0 132 123 0 132 123 0 132 124 0 131 124 0 131 125 0 130 125 0 130 126 0 129 127 0 128 131 0 124 136 0 119 145 0 110 161 0 94 198 0 57 
148 0 107 122 0 133 120 0 135 121 0 134 122 0 133 123 0 132 123 0 132 124 0 131 125 0 130 126 0 129 126 0 129 127 0 128 127 0 128 127 0 128 127 0 128 126 0 129 126 0 129 125 0 130 125 0 130 126 0 129 126 0 129 126 0 129 126 0 129 126 0 129 125 0 130 124 0 131 123 0 132 121 0 134 120 0 135 119 0 136 118 0 137 118 0 137 117 0 138 118 0 137 118 0 137 119 0 136 121 0 134 122 0 133 124 0 131 125 0 130 126 0 129 127 0 128 127 0 128 127 0 128 127 0 128 128 0 127 128 0 127 128 0 127 128 0 127 127 0 128 127 0 128 126 0 129 126 0 129 125 0 130 125 0 130 124 0 131 124 0 131 123 0 132 123 0 132 123 0 132 123 0 132 123 0 132 124 0 131 124 0 131 124 0 131 125 0 130 126 0 129 126 0 129 127 0 128 127 0 128 127 0 128 126 0 129 126 0 129 126 0 129 127 0 128 127 0 128 128 0 127 128 0 127 129 0 126 129 0 126 129 0 126 129 0 126 129 0 126 129 0 126 129 0 126 129 0 126 130 0 125 130 0 125 129 0 126 129 0 126 128 0 127 126 0 129 125 0 130 124 0 131 123 0 132 123 0 132 124 0 131 125 0 130 126 0 129 127 0 128 128 0 127 129 0 126 130 0 125 130 0 125 129 0 126 128 0 127 126 0 129 125 0 130 125 0 130 125 0 130 126 0 129 128 0 127 129 0 126 130 0 125 130 0 125 130 0 125 129 0 126 128 0 127 127 0 128 126 0 129 127 0 128 128 0 127 130 0 125 131 0 124 133 0 122 134 0 121 133 0 122 132 0 123 131 0 124 129 0 126 128 0 127 127 0 128 127 0 128 128 0 127 129 0 126 130 0 125 131 0 124 132 0 123 132 0 123 132 0 123 131 0 124 129 0 126 127 0 128 126 0 129 125 0 130 124 0 131 124 0 131 124 0 131 124 0 131 124 0 131 124 0 131 124 0 131 124 0 131 124 0 131 124 0 131 124 0 131 124 0 131 123 0 132 122 0 133 120 0 135 119 0 136 118 0 137 117 0 138 117 0 138 118 0 137 118 0 137 119 0 136 119 0 136 120 0 135 121 0 134 121 0 134 122 0 133 123 0 132 124 0 131 125 0 130 126 0 129 126 0 129 127 0 128 127 0 128 127 0 128 127 0 128 126 0 129 126 0 129 125 0 130 124 0 131 123 0 132 123 0 132 123 0 132 124 0 131 125 0 130 125 0 130 126 0 129 126 0 129 127 0 128 128 0 127 130 0 125 133 0 122 137 0 118 136 0 119 100 0 155 
16 0 239 95 0 160 115 0 140 122 0 133 124 0 131 124 0 131 124 0 131 125 0 130 126 0 129 126 0 129 127 0 128 128 0 127 128 0 127 128 0 127 127 0 128 126 0 129 126 0 129 125 0 130 125 0 130 125 0 130 126 0 129 126 0 129 127 0 128 126 0 129 126 0 129 125 0 130 124 0 131 122 0 133 121 0 134 120 0 135 119 0 136 118 0 137 118 0 137 118 0 137 118 0 137 119 0 136 120 0 135 121 0 134 123 0 132 124 0 131 125 0 130 126 0 129 127 0 128 127 0 128 128 0 127 128 0 127 128 0 127 128 0 127 128 0 127 128 0 127 127 0 128 126 0 129 126 0 129 125 0 130 124 0 131 124 0 131 124 0 131 123 0 132 123 0 132 123 0 132 123 0 132 123 0 132 123 0 132 123 0 132 123 0 132 124 0 131 124 0 131 125 0 130 125 0 130 126 0 129 126 0 129 126 0 129 126 0 129 127 0 128 127 0 128 128 0 127 129 0 126 129 0 126 129 0 126 129 0 126 129 0 126 128 0 127 128 0 127 128 0 127 128 0 127 129 0 126 130 0 125 130 0 125 130 0 125 129 0 126 128 0 127 127 0 128 125 0 130 124 0 131 123 0 132 123 0 132 123 0 132 124 0 131 125 0 130 126 0 129 128 0 127 128 0 127 129 0 126 129 0 126 129 0 126 128 0 127 127 0 128 126 0 129 125 0 130 126 0 129 127 0 128 129 0 126 131 0 124 132 0 123 132 0 123 131 0 124 129 0 126 128 0 127 126 0 129 126 0 129 126 0 129 127 0 128 129 0 126 131 0 124 133 0 122 134 0 121 134 0 121 133 0 122 131 0 124 130 0 125 129 0 126 128 0 127 129 0 126 129 0 126 130 0 125 132 0 123 133 0 122 133 0 122 133 0 122 132 0 123 131 0 124 129 0 126 127 0 128 126 0 129 125 0 130 124 0 131 124 0 131 124 0 131 124 0 131 124 0 131 124 0 131 123 0 132 123 0 132 124 0 131 124 0 131 124 0 131 124 0 131 124 0 131 122 0 133 121 0 134 119 0 136 118 0 137 117 0 138 117 0 138 117 0 138 117 0 138 117 0 138 117 0 138 117 0 138 118 0 137 119 0 136 120 0 135 121 0 134 122 0 133 123 0 132 124 0 131 125 0 130 125 0 130 126 0 129 126 0 129 126 0 129 126 0 129 125 0 130 124 0 131 124 0 131 123 0 132 123 0 132 123 0 132 124 0 131 125 0 130 126 0 129 127 0 128 127 0 128 128 0 127 128 0 127 129 0 126 131 0 124 135 0 120 147 0 108 204 0 51 
144 0 111 125 0 130 125 0 130 126 0 129 126 0 129 126 0 129 126 0 129 126 0 129 126 0 129 127 0 128 128 0 127 128 0 127 128 0 127 128 0 127 128 0 127 127 0 128 126 0 129 125 0 130 125 0 130 125 0 130 126 0 129 126 0 129 127 0 128 127 0 128 127 0 128 126 0 129 125 0 130 124 0 131 122 0 133 121 0 134 119 0 136 119 0 136 118 0 137 118 0 137 118 0 137 119 0 136 120 0 135 120 0 135 122 0 133 123 0 132 124 0 131 125 0 130 126 0 129 127 0 128 128 0 127 128 0 127 128 0 127 128 0 127 128 0 127 128 0 127 127 0 128 127 0 128 126 0 129 125 0 130 125 0 130 124 0 131 124 0 131 123 0 132 123 0 132 123 0 132 123 0 132 123 0 132 123 0 132 123 0 132 123 0 132 123 0 132 124 0 131 124 0 131 125 0 130 125 0 130 126 0 129 126 0 129 127 0 128 127 0 128 128 0 127 129 0 126 130 0 125 130 0 125 130 0 125 129 0 126 128 0 127 128 0 127 127 0 128 127 0 128 128 0 127 129 0 126 130 0 125 130 0 125 130 0 125 129 0 126 128 0 127 127 0 128 125 0 130 124 0 131 124 0 131 123 0 132 123 0 132 124 0 131 125 0 130 126 0 129 127 0 128 128 0 127 128 0 127 128 0 127 128 0 127 127 0 128 126 0 129 126 0 129 126 0 129 126 0 129 128 0 127 130 0 125 131 0 124 132 0 123 132 0 123 131 0 124 129 0 126 127 0 128 126 0 129 125 0 130 125 0 130 126 0 129 128 0 127 130 0 125 132 0 123 133 0 122 133 0 122 132 0 123 131 0 124 130 0 125 130 0 125 130 0 125 130 0 125 131 0 124 132 0 123 133 0 122 133 0 122 134 0 121 133 0 122 133 0 122 131 0 124 129 0 126 127 0 128 126 0 129 124 0 131 124 0 131 123 0 132 123 0 132 123 0 132 123 0 132 123 0 132 123 0 132 123 0 132 123 0 132 124 0 131 124 0 131 124 0 131 124 0 131 123 0 132 121 0 134 120 0 135 118 0 137 117 0 138 117 0 138 116 0 139 115 0 140 115 0 140 115 0 140 116 0 139 116 0 139 117 0 138 118 0 137 119 0 136 120 0 135 121 0 134 122 0 133 123 0 132 123 0 132 124 0 131 124 0 131 124 0 131 124 0 131 124 0 131 124 0 131 123 0 132 123 0 132 123 0 132 123 0 132 124 0 131 125 0 130 126 0 129 128 0 127 128 0 127 128 0 127 128 0 127 128 0 127 127 0 128 124 0 131 113 0 142 59 0 196 
153 0 102 136 0 119 132 0 123 130 0 125 129 0 126 128 0 127 127 0 128 127 0 128 127 0 128 127 0 128 128 0 127 128 0 127 129 0 126 128 0 127 128 0 127 127 0 128 126 0 129 125 0 130 125 0 130 125 0 130 126 0 129 126 0 129 127 0 128 127 0 128 127 0 128 127 0 128 126 0 129 125 0 130 123 0 132 122 0 133 120 0 135 119 0 136 118 0 137 118 0 137 118 0 137 118 0 137 119 0 136 120 0 135 120 0 135 122 0 133 123 0 132 124 0 131 126 0 129 127 0 128 127 0 128 128 0 127 128 0 127 128 0 127 128 0 127 128 0 127 128 0 127 127 0 128 127 0 128 126 0 129 126 0 129 125 0 130 124 0 131 124 0 131 123 0 132 123 0 132 123 0 132 123 0 132 123 0 132 123 0 132 123 0 132 123 0 132 124 0 131 124 0 131 125 0 130 126 0 129 126 0 129 127 0 128 127 0 128 128 0 127 129 0 126 129 0 126 130 0 125 130 0 125 130 0 125 129 0 126 128 0 127 127 0 128 127 0 128 127 0 128 127 0 128 128 0 127 129 0 126 130 0 125 130 0 125 129 0 126 128 0 127 127 0 128 126 0 129 125 0 130 124 0 131 124 0 131 124 0 131 124 0 131 125 0 130 126 0 129 126 0 129 127 0 128 127 0 128 127 0 128 127 0 128 126 0 129 125 0 130 125 0 130 125 0 130 126 0 129 128 0 127 129 0 126 131 0 124 131 0 124 131 0 124 130 0 125 129 0 126 127 0 128 125 0 130 124 0 131 124 0 131 125 0 130 127 0 128 128 0 127 130 0 125 131 0 124 131 0 124 131 0 124 130 0 125 130 0 125 130 0 125 130 0 125 131 0 124 132 0 123 133 0 122 133 0 122 134 0 121 134 0 121 134 0 121 133 0 122 131 0 124 130 0 125 128 0 127 126 0 129 124 0 131 123 0 132 123 0 132 122 0 133 122 0 133 122 0 133 123 0 132 123 0 132 123 0 132 123 0 132 124 0 131 124 0 131 124 0 131 124 0 131 123 0 132 122 0 133 120 0 135 119 0 136 118 0 137 117 0 138 116 0 139 115 0 140 115 0 140 114 0 141 115 0 140 115 0 140 116 0 139 117 0 138 117 0 138 118 0 137 119 0 136 119 0 136 120 0 135 121 0 134 121 0 134 122 0 133 122 0 133 122 0 133 122 0 133 122 0 133 122 0 133 122 0 133 122 0 133 123 0 132 124 0 131 125 0 130 127 0 128 128 0 127 129 0 126 129 0 126 128 0 127 126 0 129 124 0 131 121 0 134 123 0 132 160 0 95 
129 0 126 135 0 120 135 0 120 133 0 122 131 0 124 130 0 125 128 0 127 127 0 128 127 0 128 127 0 128 128 0 127 129 0 126 129 0 126 129 0 126 128 0 127 127 0 128 126 0 129 126 0 129 125 0 130 125 0 130 126 0 129 127 0 128 127 0 128 128 0 127 128 0 127 128 0 127 127 0 128 126 0 129 124 0 131 123 0 132 121 0 134 120 0 135 119 0 136 118 0 137 118 0 137 118 0 137 119 0 136 119 0 136 120 0 135 121 0 134 122 0 133 124 0 131 125 0 130 126 0 129 127 0 128 128 0 127 128 0 127 128 0 127 128 0 127 128 0 127 128 0 127 128 0 127 127 0 128 127 0 128 126 0 129 126 0 129 125 0 130 124 0 131 124 0 131 124 0 131 124 0 131 124 0 131 124 0 131 124 0 131 124 0 131 124 0 131 125 0 130 125 0 130 126 0 129 126 0 129 127 0 128 127 0 128 128 0 127 128 0 127 129 0 126 130 0 125 130 0 125 130 0 125 130 0 125 129 0 126 128 0 127 127 0 128 126 0 129 126 0 129 127 0 128 127 0 128 128 0 127 129 0 126 129 0 126 129 0 126 128 0 127 127 0 128 126 0 129 125 0 130 125 0 130 124 0 131 124 0 131 125 0 130 125 0 130 125 0 130 126 0 129 126 0 129 126 0 129 125 0 130 125 0 130 124 0 131 123 0 132 123 0 132 124 0 131 125 0 130 126 0 129 128 0 127 129 0 126 130 0 125 130 0 125 129 0 126 128 0 127 126 0 129 124 0 131 123 0 132 123 0 132 124 0 131 125 0 130 126 0 129 128 0 127 129 0 126 129 0 126 129 0 126 129 0 126 130 0 125 130 0 125 131 0 124 132 0 123 133 0 122 134 0 121 134 0 121 134 0 121 134 0 121 133 0 122 133 0 122 131 0 124 130 0 125 128 0 127 126 0 129 124 0 131 123 0 132 122 0 133 122 0 133 122 0 133 122 0 133 122 0 133 123 0 132 123 0 132 123 0 132 124 0 131 124 0 131 124 0 131 124 0 131 123 0 132 122 0 133 121 0 134 120 0 135 119 0 136 118 0 137 117 0 138 116 0 139 115 0 140 115 0 140 115 0 140 115 0 140 115 0 140 116 0 139 116 0 139 117 0 138 117 0 138 117 0 138 118 0 137 118 0 137 119 0 136 119 0 136 120 0 135 121 0 134 121 0 134 121 0 134 121 0 134 121 0 134 121 0 134 122 0 133 124 0 131 125 0 130 127 0 128 128 0 127 129 0 126 129 0 126 128 0 127 125 0 130 121 0 134 113 0 142 96 0 159 44 0 211 
148 0 107 140 0 115 137 0 118 135 0 120 132 0 123 130 0 125 129 0 126 127 0 128 127 0 128 127 0 128 128 0 127 129 0 126 129 0 126 129 0 126 128 0 127 127 0 128 126 0 129 126 0 129 125 0 130 126 0 129 126 0 129 127 0 128 127 0 128 128 0 127 128 0 127 128 0 127 127 0 128 126 0 129 125 0 130 123 0 132 122 0 133 121 0 134 120 0 135 119 0 136 119 0 136 119 0 136 118 0 137 119 0 136 119 0 136 120 0 135 121 0 134 123 0 132 124 0 131 126 0 129 127 0 128 127 0 128 127 0 128 128 0 127 128 0 127 128 0 127 128 0 127 128 0 127 128 0 127 127 0 128 127 0 128 126 0 129 125 0 130 124 0 131 124 0 131 124 0 131 124 0 131 125 0 130 125 0 130 125 0 130 125 0 130 126 0 129 126 0 129 127 0 128 127 0 128 128 0 127 128 0 127 128 0 127 128 0 127 129 0 126 129 0 126 130 0 125 130 0 125 130 0 125 129 0 126 128 0 127 127 0 128 126 0 129 125 0 130 125 0 130 126 0 129 127 0 128 128 0 127 128 0 127 129 0 126 129 0 126 128 0 127 128 0 127 127 0 128 126 0 129 126 0 129 125 0 130 125 0 130 125 0 130 125 0 130 125 0 130 125 0 130 125 0 130 124 0 131 123 0 132 123 0 132 122 0 133 122 0 133 122 0 133 122 0 133 124 0 131 125 0 130 126 0 129 128 0 127 128 0 127 128 0 127 128 0 127 126 0 129 125 0 130 123 0 132 122 0 133 122 0 133 123 0 132 124 0 131 125 0 130 126 0 129 127 0 128 127 0 128 128 0 127 128 0 127 129 0 126 131 0 124 132 0 123 133 0 122 134 0 121 134 0 121 134 0 121 134 0 121 134 0 121 133 0 122 132 0 123 131 0 124 130 0 125 128 0 127 126 0 129 124 0 131 123 0 132 122 0 133 121 0 134 121 0 134 122 0 133 122 0 133 123 0 132 123 0 132 124 0 131 124 0 131 124 0 131 124 0 131 123 0 132 123 0 132 122 0 133 121 0 134 120 0 135 119 0 136 119 0 136 118 0 137 117 0 138 116 0 139 116 0 139 116 0 139 116 0 139 116 0 139 116 0 139 116 0 139 116 0 139 116 0 139 116 0 139 116 0 139 116 0 139 117 0 138 118 0 137 118 0 137 119 0 136 119 0 136 119 0 136 120 0 135 120 0 135 121 0 134 122 0 133 123 0 132 125 0 130 127 0 128 129 0 126 130 0 125 129 0 126 128 0 127 125 0 130 120 0 135 113 0 142 106 0 149 103 0 152 
140 0 115 138 0 117 137 0 118 135 0 120 133 0 122 130 0 125 128 0 127 127 0 128 127 0 128 127 0 128 128 0 127 129 0 126 129 0 126 129 0 126 128 0 127 127 0 128 126 0 129 126 0 129 126 0 129 126 0 129 126 0 129 127 0 128 127 0 128 128 0 127 128 0 127 128 0 127 128 0 127 127 0 128 126 0 129 124 0 131 123 0 132 122 0 133 121 0 134 120 0 135 120 0 135 119 0 136 119 0 136 119 0 136 119 0 136 120 0 135 121 0 134 122 0 133 124 0 131 125 0 130 126 0 129 126 0 129 126 0 129 127 0 128 127 0 128 127 0 128 127 0 128 128 0 127 128 0 127 127 0 128 127 0 128 126 0 129 125 0 130 124 0 131 124 0 131 124 0 131 125 0 130 125 0 130 126 0 129 126 0 129 127 0 128 127 0 128 127 0 128 128 0 127 128 0 127 129 0 126 129 0 126 129 0 126 129 0 126 129 0 126 129 0 126 129 0 126 129 0 126 129 0 126 129 0 126 128 0 127 127 0 128 126 0 129 125 0 130 125 0 130 126 0 129 127 0 128 127 0 128 128 0 127 128 0 127 129 0 126 128 0 127 128 0 127 128 0 127 127 0 128 126 0 129 126 0 129 126 0 129 126 0 129 125 0 130 125 0 130 124 0 131 123 0 132 122 0 133 121 0 134 120 0 135 120 0 135 120 0 135 120 0 135 121 0 134 122 0 133 123 0 132 124 0 131 126 0 129 126 0 129 127 0 128 126 0 129 125 0 130 124 0 131 123 0 132 122 0 133 122 0 133 122 0 133 123 0 132 124 0 131 125 0 130 125 0 130 126 0 129 127 0 128 128 0 127 129 0 126 131 0 124 133 0 122 134 0 121 135 0 120 135 0 120 134 0 121 134 0 121 133 0 122 133 0 122 132 0 123 131 0 124 129 0 126 128 0 127 126 0 129 124 0 131 123 0 132 122 0 133 122 0 133 122 0 133 122 0 133 123 0 132 123 0 132 124 0 131 124 0 131 124 0 131 124 0 131 124 0 131 123 0 132 122 0 133 121 0 134 121 0 134 120 0 135 120 0 135 119 0 136 119 0 136 118 0 137 118 0 137 118 0 137 118 0 137 118 0 137 118 0 137 117 0 138 117 0 138 116 0 139 115 0 140 115 0 140 115 0 140 115 0 140 116 0 139 117 0 138 117 0 138 118 0 137 118 0 137 118 0 137 119 0 136 119 0 136 120 0 135 121 0 134 123 0 132 125 0 130 127 0 128 128 0 127 129 0 126 129 0 126 128 0 127 124 0 131 120 0 135 115 0 140 109 0 146 103 0 152 
102 0 153 134 0 121 137 0 118 135 0 120 132 0 123 130 0 125 128 0 127 127 0 128 127 0 128 127 0 128 128 0 127 129 0 126 129 0 126 129 0 126 129 0 126 128 0 127 127 0 128 126 0 129 126 0 129 126 0 129 126 0 129 127 0 128 127 0 128 128 0 127 128 0 127 128 0 127 128 0 127 127 0 128 126 0 129 125 0 130 124 0 131 123 0 132 122 0 133 122 0 133 121 0 134 120 0 135 120 0 135 119 0 136 119 0 136 120 0 135 121 0 134 122 0 133 123 0 132 124 0 131 124 0 131 124 0 131 125 0 130 125 0 130 125 0 130 126 0 129 126 0 129 127 0 128 127 0 128 127 0 128 126 0 129 126 0 129 125 0 130 124 0 131 124 0 131 124 0 131 125 0 130 126 0 129 126 0 129 127 0 128 127 0 128 128 0 127 128 0 127 129 0 126 129 0 126 129 0 126 129 0 126 129 0 126 129 0 126 129 0 126 129 0 126 129 0 126 129 0 126 128 0 127 128 0 127 127 0 128 126 0 129 125 0 130 125 0 130 125 0 130 126 0 129 127 0 128 127 0 128 128 0 127 128 0 127 129 0 126 129 0 126 129 0 126 128 0 127 128 0 127 127 0 128 127 0 128 126 0 129 126 0 129 125 0 130 125 0 130 124 0 131 122 0 133 121 0 134 119 0 136 118 0 137 118 0 137 118 0 137 119 0 136 119 0 136 121 0 134 122 0 133 123 0 132 124 0 131 125 0 130 125 0 130 125 0 130 125 0 130 124 0 131 123 0 132 123 0 132 123 0 132 123 0 132 123 0 132 124 0 131 125 0 130 125 0 130 126 0 129 127 0 128 128 0 127 130 0 125 131 0 124 133 0 122 134 0 121 135 0 120 135 0 120 134 0 121 134 0 121 133 0 122 132 0 123 131 0 124 130 0 125 129 0 126 128 0 127 126 0 129 125 0 130 123 0 132 123 0 132 122 0 133 122 0 133 123 0 132 124 0 131 124 0 131 125 0 130 125 0 130 125 0 130 124 0 131 123 0 132 122 0 133 122 0 133 121 0 134 120 0 135 120 0 135 120 0 135 120 0 135 120 0 135 120 0 135 120 0 135 120 0 135 120 0 135 120 0 135 120 0 135 119 0 136 118 0 137 117 0 138 116 0 139 115 0 140 115 0 140 116 0 139 116 0 139 116 0 139 117 0 138 117 0 138 117 0 138 117 0 138 118 0 137 118 0 137 119 0 136 120 0 135 122 0 133 124 0 131 126 0 129 128 0 127 129 0 126 129 0 126 127 0 128 124 0 131 119 0 136 115 0 140 114 0 141 132 0 123 
220 0 35 158 0 97 141 0 114 135 0 120 132 0 123 129 0 126 128 0 127 127 0 128 127 0 128 128 0 127 128 0 127 129 0 126 130 0 125 129 0 126 129 0 126 128 0 127 127 0 128 126 0 129 126 0 129 126 0 129 126 0 129 127 0 128 128 0 127 128 0 127 129 0 126 129 0 126 128 0 127 127 0 128 126 0 129 125 0 130 124 0 131 124 0 131 124 0 131 123 0 132 123 0 132 122 0 133 121 0 134 120 0 135 120 0 135 120 0 135 120 0 135 121 0 134 122 0 133 122 0 133 122 0 133 122 0 133 122 0 133 123 0 132 123 0 132 124 0 131 125 0 130 126 0 129 126 0 129 126 0 129 126 0 129 125 0 130 125 0 130 124 0 131 124 0 131 124 0 131 125 0 130 126 0 129 127 0 128 127 0 128 128 0 127 128 0 127 129 0 126 129 0 126 130 0 125 130 0 125 130 0 125 129 0 126 129 0 126 129 0 126 129 0 126 128 0 127 128 0 127 127 0 128 127 0 128 126 0 129 126 0 129 126 0 129 126 0 129 126 0 129 126 0 129 127 0 128 127 0 128 128 0 127 128 0 127 129 0 126 129 0 126 129 0 126 129 0 126 128 0 127 128 0 127 127 0 128 127 0 128 126 0 129 125 0 130 124 0 131 123 0 132 121 0 134 119 0 136 118 0 137 117 0 138 117 0 138 117 0 138 117 0 138 118 0 137 119 0 136 121 0 134 122 0 133 123 0 132 124 0 131 124 0 131 125 0 130 125 0 130 125 0 130 124 0 131 124 0 131 124 0 131 124 0 131 125 0 130 125 0 130 126 0 129 126 0 129 127 0 128 128 0 127 129 0 126 130 0 125 132 0 123 134 0 121 135 0 120 135 0 120 135 0 120 134 0 121 133 0 122 132 0 123 131 0 124 130 0 125 129 0 126 128 0 127 127 0 128 126 0 129 125 0 130 124 0 131 124 0 131 123 0 132 124 0 131 124 0 131 125 0 130 125 0 130 125 0 130 125 0 130 125 0 130 124 0 131 123 0 132 122 0 133 121 0 134 120 0 135 119 0 136 119 0 136 119 0 136 120 0 135 120 0 135 121 0 134 121 0 134 121 0 134 122 0 133 122 0 133 122 0 133 121 0 134 120 0 135 119 0 136 118 0 137 117 0 138 117 0 138 117 0 138 117 0 138 117 0 138 117 0 138 117 0 138 117 0 138 117 0 138 117 0 138 117 0 138 118 0 137 120 0 135 121 0 134 123 0 132 125 0 130 127 0 128 128 0 127 128 0 127 127 0 128 123 0 132 118 0 137 110 0 145 100 0 155 85 0 170 
126 0 129 137 0 118 135 0 120 133 0 122 131 0 124 129 0 126 127 0 128 127 0 128 127 0 128 128 0 127 128 0 127 129 0 126 130 0 125 130 0 125 129 0 126 128 0 127 128 0 127 127 0 128 126 0 129 126 0 129 126 0 129 127 0 128 128 0 127 128 0 127 129 0 126 129 0 126 128 0 127 127 0 128 126 0 129 125 0 130 125 0 130 125 0 130 125 0 130 125 0 130 124 0 131 123 0 132 122 0 133 121 0 134 121 0 134 120 0 135 120 0 135 120 0 135 120 0 135 120 0 135 120 0 135 120 0 135 120 0 135 120 0 135 121 0 134 122 0 133 123 0 132 124 0 131 125 0 130 125 0 130 125 0 130 125 0 130 125 0 130 124 0 131 124 0 131 125 0 130 125 0 130 126 0 129 127 0 128 127 0 128 128 0 127 128 0 127 129 0 126 129 0 126 129 0 126 129 0 126 129 0 126 129 0 126 129 0 126 129 0 126 128 0 127 128 0 127 127 0 128 126 0 129 126 0 129 126 0 129 126 0 129 126 0 129 126 0 129 126 0 129 127 0 128 127 0 128 127 0 128 128 0 127 128 0 127 129 0 126 129 0 126 129 0 126 129 0 126 129 0 126 128 0 127 128 0 127 127 0 128 126 0 129 125 0 130 124 0 131 122 0 133 120 0 135 118 0 137 117 0 138 116 0 139 116 0 139 116 0 139 117 0 138 118 0 137 119 0 136 120 0 135 121 0 134 122 0 133 123 0 132 124 0 131 125 0 130 125 0 130 126 0 129 126 0 129 126 0 129 126 0 129 126 0 129 127 0 128 127 0 128 128 0 127 128 0 127 129 0 126 129 0 126 130 0 125 132 0 123 133 0 122 134 0 121 135 0 120 135 0 120 134 0 121 133 0 122 132 0 123 131 0 124 130 0 125 129 0 126 128 0 127 127 0 128 127 0 128 126 0 129 126 0 129 125 0 130 125 0 130 125 0 130 125 0 130 125 0 130 126 0 129 126 0 129 126 0 129 126 0 129 125 0 130 123 0 132 122 0 133 121 0 134 119 0 136 118 0 137 118 0 137 118 0 137 118 0 137 119 0 136 120 0 135 121 0 134 122 0 133 123 0 132 124 0 131 124 0 131 124 0 131 123 0 132 122 0 133 121 0 134 120 0 135 119 0 136 119 0 136 119 0 136 119 0 136 118 0 137 118 0 137 117 0 138 117 0 138 116 0 139 116 0 139 116 0 139 117 0 138 119 0 136 120 0 135 122 0 133 124 0 131 126 0 129 128 0 127 128 0 127 126 0 129 123 0 132 118 0 137 108 0 147 88 0 167 33 0 222 
134 0 121 128 0 127 130 0 125 130 0 125 129 0 126 128 0 127 127 0 128 127 0 128 127 0 128 128 0 127 128 0 127 129 0 126 130 0 125 130 0 125 129 0 126 129 0 126 128 0 127 127 0 128 126 0 129 126 0 129 126 0 129 127 0 128 128 0 127 128 0 127 129 0 126 129 0 126 128 0 127 127 0 128 126 0 129 126 0 129 126 0 129 126 0 129 126 0 129 126 0 129 126 0 129 125 0 130 124 0 131 123 0 132 122 0 133 121 0 134 120 0 135 119 0 136 119 0 136 118 0 137 117 0 138 117 0 138 117 0 138 118 0 137 119 0 136 120 0 135 121 0 134 122 0 133 123 0 132 124 0 131 124 0 131 124 0 131 124 0 131 124 0 131 124 0 131 125 0 130 125 0 130 126 0 129 126 0 129 127 0 128 127 0 128 128 0 127 128 0 127 129 0 126 129 0 126 129 0 126 129 0 126 128 0 127 128 0 127 128 0 127 128 0 127 127 0 128 126 0 129 126 0 129 125 0 130 125 0 130 125 0 130 126 0 129 126 0 129 127 0 128 127 0 128 127 0 128 127 0 128 128 0 127 128 0 127 129 0 126 129 0 126 130 0 125 130 0 125 129 0 126 128 0 127 128 0 127 127 0 128 126 0 129 125 0 130 123 0 132 121 0 134 120 0 135 118 0 137 116 0 139 115 0 140 115 0 140 115 0 140 116 0 139 117 0 138 118 0 137 120 0 135 121 0 134 122 0 133 123 0 132 124 0 131 125 0 130 126 0 129 127 0 128 127 0 128 127 0 128 128 0 127 128 0 127 129 0 126 129 0 126 130 0 125 130 0 125 131 0 124 131 0 124 132 0 123 133 0 122 133 0 122 134 0 121 135 0 120 134 0 121 134 0 121 132 0 123 131 0 124 130 0 125 129 0 126 128 0 127 127 0 128 126 0 129 126 0 129 126 0 129 126 0 129 126 0 129 126 0 129 126 0 129 126 0 129 126 0 129 127 0 128 127 0 128 126 0 129 126 0 129 124 0 131 123 0 132 121 0 134 119 0 136 118 0 137 117 0 138 117 0 138 117 0 138 117 0 138 118 0 137 119 0 136 121 0 134 122 0 133 124 0 131 125 0 130 126 0 129 126 0 129 125 0 130 124 0 131 123 0 132 122 0 133 121 0 134 121 0 134 121 0 134 120 0 135 120 0 135 119 0 136 118 0 137 117 0 138 116 0 139 115 0 140 116 0 139 116 0 139 118 0 137 119 0 136 121 0 134 123 0 132 125 0 130 127 0 128 127 0 128 126 0 129 124 0 131 120 0 135 116 0 139 113 0 142 128 0 127 
62 0 193 113 0 142 126 0 129 129 0 126 129 0 126 128 0 127 127 0 128 127 0 128 127 0 128 128 0 127 128 0 127 129 0 126 129 0 126 130 0 125 130 0 125 129 0 126 128 0 127 127 0 128 126 0 129 126 0 129 126 0 129 126 0 129 127 0 128 128 0 127 128 0 127 128 0 127 128 0 127 127 0 128 126 0 129 126 0 129 126 0 129 126 0 129 127 0 128 127 0 128 127 0 128 126 0 129 125 0 130 124 0 131 123 0 132 121 0 134 120 0 135 119 0 136 117 0 138 116 0 139 115 0 140 115 0 140 115 0 140 116 0 139 117 0 138 118 0 137 119 0 136 121 0 134 122 0 133 123 0 132 124 0 131 124 0 131 124 0 131 125 0 130 125 0 130 125 0 130 125 0 130 125 0 130 126 0 129 126 0 129 126 0 129 127 0 128 127 0 128 127 0 128 127 0 128 127 0 128 127 0 128 127 0 128 127 0 128 127 0 128 127 0 128 126 0 129 125 0 130 125 0 130 124 0 131 124 0 131 125 0 130 126 0 129 126 0 129 126 0 129 127 0 128 127 0 128 127 0 128 127 0 128 128 0 127 128 0 127 129 0 126 130 0 125 130 0 125 129 0 126 128 0 127 127 0 128 126 0 129 125 0 130 124 0 131 123 0 132 121 0 134 119 0 136 117 0 138 116 0 139 115 0 140 115 0 140 115 0 140 116 0 139 117 0 138 119 0 136 120 0 135 121 0 134 122 0 133 123 0 132 124 0 131 126 0 129 127 0 128 128 0 127 128 0 127 129 0 126 129 0 126 130 0 125 130 0 125 131 0 124 132 0 123 132 0 123 132 0 123 133 0 122 133 0 122 133 0 122 134 0 121 134 0 121 134 0 121 133 0 122 132 0 123 131 0 124 130 0 125 129 0 126 128 0 127 126 0 129 126 0 129 125 0 130 126 0 129 126 0 129 126 0 129 127 0 128 127 0 128 127 0 128 127 0 128 127 0 128 127 0 128 127 0 128 126 0 129 125 0 130 124 0 131 122 0 133 120 0 135 118 0 137 117 0 138 116 0 139 115 0 140 116 0 139 116 0 139 117 0 138 119 0 136 121 0 134 122 0 133 124 0 131 126 0 129 127 0 128 127 0 128 127 0 128 126 0 129 125 0 130 124 0 131 123 0 132 123 0 132 122 0 133 122 0 133 121 0 134 120 0 135 118 0 137 117 0 138 116 0 139 115 0 140 115 0 140 116 0 139 117 0 138 119 0 136 121 0 134 123 0 132 125 0 130 126 0 129 127 0 128 127 0 128 125 0 130 123 0 132 120 0 135 120 0 135 135 0 120 
147 0 108 135 0 120 132 0 123 131 0 124 129 0 126 128 0 127 128 0 127 127 0 128 128 0 127 128 0 127 128 0 127 129 0 126 129 0 126 129 0 126 129 0 126 129 0 126 128 0 127 127 0 128 126 0 129 125 0 130 125 0 130 125 0 130 126 0 129 127 0 128 127 0 128 127 0 128 127 0 128 126 0 129 126 0 129 125 0 130 125 0 130 126 0 129 127 0 128 128 0 127 128 0 127 127 0 128 127 0 128 125 0 130 124 0 131 122 0 133 120 0 135 119 0 136 117 0 138 115 0 140 114 0 141 113 0 142 113 0 142 114 0 141 115 0 140 116 0 139 118 0 137 119 0 136 121 0 134 122 0 133 123 0 132 124 0 131 124 0 131 125 0 130 125 0 130 125 0 130 125 0 130 125 0 130 125 0 130 125 0 130 125 0 130 125 0 130 126 0 129 126 0 129 126 0 129 126 0 129 126 0 129 126 0 129 126 0 129 126 0 129 126 0 129 125 0 130 124 0 131 124 0 131 123 0 132 124 0 131 124 0 131 125 0 130 126 0 129 126 0 129 126 0 129 126 0 129 126 0 129 126 0 129 127 0 128 128 0 127 129 0 126 129 0 126 129 0 126 129 0 126 128 0 127 127 0 128 126 0 129 125 0 130 123 0 132 122 0 133 120 0 135 119 0 136 117 0 138 116 0 139 115 0 140 115 0 140 116 0 139 117 0 138 118 0 137 119 0 136 120 0 135 121 0 134 122 0 133 124 0 131 125 0 130 126 0 129 128 0 127 129 0 126 129 0 126 130 0 125 131 0 124 131 0 124 132 0 123 132 0 123 133 0 122 133 0 122 133 0 122 133 0 122 133 0 122 133 0 122 133 0 122 133 0 122 132 0 123 132 0 123 131 0 124 130 0 125 129 0 126 128 0 127 126 0 129 125 0 130 125 0 130 125 0 130 125 0 130 126 0 129 127 0 128 127 0 128 128 0 127 128 0 127 128 0 127 128 0 127 128 0 127 127 0 128 126 0 129 125 0 130 123 0 132 121 0 134 119 0 136 117 0 138 116 0 139 115 0 140 115 0 140 115 0 140 116 0 139 117 0 138 118 0 137 120 0 135 122 0 133 124 0 131 126 0 129 127 0 128 128 0 127 128 0 127 128 0 127 127 0 128 126 0 129 125 0 130 124 0 131 123 0 132 123 0 132 122 0 133 120 0 135 119 0 136 117 0 138 116 0 139 115 0 140 115 0 140 116 0 139 117 0 138 119 0 136 121 0 134 123 0 132 125 0 130 126 0 129 127 0 128 127 0 128 127 0 128 125 0 130 121 0 134 114 0 141 89 0 166 
173 0 82 148 0 107 137 0 118 132 0 123 130 0 125 129 0 126 128 0 127 128 0 127 128 0 127 128 0 127 128 0 127 128 0 127 129 0 126 129 0 126 129 0 126 128 0 127 127 0 128 126 0 129 125 0 130 124 0 131 124 0 131 124 0 131 124 0 131 125 0 130 126 0 129 126 0 129 126 0 129 125 0 130 125 0 130 125 0 130 125 0 130 125 0 130 126 0 129 127 0 128 128 0 127 128 0 127 127 0 128 126 0 129 125 0 130 123 0 132 121 0 134 119 0 136 117 0 138 115 0 140 114 0 141 113 0 142 112 0 143 113 0 142 114 0 141 115 0 140 117 0 138 118 0 137 120 0 135 122 0 133 123 0 132 124 0 131 124 0 131 125 0 130 125 0 130 125 0 130 125 0 130 124 0 131 124 0 131 124 0 131 124 0 131 124 0 131 124 0 131 124 0 131 124 0 131 124 0 131 124 0 131 125 0 130 125 0 130 125 0 130 125 0 130 124 0 131 123 0 132 122 0 133 122 0 133 123 0 132 124 0 131 124 0 131 125 0 130 125 0 130 125 0 130 125 0 130 125 0 130 125 0 130 126 0 129 128 0 127 129 0 126 130 0 125 130 0 125 129 0 126 128 0 127 126 0 129 125 0 130 124 0 131 123 0 132 121 0 134 120 0 135 119 0 136 118 0 137 117 0 138 116 0 139 116 0 139 116 0 139 117 0 138 118 0 137 120 0 135 121 0 134 122 0 133 123 0 132 124 0 131 126 0 129 127 0 128 128 0 127 129 0 126 130 0 125 131 0 124 131 0 124 132 0 123 132 0 123 133 0 122 133 0 122 134 0 121 134 0 121 134 0 121 133 0 122 132 0 123 132 0 123 131 0 124 131 0 124 130 0 125 129 0 126 128 0 127 128 0 127 126 0 129 125 0 130 124 0 131 124 0 131 124 0 131 124 0 131 126 0 129 127 0 128 128 0 127 129 0 126 129 0 126 129 0 126 128 0 127 127 0 128 127 0 128 125 0 130 124 0 131 122 0 133 120 0 135 118 0 137 116 0 139 115 0 140 115 0 140 115 0 140 115 0 140 116 0 139 117 0 138 118 0 137 120 0 135 122 0 133 124 0 131 126 0 129 128 0 127 129 0 126 129 0 126 129 0 126 128 0 127 127 0 128 126 0 129 125 0 130 124 0 131 123 0 132 122 0 133 120 0 135 119 0 136 118 0 137 117 0 138 116 0 139 116 0 139 117 0 138 118 0 137 119 0 136 121 0 134 123 0 132 125 0 130 127 0 128 128 0 127 128 0 127 128 0 127 128 0 127 127 0 128 124 0 131 108 0 147 
165 0 90 146 0 109 136 0 119 132 0 123 130 0 125 129 0 126 128 0 127 128 0 127 128 0 127 128 0 127 128 0 127 128 0 127 128 0 127 128 0 127 127 0 128 127 0 128 126 0 129 125 0 130 124 0 131 123 0 132 122 0 133 122 0 133 122 0 133 123 0 132 124 0 131 124 0 131 124 0 131 124 0 131 124 0 131 123 0 132 123 0 132 123 0 132 124 0 131 125 0 130 127 0 128 128 0 127 128 0 127 127 0 128 126 0 129 124 0 131 122 0 133 120 0 135 117 0 138 115 0 140 113 0 142 112 0 143 112 0 143 112 0 143 113 0 142 114 0 141 116 0 139 118 0 137 120 0 135 121 0 134 123 0 132 124 0 131 124 0 131 125 0 130 125 0 130 125 0 130 124 0 131 124 0 131 123 0 132 123 0 132 123 0 132 123 0 132 123 0 132 122 0 133 121 0 134 121 0 134 122 0 133 123 0 132 124 0 131 124 0 131 124 0 131 123 0 132 122 0 133 121 0 134 121 0 134 122 0 133 123 0 132 123 0 132 123 0 132 123 0 132 123 0 132 123 0 132 123 0 132 124 0 131 126 0 129 128 0 127 129 0 126 130 0 125 130 0 125 129 0 126 127 0 128 125 0 130 124 0 131 122 0 133 122 0 133 121 0 134 121 0 134 120 0 135 119 0 136 118 0 137 118 0 137 118 0 137 118 0 137 118 0 137 119 0 136 121 0 134 122 0 133 124 0 131 125 0 130 126 0 129 127 0 128 129 0 126 130 0 125 130 0 125 131 0 124 131 0 124 132 0 123 132 0 123 132 0 123 133 0 122 133 0 122 134 0 121 134 0 121 133 0 122 132 0 123 131 0 124 130 0 125 129 0 126 128 0 127 128 0 127 127 0 128 127 0 128 126 0 129 125 0 130 124 0 131 123 0 132 123 0 132 123 0 132 124 0 131 126 0 129 127 0 128 128 0 127 129 0 126 129 0 126 129 0 126 128 0 127 127 0 128 126 0 129 125 0 130 123 0 132 120 0 135 118 0 137 116 0 139 115 0 140 115 0 140 115 0 140 115 0 140 116 0 139 117 0 138 118 0 137 119 0 136 120 0 135 122 0 133 124 0 131 126 0 129 128 0 127 129 0 126 129 0 126 129 0 126 128 0 127 127 0 128 126 0 129 125 0 130 124 0 131 122 0 133 121 0 134 120 0 135 119 0 136 118 0 137 117 0 138 117 0 138 117 0 138 118 0 137 119 0 136 120 0 135 122 0 133 123 0 132 125 0 130 127 0 128 128 0 127 129 0 126 130 0 125 131 0 124 134 0 121 147 0 108 192 0 63 
146 0 109 134 0 121 129 0 126 128 0 127 128 0 127 128 0 127 128 0 127 128 0 127 128 0 127 127 0 128 127 0 128 127 0 128 127 0 128 127 0 128 126 0 129 124 0 131 124 0 131 124 0 131 123 0 132 122 0 133 120 0 135 120 0 135 120 0 135 121 0 134 122 0 133 122 0 133 122 0 133 123 0 132 122 0 133 121 0 134 120 0 135 120 0 135 120 0 135 122 0 133 125 0 130 127 0 128 127 0 128 127 0 128 126 0 129 125 0 130 123 0 132 121 0 134 118 0 137 116 0 139 114 0 141 112 0 143 111 0 144 110 0 145 111 0 144 114 0 141 116 0 139 119 0 136 120 0 135 122 0 133 124 0 131 124 0 131 124 0 131 125 0 130 125 0 130 124 0 131 123 0 132 122 0 133 122 0 133 122 0 133 123 0 132 123 0 132 122 0 133 120 0 135 118 0 137 118 0 137 119 0 136 122 0 133 123 0 132 124 0 131 124 0 131 123 0 132 121 0 134 120 0 135 120 0 135 120 0 135 122 0 133 122 0 133 122 0 133 121 0 134 121 0 134 121 0 134 122 0 133 124 0 131 126 0 129 129 0 126 131 0 124 132 0 123 132 0 123 129 0 126 126 0 129 124 0 131 122 0 133 121 0 134 121 0 134 122 0 133 122 0 133 122 0 133 121 0 134 121 0 134 120 0 135 119 0 136 119 0 136 118 0 137 119 0 136 121 0 134 123 0 132 125 0 130 126 0 129 127 0 128 129 0 126 131 0 124 132 0 123 131 0 124 131 0 124 131 0 124 132 0 123 132 0 123 132 0 123 132 0 123 132 0 123 133 0 122 133 0 122 132 0 123 130 0 125 128 0 127 127 0 128 127 0 128 126 0 129 125 0 130 125 0 130 124 0 131 124 0 131 124 0 131 123 0 132 122 0 133 121 0 134 122 0 133 124 0 131 126 0 129 128 0 127 129 0 126 130 0 125 130 0 125 129 0 126 127 0 128 126 0 129 125 0 130 124 0 131 121 0 134 118 0 137 115 0 140 114 0 141 113 0 142 114 0 141 115 0 140 117 0 138 118 0 137 119 0 136 120 0 135 121 0 134 121 0 134 123 0 132 124 0 131 125 0 130 127 0 128 129 0 126 129 0 126 128 0 127 128 0 127 127 0 128 126 0 129 125 0 130 124 0 131 122 0 133 120 0 135 119 0 136 119 0 136 118 0 137 118 0 137 118 0 137 119 0 136 121 0 134 121 0 134 122 0 133 122 0 133 123 0 132 125 0 130 127 0 128 129 0 126 130 0 125 131 0 124 131 0 124 133 0 122 138 0 117 150 0 105 
100 0 155 114 0 141 118 0 137 122 0 133 125 0 130 128 0 127 129 0 126 129 0 126 128 0 127 127 0 128 127 0 128 127 0 128 127 0 128 126 0 129 123 0 132 121 0 134 121 0 134 122 0 133 122 0 133 120 0 135 119 0 136 117 0 138 118 0 137 120 0 135 120 0 135 119 0 136 119 0 136 121 0 134 121 0 134 119 0 136 116 0 139 114 0 141 114 0 141 118 0 137 122 0 133 125 0 130 126 0 129 127 0 128 125 0 130 125 0 130 125 0 130 123 0 132 120 0 135 116 0 139 113 0 142 112 0 143 109 0 146 108 0 147 109 0 146 113 0 142 117 0 138 120 0 135 122 0 133 124 0 131 126 0 129 125 0 130 124 0 131 125 0 130 125 0 130 123 0 132 121 0 134 120 0 135 120 0 135 121 0 134 123 0 132 124 0 131 122 0 133 119 0 136 115 0 140 114 0 141 116 0 139 121 0 134 124 0 131 126 0 129 127 0 128 125 0 130 121 0 134 118 0 137 118 0 137 119 0 136 121 0 134 121 0 134 120 0 135 118 0 137 117 0 138 117 0 138 120 0 135 123 0 132 126 0 129 130 0 125 135 0 120 137 0 118 135 0 120 130 0 125 125 0 130 121 0 134 119 0 136 119 0 136 121 0 134 123 0 132 125 0 130 125 0 130 123 0 132 124 0 131 123 0 132 121 0 134 119 0 136 117 0 138 117 0 138 120 0 135 125 0 130 127 0 128 127 0 128 128 0 127 132 0 123 135 0 120 135 0 120 133 0 122 131 0 124 131 0 124 132 0 123 132 0 123 132 0 123 131 0 124 131 0 124 133 0 122 133 0 122 131 0 124 128 0 127 125 0 130 124 0 131 124 0 131 123 0 132 122 0 133 121 0 134 120 0 135 121 0 134 122 0 133 121 0 134 119 0 136 119 0 136 122 0 133 124 0 131 127 0 128 129 0 126 129 0 126 130 0 125 131 0 124 130 0 125 126 0 129 124 0 131 125 0 130 123 0 132 120 0 135 115 0 140 111 0 144 110 0 145 110 0 145 112 0 143 116 0 139 119 0 136 120 0 135 122 0 133 123 0 132 123 0 132 123 0 132 124 0 131 125 0 130 125 0 130 127 0 128 129 0 126 128 0 127 126 0 129 126 0 129 127 0 128 126 0 129 126 0 129 124 0 131 121 0 134 117 0 138 118 0 137 119 0 136 118 0 137 118 0 137 121 0 134 122 0 133 125 0 130 125 0 130 123 0 132 122 0 133 123 0 132 124 0 131 125 0 130 128 0 127 131 0 124 132 0 123 131 0 124 127 0 128 122 0 133 126 0 129 
99 0 156 103 0 152 107 0 148 115 0 140 122 0 133 129 0 126 129 0 126 131 0 124 127 0 128 127 0 128 126 0 129 126 0 129 127 0 128 128 0 127 118 0 137 113 0 142 116 0 139 121 0 134 121 0 134 120 0 135 116 0 139 112 0 143 116 0 139 119 0 136 120 0 135 114 0 141 115 0 140 121 0 134 120 0 135 117 0 138 110 0 145 106 0 149 105 0 150 111 0 144 121 0 134 124 0 131 124 0 131 127 0 128 123 0 132 124 0 131 128 0 127 126 0 129 122 0 133 115 0 140 112 0 143 113 0 142 107 0 148 102 0 153 104 0 151 112 0 143 120 0 135 124 0 131 123 0 132 128 0 127 129 0 126 128 0 127 123 0 132 124 0 131 126 0 129 121 0 134 117 0 138 115 0 140 117 0 138 120 0 135 124 0 131 128 0 127 123 0 132 118 0 137 108 0 147 106 0 149 112 0 143 123 0 132 128 0 127 129 0 126 133 0 122 129 0 126 122 0 133 115 0 140 116 0 139 117 0 138 123 0 132 121 0 134 117 0 138 113 0 142 113 0 142 111 0 144 118 0 137 123 0 132 127 0 128 132 0 123 144 0 111 146 0 109 141 0 114 129 0 126 125 0 130 117 0 138 114 0 141 115 0 140 120 0 135 127 0 128 129 0 126 131 0 124 124 0 131 129 0 126 127 0 128 124 0 131 120 0 135 113 0 142 111 0 144 116 0 139 128 0 127 129 0 126 128 0 127 126 0 129 135 0 120 142 0 113 142 0 113 136 0 119 130 0 125 130 0 125 134 0 121 133 0 122 133 0 122 129 0 126 126 0 129 134 0 121 136 0 119 132 0 123 123 0 132 120 0 135 121 0 134 122 0 133 120 0 135 119 0 136 117 0 138 113 0 142 116 0 139 121 0 134 119 0 136 114 0 141 116 0 139 121 0 134 125 0 130 130 0 125 133 0 122 128 0 127 130 0 125 136 0 119 131 0 124 122 0 133 120 0 135 125 0 130 125 0 130 119 0 136 109 0 146 105 0 150 103 0 152 104 0 151 109 0 146 118 0 137 121 0 134 124 0 131 125 0 130 129 0 126 126 0 129 123 0 132 126 0 129 128 0 127 123 0 132 126 0 129 133 0 122 127 0 128 122 0 133 124 0 131 129 0 126 127 0 128 128 0 127 128 0 127 122 0 133 111 0 144 116 0 139 120 0 135 117 0 138 116 0 139 124 0 131 125 0 130 133 0 122 131 0 124 125 0 130 121 0 134 121 0 134 121 0 134 120 0 135 127 0 128 132 0 123 134 0 121 134 0 121 122 0 133 96 0 159 19 0 236 
54 0 201 92 0 163 91 0 164 110 0 145 119 0 136 135 0 120 128 0 127 140 0 115 124 0 131 128 0 127 125 0 130 123 0 132 127 0 128 140 0 115 109 0 146 98 0 157 109 0 146 126 0 129 120 0 135 122 0 133 115 0 140 100 0 155 115 0 140 119 0 136 127 0 128 102 0 153 103 0 152 128 0 127 120 0 135 117 0 138 102 0 153 93 0 162 87 0 168 98 0 157 125 0 130 126 0 129 118 0 137 133 0 122 117 0 138 118 0 137 137 0 118 129 0 126 129 0 126 109 0 146 106 0 149 123 0 132 102 0 153 90 0 165 94 0 161 111 0 144 127 0 128 134 0 121 118 0 137 138 0 117 135 0 120 134 0 121 115 0 140 122 0 133 133 0 122 117 0 138 110 0 145 104 0 151 114 0 141 116 0 139 126 0 129 141 0 114 125 0 130 123 0 132 94 0 161 90 0 165 102 0 153 131 0 124 136 0 119 132 0 123 147 0 108 138 0 117 124 0 131 105 0 150 116 0 139 111 0 144 134 0 121 123 0 132 115 0 140 104 0 151 111 0 144 96 0 159 119 0 136 124 0 131 126 0 129 128 0 127 162 0 93 161 0 94 155 0 100 122 0 133 127 0 128 108 0 147 106 0 149 109 0 146 119 0 136 135 0 120 136 0 119 144 0 111 114 0 141 141 0 114 132 0 123 126 0 129 123 0 132 102 0 153 97 0 158 103 0 152 141 0 114 132 0 123 129 0 126 114 0 141 143 0 112 155 0 100 156 0 99 141 0 114 121 0 134 127 0 128 140 0 115 133 0 122 139 0 116 124 0 131 112 0 143 143 0 112 143 0 112 137 0 118 114 0 141 109 0 146 117 0 138 124 0 131 116 0 139 116 0 139 115 0 140 97 0 158 106 0 149 128 0 127 118 0 137 102 0 153 109 0 146 121 0 134 126 0 129 135 0 120 146 0 109 120 0 135 126 0 129 150 0 105 136 0 119 112 0 143 109 0 146 132 0 123 131 0 124 122 0 133 97 0 158 96 0 159 92 0 163 94 0 161 100 0 155 127 0 128 124 0 131 128 0 127 126 0 129 141 0 114 129 0 126 119 0 136 128 0 127 139 0 116 112 0 143 121 0 134 149 0 106 124 0 131 110 0 145 119 0 136 137 0 118 125 0 130 132 0 123 140 0 115 128 0 127 90 0 165 115 0 140 130 0 125 114 0 141 107 0 148 136 0 119 119 0 136 154 0 101 141 0 114 124 0 131 114 0 141 120 0 135 119 0 136 108 0 147 127 0 128 136 0 119 140 0 115 147 0 108 133 0 122 120 0 135 116 0 139 
89 0 166 119 0 136 53 0 202 115 0 140 108 0 147 164 0 91 109 0 146 177 0 78 99 0 156 136 0 119 124 0 131 116 0 139 116 0 139 198 0 57 79 0 176 61 0 194 95 0 160 154 0 101 110 0 145 134 0 121 121 0 134 58 0 197 126 0 129 116 0 139 168 0 87 63 0 192 68 0 187 170 0 85 113 0 142 130 0 125 87 0 168 78 0 177 52 0 203 69 0 186 157 0 98 135 0 120 89 0 166 170 0 85 94 0 161 94 0 161 174 0 81 125 0 130 156 0 99 86 0 169 79 0 176 170 0 85 89 0 166 61 0 194 72 0 183 110 0 145 144 0 111 169 0 86 77 0 178 170 0 85 140 0 115 158 0 97 83 0 172 114 0 141 166 0 89 104 0 151 100 0 155 78 0 177 118 0 137 106 0 149 120 0 135 187 0 68 113 0 142 153 0 102 57 0 198 56 0 199 78 0 177 163 0 92 153 0 102 115 0 140 188 0 67 151 0 104 134 0 121 64 0 191 133 0 122 76 0 179 179 0 76 120 0 135 117 0 138 76 0 179 131 0 124 42 0 213 137 0 118 127 0 128 127 0 128 91 0 164 217 0 38 183 0 72 194 0 61 77 0 178 153 0 102 81 0 174 94 0 161 95 0 160 111 0 144 161 0 94 135 0 120 197 0 58 49 0 206 187 0 68 134 0 121 125 0 130 144 0 111 73 0 182 71 0 184 57 0 198 200 0 55 130 0 125 142 0 113 57 0 198 166 0 89 181 0 74 185 0 70 153 0 102 88 0 167 116 0 139 167 0 88 120 0 135 166 0 89 118 0 137 54 0 201 181 0 74 155 0 100 161 0 94 85 0 170 86 0 169 113 0 142 140 0 115 106 0 149 112 0 143 131 0 124 51 0 204 85 0 170 167 0 88 122 0 133 65 0 190 98 0 157 130 0 125 122 0 133 138 0 117 195 0 60 79 0 176 103 0 152 204 0 51 151 0 104 81 0 174 70 0 185 164 0 91 145 0 110 141 0 114 61 0 194 91 0 164 73 0 182 80 0 175 68 0 187 164 0 91 120 0 135 139 0 116 108 0 147 180 0 75 130 0 125 96 0 159 129 0 126 189 0 66 66 0 189 96 0 159 219 0 36 112 0 143 74 0 181 106 0 149 177 0 78 103 0 152 136 0 119 170 0 85 162 0 93 5 0 250 124 0 131 172 0 83 102 0 153 61 0 194 195 0 60 63 0 192 223 0 32 156 0 99 116 0 139 93 0 162 125 0 130 125 0 130 65 0 190 136 0 119 147 0 108 141 0 114 181 0 74 143 0 112 136 0 119 63 0 192 
